%
(/home/ajray/eagle/ulp/pcb-gcode.ulp)
(Copyright 2005 - 2009 by John Johnson)
(See readme.txt for licensing terms.)
(This file generated from the board:)
(.../src/ccc_badge/Board/ccc_badge.brd)
(Current profile is /home/ajray/profiles/mach.pp  )
(This file generated 9/22/10 12:24 PM)
( Tool|       Size       |  Min Sub |  Max Sub |   Count )
( T01  0.600mm 0.0236in 0.0000in 0.0000in )
( T02  0.813mm 0.0320in 0.0000in 0.0000in )
( T03  0.900mm 0.0354in 0.0000in 0.0000in )
( T04  1.016mm 0.0400in 0.0000in 0.0000in )
( T05  2.000mm 0.0787in 0.0000in 0.0000in )
( T06  3.302mm 0.1300in 0.0000in 0.0000in )
O00002
G20
(Absolute Coordinates)
G00 G90 G56 X-0.1 Y0.8
M06 T01
G43 H1 Z1.
G00 Z0.1000 
S4000 M03
(G04 P3.000000)
G00 X-0.1000 Y0.8000 
G01 Z-0.0750 F10.00 
G00 Z0.1000 
G00 X-0.2000 Y1.2000 
G01 Z-0.0750 F10.00 
G00 Z0.1000 
G00 X-0.3320 Y0.1440 
G01 Z-0.0750 F10.00 
G00 Z0.1000 
G00 X-0.4100 Y0.1460 
G01 Z-0.0750 F10.00 
G00 Z0.1000 
G00 X-0.4900 Y0.1440 
G01 Z-0.0750 F10.00 
G00 Z0.1000 
G00 X-0.5680 Y0.1460 
G01 Z-0.0750 F10.00 
G00 Z0.1000 
G00 X-1.0000 Y0.2000 
G01 Z-0.0750 F10.00 
G00 Z0.1000 
G00 X-1.4500 Y1.1000 
G01 Z-0.0750 F10.00 
G00 Z0.1000 
G00 X-1.7000 Y0.2500 
G01 Z-0.0750 F10.00 
G00 Z0.1000 
G00 X-1.9500 Y0.9000 
G01 Z-0.0750 F10.00 
G00 Z0.1000 
G00 X-1.9500 Y1.2000 
G01 Z-0.0750 F10.00 
G00 Z0.1000 
G00 X-2.0500 Y0.4500 
G01 Z-0.0750 F10.00 
G00 Z0.1000 
G00 X-2.0500 Y0.9000 
G01 Z-0.0750 F10.00 
G00 Z0.1000 
G00 X-2.4500 Y1.4500 
G01 Z-0.0750 F10.00 
G00 Z0.1000 
G00 X-2.5500 Y1.1000 
G01 Z-0.0750 F10.00 
G00 Z0.1000 
G00 X-2.5500 Y2.1500 
G01 Z-0.0750 F10.00 
G00 Z0.1000 
G00 X-2.7000 Y0.4000 
G01 Z-0.0750 F10.00 
G00 Z0.1000 
G00 X-2.7000 Y1.4500 
G01 Z-0.0750 F10.00 
G00 Z0.1000 
G00 X-2.7500 Y0.2500 
G01 Z-0.0750 F10.00 
G00 Z0.1000 
G00 X-2.8000 Y2.1500 
G01 Z-0.0750 F10.00 
G00 Z0.1000 
G00 X-2.9500 Y1.2000 
G01 Z-0.0750 F10.00 
G00 Z0.1000 
G00 X-3.0540 Y0.1140 
G01 Z-0.0750 F10.00 
G00 Z0.1000 
G00 X-3.1000 Y0.7000 
G01 Z-0.0750 F10.00 
G00 Z0.1000 
G00 X-3.2500 Y0.8500 
G01 Z-0.0750 F10.00 
G00 Z0.1000 
(M05)
G00 Z0.0000 
G00 X0.0000 Y0.0000 
(M06 T02)
G00 Z0.1000 
M03
(G04 P3.000000)
G00 X-2.8500 Y1.0000 
G01 Z-0.0750 F10.00 
G00 Z0.1000 
G00 X-2.8500 Y1.4500 
G01 Z-0.0750 F10.00 
G00 Z0.1000 
G00 X-2.9500 Y1.0000 
G01 Z-0.0750 F10.00 
G00 Z0.1000 
G00 X-2.9500 Y1.4500 
G01 Z-0.0750 F10.00 
G00 Z0.1000 
G00 X-3.6000 Y1.5500 
G01 Z-0.0750 F10.00 
G00 Z0.1000 
G00 X-3.7000 Y1.5500 
G01 Z-0.0750 F10.00 
G00 Z0.1000 
(M05)
G00 Z0.0000 
G00 X0.0000 Y0.0000 
(M06 T03)
G00 Z0.1000 
M03
(G04 P3.000000)
G00 X-1.0500 Y2.1516 
G01 Z-0.0750 F10.00 
G00 Z0.1000 
G00 X-1.0500 Y2.3484 
G01 Z-0.0750 F10.00 
G00 Z0.1000 
G00 X-1.1500 Y2.5000 
G01 Z-0.0750 F10.00 
G00 Z0.1000 
G00 X-1.4500 Y2.5000 
G01 Z-0.0750 F10.00 
G00 Z0.1000 
G00 X-1.5500 Y2.1516 
G01 Z-0.0750 F10.00 
G00 Z0.1000 
G00 X-1.5500 Y2.3484 
G01 Z-0.0750 F10.00 
G00 Z0.1000 
G00 X-2.0000 Y2.1100 
G01 Z-0.0750 F10.00 
G00 Z0.1000 
G00 X-2.0000 Y2.3900 
G01 Z-0.0750 F10.00 
G00 Z0.1000 
G00 X-2.2000 Y1.0000 
G01 Z-0.0750 F10.00 
G00 Z0.1000 
G00 X-2.5000 Y1.0000 
G01 Z-0.0750 F10.00 
G00 Z0.1000 
G00 X-3.0500 Y0.6000 
G01 Z-0.0750 F10.00 
G00 Z0.1000 
G00 X-3.1000 Y0.8500 
G01 Z-0.0750 F10.00 
G00 Z0.1000 
G00 X-3.1000 Y1.1500 
G01 Z-0.0750 F10.00 
G00 Z0.1000 
G00 X-3.1000 Y1.3000 
G01 Z-0.0750 F10.00 
G00 Z0.1000 
G00 X-3.1000 Y1.6000 
G01 Z-0.0750 F10.00 
G00 Z0.1000 
G00 X-3.2500 Y0.7000 
G01 Z-0.0750 F10.00 
G00 Z0.1000 
G00 X-3.2720 Y1.2000 
G01 Z-0.0750 F10.00 
G00 Z0.1000 
G00 X-3.3500 Y0.6000 
G01 Z-0.0750 F10.00 
G00 Z0.1000 
G00 X-3.4000 Y0.1500 
G01 Z-0.0750 F10.00 
G00 Z0.1000 
G00 X-3.5280 Y1.2000 
G01 Z-0.0750 F10.00 
G00 Z0.1000 
G00 X-3.5500 Y0.7000 
G01 Z-0.0750 F10.00 
G00 Z0.1000 
G00 X-3.7000 Y0.1500 
G01 Z-0.0750 F10.00 
G00 Z0.1000 
(M05)
G00 Z0.0000 
G00 X0.0000 Y0.0000 
(M06 T04)
G00 Z0.1000 
M03
(G04 P3.000000)
G00 X-0.1500 Y1.0000 
G01 Z-0.0750 F10.00 
G00 Z0.1000 
G00 X-0.2500 Y1.0000 
G01 Z-0.0750 F10.00 
G00 Z0.1000 
G00 X-0.3500 Y1.0000 
G01 Z-0.0750 F10.00 
G00 Z0.1000 
G00 X-0.4500 Y1.0000 
G01 Z-0.0750 F10.00 
G00 Z0.1000 
G00 X-0.5500 Y1.0000 
G01 Z-0.0750 F10.00 
G00 Z0.1000 
G00 X-0.6500 Y1.0000 
G01 Z-0.0750 F10.00 
G00 Z0.1000 
G00 X-0.7500 Y1.0000 
G01 Z-0.0750 F10.00 
G00 Z0.1000 
G00 X-0.8500 Y1.0000 
G01 Z-0.0750 F10.00 
G00 Z0.1000 
G00 X-0.9500 Y1.0000 
G01 Z-0.0750 F10.00 
G00 Z0.1000 
G00 X-1.0000 Y0.3000 
G01 Z-0.0750 F10.00 
G00 Z0.1000 
G00 X-1.0000 Y0.4000 
G01 Z-0.0750 F10.00 
G00 Z0.1000 
G00 X-1.0000 Y0.5000 
G01 Z-0.0750 F10.00 
G00 Z0.1000 
G00 X-1.0500 Y1.0000 
G01 Z-0.0750 F10.00 
G00 Z0.1000 
G00 X-1.1500 Y1.0000 
G01 Z-0.0750 F10.00 
G00 Z0.1000 
G00 X-1.2000 Y1.9500 
G01 Z-0.0750 F10.00 
G00 Z0.1000 
G00 X-1.2450 Y2.2500 
G01 Z-0.0750 F10.00 
G00 Z0.1000 
G00 X-1.2500 Y1.0000 
G01 Z-0.0750 F10.00 
G00 Z0.1000 
G00 X-1.3000 Y0.1500 
G01 Z-0.0750 F10.00 
G00 Z0.1000 
G00 X-1.3000 Y0.7500 
G01 Z-0.0750 F10.00 
G00 Z0.1000 
G00 X-1.3000 Y1.9500 
G01 Z-0.0750 F10.00 
G00 Z0.1000 
G00 X-1.3500 Y1.0000 
G01 Z-0.0750 F10.00 
G00 Z0.1000 
G00 X-1.3550 Y2.2500 
G01 Z-0.0750 F10.00 
G00 Z0.1000 
G00 X-1.4000 Y0.1500 
G01 Z-0.0750 F10.00 
G00 Z0.1000 
G00 X-1.4000 Y0.7500 
G01 Z-0.0750 F10.00 
G00 Z0.1000 
G00 X-1.4000 Y1.9500 
G01 Z-0.0750 F10.00 
G00 Z0.1000 
G00 X-1.4500 Y1.0000 
G01 Z-0.0750 F10.00 
G00 Z0.1000 
G00 X-1.5000 Y0.1500 
G01 Z-0.0750 F10.00 
G00 Z0.1000 
G00 X-1.5000 Y0.7500 
G01 Z-0.0750 F10.00 
G00 Z0.1000 
G00 X-1.5500 Y1.0000 
G01 Z-0.0750 F10.00 
G00 Z0.1000 
G00 X-1.6000 Y0.1500 
G01 Z-0.0750 F10.00 
G00 Z0.1000 
G00 X-1.6000 Y0.7500 
G01 Z-0.0750 F10.00 
G00 Z0.1000 
G00 X-1.6500 Y1.0000 
G01 Z-0.0750 F10.00 
G00 Z0.1000 
G00 X-1.7000 Y0.1500 
G01 Z-0.0750 F10.00 
G00 Z0.1000 
G00 X-1.7000 Y0.7500 
G01 Z-0.0750 F10.00 
G00 Z0.1000 
G00 X-1.7500 Y1.0000 
G01 Z-0.0750 F10.00 
G00 Z0.1000 
G00 X-1.8000 Y0.1500 
G01 Z-0.0750 F10.00 
G00 Z0.1000 
G00 X-1.8000 Y0.7500 
G01 Z-0.0750 F10.00 
G00 Z0.1000 
G00 X-1.8500 Y1.0000 
G01 Z-0.0750 F10.00 
G00 Z0.1000 
G00 X-1.9000 Y0.1500 
G01 Z-0.0750 F10.00 
G00 Z0.1000 
G00 X-1.9000 Y0.7500 
G01 Z-0.0750 F10.00 
G00 Z0.1000 
G00 X-1.9500 Y0.2500 
G01 Z-0.0750 F10.00 
G00 Z0.1000 
G00 X-1.9500 Y1.0000 
G01 Z-0.0750 F10.00 
G00 Z0.1000 
G00 X-2.0000 Y0.1500 
G01 Z-0.0750 F10.00 
G00 Z0.1000 
G00 X-2.0000 Y0.7500 
G01 Z-0.0750 F10.00 
G00 Z0.1000 
G00 X-2.0500 Y0.2500 
G01 Z-0.0750 F10.00 
G00 Z0.1000 
G00 X-2.0500 Y1.0000 
G01 Z-0.0750 F10.00 
G00 Z0.1000 
G00 X-2.1000 Y0.1500 
G01 Z-0.0750 F10.00 
G00 Z0.1000 
G00 X-2.1000 Y0.7500 
G01 Z-0.0750 F10.00 
G00 Z0.1000 
G00 X-2.2000 Y0.1500 
G01 Z-0.0750 F10.00 
G00 Z0.1000 
G00 X-2.2000 Y0.7500 
G01 Z-0.0750 F10.00 
G00 Z0.1000 
G00 X-2.3000 Y0.1500 
G01 Z-0.0750 F10.00 
G00 Z0.1000 
G00 X-2.3000 Y0.7500 
G01 Z-0.0750 F10.00 
G00 Z0.1000 
G00 X-2.4000 Y0.1500 
G01 Z-0.0750 F10.00 
G00 Z0.1000 
G00 X-2.4000 Y0.7500 
G01 Z-0.0750 F10.00 
G00 Z0.1000 
G00 X-2.5500 Y0.2000 
G01 Z-0.0750 F10.00 
G00 Z0.1000 
G00 X-2.5500 Y0.3000 
G01 Z-0.0750 F10.00 
G00 Z0.1000 
G00 X-2.5500 Y0.4000 
G01 Z-0.0750 F10.00 
G00 Z0.1000 
G00 X-2.5500 Y0.5000 
G01 Z-0.0750 F10.00 
G00 Z0.1000 
G00 X-2.5500 Y0.6000 
G01 Z-0.0750 F10.00 
G00 Z0.1000 
G00 X-2.5500 Y0.7000 
G01 Z-0.0750 F10.00 
G00 Z0.1000 
G00 X-2.9500 Y0.2000 
G01 Z-0.0750 F10.00 
G00 Z0.1000 
G00 X-2.9500 Y0.3000 
G01 Z-0.0750 F10.00 
G00 Z0.1000 
G00 X-2.9500 Y0.4000 
G01 Z-0.0750 F10.00 
G00 Z0.1000 
G00 X-2.9500 Y0.5000 
G01 Z-0.0750 F10.00 
G00 Z0.1000 
G00 X-2.9500 Y0.6000 
G01 Z-0.0750 F10.00 
G00 Z0.1000 
G00 X-2.9500 Y0.7000 
G01 Z-0.0750 F10.00 
G00 Z0.1000 
G00 X-3.1110 Y0.2220 
G01 Z-0.0750 F10.00 
G00 Z0.1000 
G00 X-3.1110 Y0.4780 
G01 Z-0.0750 F10.00 
G00 Z0.1000 
G00 X-3.1500 Y1.8000 
G01 Z-0.0750 F10.00 
G00 Z0.1000 
G00 X-3.1500 Y1.9000 
G01 Z-0.0750 F10.00 
G00 Z0.1000 
G00 X-3.1500 Y2.0000 
G01 Z-0.0750 F10.00 
G00 Z0.1000 
G00 X-3.1500 Y2.1000 
G01 Z-0.0750 F10.00 
G00 Z0.1000 
G00 X-3.1500 Y2.2000 
G01 Z-0.0750 F10.00 
G00 Z0.1000 
G00 X-3.1500 Y2.3000 
G01 Z-0.0750 F10.00 
G00 Z0.1000 
G00 X-3.1500 Y2.4000 
G01 Z-0.0750 F10.00 
G00 Z0.1000 
G00 X-3.1500 Y2.5000 
G01 Z-0.0750 F10.00 
G00 Z0.1000 
G00 X-3.1500 Y2.6000 
G01 Z-0.0750 F10.00 
G00 Z0.1000 
G00 X-3.1500 Y2.7000 
G01 Z-0.0750 F10.00 
G00 Z0.1000 
G00 X-3.2890 Y0.2220 
G01 Z-0.0750 F10.00 
G00 Z0.1000 
G00 X-3.2890 Y0.4780 
G01 Z-0.0750 F10.00 
G00 Z0.1000 
G00 X-3.4610 Y0.2720 
G01 Z-0.0750 F10.00 
G00 Z0.1000 
G00 X-3.4610 Y0.5280 
G01 Z-0.0750 F10.00 
G00 Z0.1000 
G00 X-3.6390 Y0.2720 
G01 Z-0.0750 F10.00 
G00 Z0.1000 
G00 X-3.6390 Y0.5280 
G01 Z-0.0750 F10.00 
G00 Z0.1000 
G00 X-3.6500 Y1.8000 
G01 Z-0.0750 F10.00 
G00 Z0.1000 
G00 X-3.6500 Y1.9000 
G01 Z-0.0750 F10.00 
G00 Z0.1000 
G00 X-3.6500 Y2.0000 
G01 Z-0.0750 F10.00 
G00 Z0.1000 
G00 X-3.6500 Y2.1000 
G01 Z-0.0750 F10.00 
G00 Z0.1000 
G00 X-3.6500 Y2.2000 
G01 Z-0.0750 F10.00 
G00 Z0.1000 
G00 X-3.6500 Y2.3000 
G01 Z-0.0750 F10.00 
G00 Z0.1000 
G00 X-3.6500 Y2.4000 
G01 Z-0.0750 F10.00 
G00 Z0.1000 
G00 X-3.6500 Y2.5000 
G01 Z-0.0750 F10.00 
G00 Z0.1000 
G00 X-3.6500 Y2.6000 
G01 Z-0.0750 F10.00 
G00 Z0.1000 
G00 X-3.6500 Y2.7000 
G01 Z-0.0750 F10.00 
G00 Z0.1000 
(M05)
G00 Z0.0000 
G00 X0.0000 Y0.0000 
(M06 T05)
G00 Z0.1000 
M03
(G04 P3.000000)
G00 X-0.7404 Y0.8461 
G01 Z-0.0750 F10.00 
G00 Z0.1000 
G00 X-0.8000 Y0.0963 
G01 Z-0.0750 F10.00 
G00 Z0.1000 
(M05)
G00 Z0.0000 
G00 X0.0000 Y0.0000 
(M06 T06)
G00 Z0.1000 
M03
(G04 P3.000000)
G00 X-1.3000 Y1.3600 
G01 Z-0.0750 F10.00 
G00 Z0.1000 
T01 
G00 Z0.5000 
M05
G28 G91 Z0. Y0.
M30
%
