(/home/ajray/eagle/ulp/pcb-gcode.ulp)
(Copyright 2005 - 2009 by John Johnson)
(See readme.txt for licensing terms.)
(This file generated from the board:)
(.../src/ccc_badge/Board/ccc_badge.brd)
(Current profile is /home/ajray/profiles/mach.pp  )
(This file generated 9/22/10 12:23 PM)
G20
(Absolute Coordinates)
G90
G00 X0.0000 Y0.0000 
M03
G04 P3.000000
G00 Z0.1000 
G00 X-1.4284 Y1.2614 
G01 Z-0.0070 F10.00 
G01 X-1.3985 Y1.2316 F20.00 
G01 X-1.3619 Y1.2104 
G01 X-1.3211 Y1.1995 
G01 X-1.2789 Y1.1995 
G01 X-1.2380 Y1.2104 
G01 X-1.2014 Y1.2316 
G01 X-1.1716 Y1.2614 
G01 X-1.1504 Y1.2980 
G01 X-1.1395 Y1.3389 
G01 X-1.1395 Y1.3811 
G01 X-1.1504 Y1.4219 
G01 X-1.1716 Y1.4585 
G01 X-1.2014 Y1.4884 
G01 X-1.2380 Y1.5096 
G01 X-1.2789 Y1.5205 
G01 X-1.3211 Y1.5205 
G01 X-1.3619 Y1.5096 
G01 X-1.3985 Y1.4884 
G01 X-1.4284 Y1.4585 
G01 X-1.4496 Y1.4219 
G01 X-1.4605 Y1.3811 
G01 X-1.4605 Y1.3389 
G01 X-1.4496 Y1.2980 
G01 X-1.4284 Y1.2614 
G00 Z0.1000 
G00 X-2.0375 Y0.2896 
G01 Z-0.0070 F10.00 
G01 X-2.0351 Y0.2888 F20.00 
G01 X-2.0354 Y0.2892 
G01 X-2.0360 Y0.2897 
G01 X-2.0364 Y0.2905 
G01 X-2.0369 Y0.2911 
G01 X-2.0372 Y0.2919 
G01 X-2.0375 Y0.2924 
G01 X-2.0375 Y0.2896 
G00 Z0.1000 
G00 X-2.0375 Y0.4146 
G01 Z-0.0070 F10.00 
G01 X-2.0375 Y0.4120 F20.00 
G01 X-2.0372 Y0.4124 
G01 X-2.0369 Y0.4132 
G01 X-2.0364 Y0.4139 
G01 X-2.0360 Y0.4146 
G01 X-2.0354 Y0.4152 
G01 X-2.0351 Y0.4156 
G01 X-2.0375 Y0.4146 
G00 Z0.1000 
G00 X-2.4625 Y2.3775 
G01 Z-0.0070 F10.00 
G01 X-2.4689 Y2.3775 F20.00 
G01 X-2.4663 Y2.3760 
G01 X-2.4640 Y2.3737 
G01 X-2.4625 Y2.3711 
G01 X-2.4625 Y2.3775 
G00 Z0.1000 
G00 X-3.1132 Y2.5809 
G01 Z-0.0070 F10.00 
G01 X-3.1112 Y2.5789 F20.00 
G01 X-3.1114 Y2.5794 
G01 X-3.1117 Y2.5802 
G01 X-3.1118 Y2.5810 
G01 X-3.1120 Y2.5818 
G01 X-3.1120 Y2.5826 
G01 X-3.1121 Y2.5831 
G01 X-3.1132 Y2.5809 
G00 Z0.1000 
G00 X-2.9132 Y0.7191 
G01 Z-0.0070 F10.00 
G01 X-2.9120 Y0.7169 F20.00 
G01 X-2.9120 Y0.7174 
G01 X-2.9120 Y0.7182 
G01 X-2.9118 Y0.7190 
G01 X-2.9117 Y0.7198 
G01 X-2.9114 Y0.7206 
G01 X-2.9112 Y0.7211 
G01 X-2.9132 Y0.7191 
G00 Z0.1000 
G00 X-2.4625 Y1.4854 
G01 Z-0.0070 F10.00 
G01 X-2.4625 Y1.4880 F20.00 
G01 X-2.4628 Y1.4875 
G01 X-2.4631 Y1.4868 
G01 X-2.4636 Y1.4861 
G01 X-2.4640 Y1.4854 
G01 X-2.4646 Y1.4848 
G01 X-2.4649 Y1.4844 
G01 X-2.4625 Y1.4854 
G00 Z0.1000 
G00 X-2.1191 Y0.1132 
G01 Z-0.0070 F10.00 
G01 X-2.1211 Y0.1112 F20.00 
G01 X-2.1206 Y0.1114 
G01 X-2.1198 Y0.1117 
G01 X-2.1190 Y0.1118 
G01 X-2.1182 Y0.1120 
G01 X-2.1174 Y0.1120 
G01 X-2.1169 Y0.1121 
G01 X-2.1191 Y0.1132 
G00 Z0.1000 
G00 X-0.1060 Y0.7630 
G01 Z-0.0070 F10.00 
G01 X-0.1070 Y0.7610 F20.00 
G01 X-0.1057 Y0.7618 
G01 X-0.1045 Y0.7625 
G01 X-0.1044 Y0.7626 
G01 X-0.1060 Y0.7630 
G00 Z0.1000 
G00 X-0.3945 Y0.1802 
G01 Z-0.0070 F10.00 
G01 X-0.3922 Y0.1792 F20.00 
G01 X-0.3905 Y0.1780 
G01 X-0.3908 Y0.1783 
G01 X-0.3915 Y0.1791 
G01 X-0.3922 Y0.1798 
G01 X-0.3925 Y0.1804 
G01 X-0.3929 Y0.1809 
G01 X-0.3933 Y0.1818 
G01 X-0.3938 Y0.1827 
G01 X-0.3940 Y0.1833 
G01 X-0.3941 Y0.1836 
G01 X-0.3945 Y0.1802 
G00 Z0.1000 
G00 X-0.5348 Y0.1638 
G01 Z-0.0070 F10.00 
G01 X-0.5319 Y0.1569 F20.00 
G01 X-0.5305 Y0.1497 
G01 X-0.5305 Y0.1423 
G01 X-0.5319 Y0.1351 
G01 X-0.5348 Y0.1282 
G01 X-0.5368 Y0.1252 
G01 X-0.5364 Y0.1254 
G01 X-0.5348 Y0.1264 
G01 X-0.5316 Y0.1272 
G01 X-0.5283 Y0.1272 
G01 X-0.5275 Y0.1270 
G01 X-0.5252 Y0.1264 
G01 X-0.5223 Y0.1247 
G01 X-0.5220 Y0.1243 
G01 X-0.5232 Y0.1262 
G01 X-0.5261 Y0.1331 
G01 X-0.5275 Y0.1403 
G01 X-0.5275 Y0.1477 
G01 X-0.5261 Y0.1549 
G01 X-0.5232 Y0.1618 
G01 X-0.5212 Y0.1648 
G01 X-0.5232 Y0.1636 
G01 X-0.5233 Y0.1636 
G01 X-0.5263 Y0.1628 
G01 X-0.5296 Y0.1628 
G01 X-0.5328 Y0.1636 
G01 X-0.5357 Y0.1653 
G01 X-0.5358 Y0.1655 
G01 X-0.5360 Y0.1657 
G01 X-0.5348 Y0.1638 
G00 Z0.1000 
G00 X-0.7365 Y0.1387 
G01 Z-0.0070 F10.00 
G01 X-0.7576 Y0.1597 F20.00 
G01 X-0.7682 Y0.1641 
G01 X-0.7690 Y0.1644 
G01 X-0.7698 Y0.1648 
G01 X-0.7705 Y0.1651 
G01 X-0.7712 Y0.1656 
G01 X-0.7719 Y0.1660 
G01 X-0.7725 Y0.1666 
G01 X-0.7731 Y0.1671 
G01 X-0.7736 Y0.1677 
G01 X-0.7742 Y0.1683 
G01 X-0.7746 Y0.1691 
G01 X-0.7751 Y0.1697 
G01 X-0.7754 Y0.1704 
G01 X-0.7759 Y0.1712 
G01 X-0.7761 Y0.1720 
G01 X-0.7764 Y0.1727 
G01 X-0.7765 Y0.1735 
G01 X-0.7767 Y0.1744 
G01 X-0.7767 Y0.1752 
G01 X-0.7768 Y0.1760 
G01 X-0.7767 Y0.1768 
G01 X-0.7767 Y0.1776 
G01 X-0.7765 Y0.1785 
G01 X-0.7764 Y0.1793 
G01 X-0.7761 Y0.1800 
G01 X-0.7759 Y0.1808 
G01 X-0.7754 Y0.1815 
G01 X-0.7751 Y0.1823 
G01 X-0.7746 Y0.1829 
G01 X-0.7742 Y0.1837 
G01 X-0.7736 Y0.1843 
G01 X-0.7731 Y0.1849 
G01 X-0.7725 Y0.1854 
G01 X-0.7719 Y0.1860 
G01 X-0.7712 Y0.1864 
G01 X-0.7705 Y0.1869 
G01 X-0.7698 Y0.1872 
G01 X-0.7693 Y0.1875 
G01 X-0.8307 Y0.1875 
G01 X-0.8302 Y0.1872 
G01 X-0.8295 Y0.1869 
G01 X-0.8288 Y0.1864 
G01 X-0.8281 Y0.1860 
G01 X-0.8275 Y0.1854 
G01 X-0.8269 Y0.1849 
G01 X-0.8264 Y0.1843 
G01 X-0.8258 Y0.1837 
G01 X-0.8254 Y0.1829 
G01 X-0.8249 Y0.1823 
G01 X-0.8245 Y0.1815 
G01 X-0.8241 Y0.1808 
G01 X-0.8239 Y0.1800 
G01 X-0.8236 Y0.1793 
G01 X-0.8235 Y0.1784 
G01 X-0.8233 Y0.1776 
G01 X-0.8233 Y0.1768 
G01 X-0.8232 Y0.1760 
G01 X-0.8233 Y0.1752 
G01 X-0.8233 Y0.1744 
G01 X-0.8235 Y0.1735 
G01 X-0.8236 Y0.1727 
G01 X-0.8239 Y0.1720 
G01 X-0.8241 Y0.1712 
G01 X-0.8246 Y0.1704 
G01 X-0.8249 Y0.1697 
G01 X-0.8254 Y0.1691 
G01 X-0.8258 Y0.1683 
G01 X-0.8264 Y0.1677 
G01 X-0.8269 Y0.1671 
G01 X-0.8275 Y0.1666 
G01 X-0.8281 Y0.1660 
G01 X-0.8288 Y0.1656 
G01 X-0.8295 Y0.1651 
G01 X-0.8302 Y0.1648 
G01 X-0.8310 Y0.1644 
G01 X-0.8318 Y0.1641 
G01 X-0.8376 Y0.1617 
G01 X-0.8383 Y0.1613 
G01 X-0.8390 Y0.1611 
G01 X-0.8398 Y0.1608 
G01 X-0.8407 Y0.1607 
G01 X-0.8414 Y0.1605 
G01 X-0.8423 Y0.1605 
G01 X-0.8431 Y0.1604 
G01 X-0.8439 Y0.1605 
G01 X-0.8447 Y0.1605 
G01 X-0.8455 Y0.1607 
G01 X-0.8463 Y0.1608 
G01 X-0.8471 Y0.1611 
G01 X-0.8479 Y0.1613 
G01 X-0.8486 Y0.1618 
G01 X-0.8494 Y0.1621 
G01 X-0.8500 Y0.1626 
G01 X-0.8508 Y0.1630 
G01 X-0.8514 Y0.1636 
G01 X-0.8520 Y0.1641 
G01 X-0.8525 Y0.1647 
G01 X-0.8531 Y0.1653 
G01 X-0.8535 Y0.1660 
G01 X-0.8540 Y0.1667 
G01 X-0.8543 Y0.1675 
G01 X-0.8547 Y0.1682 
G01 X-0.8549 Y0.1689 
G01 X-0.8553 Y0.1697 
G01 X-0.8554 Y0.1706 
G01 X-0.8556 Y0.1713 
G01 X-0.8556 Y0.1722 
G01 X-0.8557 Y0.1730 
G01 X-0.8556 Y0.1738 
G01 X-0.8556 Y0.1746 
G01 X-0.8554 Y0.1754 
G01 X-0.8553 Y0.1762 
G01 X-0.8549 Y0.1770 
G01 X-0.8548 Y0.1775 
G01 X-0.8813 Y0.1511 
G01 X-0.8807 Y0.1512 
G01 X-0.8800 Y0.1515 
G01 X-0.8792 Y0.1516 
G01 X-0.8784 Y0.1518 
G01 X-0.8775 Y0.1518 
G01 X-0.8767 Y0.1519 
G01 X-0.8759 Y0.1518 
G01 X-0.8751 Y0.1518 
G01 X-0.8743 Y0.1516 
G01 X-0.8735 Y0.1515 
G01 X-0.8727 Y0.1512 
G01 X-0.8719 Y0.1510 
G01 X-0.8712 Y0.1506 
G01 X-0.8704 Y0.1503 
G01 X-0.8698 Y0.1497 
G01 X-0.8690 Y0.1493 
G01 X-0.8685 Y0.1488 
G01 X-0.8678 Y0.1483 
G01 X-0.8673 Y0.1476 
G01 X-0.8667 Y0.1470 
G01 X-0.8663 Y0.1463 
G01 X-0.8658 Y0.1456 
G01 X-0.8655 Y0.1449 
G01 X-0.8651 Y0.1442 
G01 X-0.8649 Y0.1434 
G01 X-0.8645 Y0.1426 
G01 X-0.8644 Y0.1418 
G01 X-0.8642 Y0.1410 
G01 X-0.8642 Y0.1401 
G01 X-0.8641 Y0.1393 
G01 X-0.8642 Y0.1385 
G01 X-0.8642 Y0.1377 
G01 X-0.8644 Y0.1369 
G01 X-0.8645 Y0.1361 
G01 X-0.8649 Y0.1353 
G01 X-0.8651 Y0.1345 
G01 X-0.8655 Y0.1338 
G01 X-0.8749 Y0.1112 
G01 X-0.8749 Y0.1083 
G01 X-0.8757 Y0.1052 
G01 X-0.8774 Y0.1023 
G01 X-0.8797 Y0.1000 
G01 X-0.8823 Y0.0985 
G01 X-0.7177 Y0.0985 
G01 X-0.7203 Y0.1000 
G01 X-0.7226 Y0.1023 
G01 X-0.7243 Y0.1052 
G01 X-0.7251 Y0.1083 
G01 X-0.7251 Y0.1111 
G01 X-0.7365 Y0.1387 
G00 Z0.1000 
G00 X-0.5502 Y0.1128 
G01 Z-0.0070 F10.00 
G01 X-0.5571 Y0.1099 F20.00 
G01 X-0.5643 Y0.1085 
G01 X-0.5717 Y0.1085 
G01 X-0.5789 Y0.1099 
G01 X-0.5858 Y0.1128 
G01 X-0.5901 Y0.1157 
G01 X-0.5896 Y0.1148 
G01 X-0.5890 Y0.1125 
G01 X-0.5888 Y0.1116 
G01 X-0.5888 Y0.1084 
G01 X-0.5896 Y0.1052 
G01 X-0.5913 Y0.1023 
G01 X-0.5936 Y0.1000 
G01 X-0.5962 Y0.0985 
G01 X-0.5398 Y0.0985 
G01 X-0.5424 Y0.1000 
G01 X-0.5447 Y0.1023 
G01 X-0.5454 Y0.1035 
G01 X-0.5464 Y0.1052 
G01 X-0.5472 Y0.1083 
G01 X-0.5472 Y0.1116 
G01 X-0.5470 Y0.1125 
G01 X-0.5464 Y0.1148 
G01 X-0.5458 Y0.1157 
G01 X-0.5502 Y0.1128 
G00 Z0.1000 
G00 X-0.6046 Y0.1544 
G01 Z-0.0070 F10.00 
G01 X-0.6064 Y0.1556 F20.00 
G01 X-0.6060 Y0.1547 
G01 X-0.6053 Y0.1537 
G01 X-0.6052 Y0.1533 
G01 X-0.6050 Y0.1529 
G01 X-0.6050 Y0.1524 
G01 X-0.6046 Y0.1544 
G00 Z0.1000 
G00 X-0.5138 Y0.0985 
G01 Z-0.0070 F10.00 
G01 X-0.5103 Y0.1125 F20.00 
G01 X-0.5136 Y0.1147 
G01 X-0.5128 Y0.1116 
G01 X-0.5128 Y0.1083 
G01 X-0.5136 Y0.1052 
G01 X-0.5153 Y0.1023 
G01 X-0.5176 Y0.1000 
G01 X-0.5202 Y0.0985 
G01 X-0.5138 Y0.0985 
G00 Z0.1000 
G00 X-0.5496 Y0.1788 
G01 Z-0.0070 F10.00 
G01 X-0.5474 Y0.1773 F20.00 
G01 X-0.5475 Y0.1775 
G01 X-0.5481 Y0.1784 
G01 X-0.5483 Y0.1789 
G01 X-0.5486 Y0.1794 
G01 X-0.5489 Y0.1805 
G01 X-0.5492 Y0.1812 
G01 X-0.5496 Y0.1788 
G00 Z0.1000 
G00 X-0.1925 Y0.8875 
G01 Z-0.0070 F10.00 
G01 X-0.1933 Y0.8860 F20.00 
G01 X-0.1933 Y0.8860 
G01 X-0.1920 Y0.8868 
G01 X-0.1908 Y0.8875 
G01 X-0.1925 Y0.8875 
G00 Z0.1000 
G00 X-0.3264 Y0.1069 
G01 Z-0.0070 F10.00 
G01 X-0.3269 Y0.1045 F20.00 
G01 X-0.3262 Y0.1053 
G01 X-0.3254 Y0.1063 
G01 X-0.3251 Y0.1065 
G01 X-0.3249 Y0.1068 
G01 X-0.3241 Y0.1073 
G01 X-0.3264 Y0.1069 
G00 Z0.1000 
G00 X-0.3510 Y0.1116 
G01 Z-0.0070 F10.00 
G01 X-0.3530 Y0.1130 F20.00 
G01 X-0.3524 Y0.1120 
G01 X-0.3523 Y0.1116 
G01 X-0.3520 Y0.1112 
G01 X-0.3517 Y0.1101 
G01 X-0.3514 Y0.1092 
G01 X-0.3510 Y0.1116 
G00 Z0.1000 
G00 X-0.3768 Y0.1638 
G01 Z-0.0070 F10.00 
G01 X-0.3739 Y0.1569 F20.00 
G01 X-0.3725 Y0.1497 
G01 X-0.3725 Y0.1423 
G01 X-0.3739 Y0.1351 
G01 X-0.3768 Y0.1282 
G01 X-0.3788 Y0.1252 
G01 X-0.3768 Y0.1264 
G01 X-0.3736 Y0.1272 
G01 X-0.3703 Y0.1272 
G01 X-0.3695 Y0.1270 
G01 X-0.3672 Y0.1264 
G01 X-0.3643 Y0.1247 
G01 X-0.3640 Y0.1243 
G01 X-0.3652 Y0.1262 
G01 X-0.3681 Y0.1331 
G01 X-0.3695 Y0.1403 
G01 X-0.3695 Y0.1477 
G01 X-0.3681 Y0.1549 
G01 X-0.3652 Y0.1618 
G01 X-0.3632 Y0.1648 
G01 X-0.3651 Y0.1637 
G01 X-0.3683 Y0.1628 
G01 X-0.3716 Y0.1628 
G01 X-0.3748 Y0.1636 
G01 X-0.3777 Y0.1653 
G01 X-0.3778 Y0.1654 
G01 X-0.3781 Y0.1657 
G01 X-0.3768 Y0.1638 
G00 Z0.1000 
G00 X-0.4860 Y0.1066 
G01 Z-0.0070 F10.00 
G01 X-0.4866 Y0.1042 F20.00 
G01 X-0.4861 Y0.1047 
G01 X-0.4856 Y0.1054 
G01 X-0.4850 Y0.1058 
G01 X-0.4845 Y0.1063 
G01 X-0.4837 Y0.1068 
G01 X-0.4834 Y0.1071 
G01 X-0.4860 Y0.1066 
G00 Z0.1000 
G00 X-0.4432 Y0.1282 
G01 Z-0.0070 F10.00 
G01 X-0.4461 Y0.1351 F20.00 
G01 X-0.4475 Y0.1423 
G01 X-0.4475 Y0.1497 
G01 X-0.4461 Y0.1569 
G01 X-0.4432 Y0.1638 
G01 X-0.4420 Y0.1656 
G01 X-0.4431 Y0.1645 
G01 X-0.4433 Y0.1643 
G01 X-0.4462 Y0.1626 
G01 X-0.4493 Y0.1618 
G01 X-0.4526 Y0.1618 
G01 X-0.4557 Y0.1626 
G01 X-0.4558 Y0.1626 
G01 X-0.4583 Y0.1641 
G01 X-0.4568 Y0.1618 
G01 X-0.4539 Y0.1549 
G01 X-0.4525 Y0.1477 
G01 X-0.4525 Y0.1403 
G01 X-0.4539 Y0.1331 
G01 X-0.4568 Y0.1262 
G01 X-0.4580 Y0.1243 
G01 X-0.4567 Y0.1257 
G01 X-0.4538 Y0.1274 
G01 X-0.4506 Y0.1282 
G01 X-0.4473 Y0.1282 
G01 X-0.4442 Y0.1274 
G01 X-0.4417 Y0.1259 
G01 X-0.4432 Y0.1282 
G00 Z0.1000 
G00 X-0.3603 Y0.0625 
G01 Z-0.0070 F10.00 
G01 X-0.3595 Y0.0668 F20.00 
G01 X-0.3596 Y0.0667 
G01 X-0.3598 Y0.0663 
G01 X-0.3607 Y0.0655 
G01 X-0.3615 Y0.0646 
G01 X-0.3618 Y0.0643 
G01 X-0.3622 Y0.0640 
G01 X-0.3632 Y0.0634 
G01 X-0.3642 Y0.0627 
G01 X-0.3646 Y0.0626 
G01 X-0.3648 Y0.0625 
G01 X-0.3603 Y0.0625 
G00 Z0.1000 
G00 X-0.4961 Y0.0761 
G01 Z-0.0070 F10.00 
G01 X-0.4962 Y0.0761 F20.00 
G01 X-0.4963 Y0.0760 
G01 X-0.4977 Y0.0752 
G01 X-0.4990 Y0.0744 
G01 X-0.4991 Y0.0744 
G01 X-0.5006 Y0.0740 
G01 X-0.5021 Y0.0735 
G01 X-0.5022 Y0.0735 
G01 X-0.5024 Y0.0735 
G01 X-0.5039 Y0.0735 
G01 X-0.5054 Y0.0735 
G01 X-0.5055 Y0.0735 
G01 X-1.7618 Y0.0735 
G01 X-1.7635 Y0.0735 
G01 X-1.7636 Y0.0735 
G01 X-1.7653 Y0.0739 
G01 X-1.7667 Y0.0743 
G01 X-1.7668 Y0.0744 
G01 X-1.7683 Y0.0752 
G01 X-1.7696 Y0.0759 
G01 X-1.7697 Y0.0760 
G01 X-1.7708 Y0.0771 
G01 X-1.7707 Y0.0764 
G01 X-1.7705 Y0.0756 
G01 X-1.7705 Y0.0748 
G01 X-1.7704 Y0.0740 
G01 X-1.7705 Y0.0732 
G01 X-1.7705 Y0.0723 
G01 X-1.7707 Y0.0716 
G01 X-1.7708 Y0.0708 
G01 X-1.7711 Y0.0700 
G01 X-1.7714 Y0.0692 
G01 X-1.7718 Y0.0685 
G01 X-1.7721 Y0.0677 
G01 X-1.7726 Y0.0671 
G01 X-1.7730 Y0.0663 
G01 X-1.7736 Y0.0657 
G01 X-1.7741 Y0.0651 
G01 X-1.7747 Y0.0646 
G01 X-1.7753 Y0.0640 
G01 X-1.7760 Y0.0636 
G01 X-1.7767 Y0.0631 
G01 X-1.7774 Y0.0628 
G01 X-1.7779 Y0.0625 
G01 X-0.4881 Y0.0625 
G01 X-0.4885 Y0.0627 
G01 X-0.4892 Y0.0630 
G01 X-0.4899 Y0.0636 
G01 X-0.4907 Y0.0640 
G01 X-0.4912 Y0.0645 
G01 X-0.4919 Y0.0650 
G01 X-0.4924 Y0.0657 
G01 X-0.4930 Y0.0663 
G01 X-0.4934 Y0.0670 
G01 X-0.4939 Y0.0676 
G01 X-0.4942 Y0.0684 
G01 X-0.4946 Y0.0692 
G01 X-0.4948 Y0.0699 
G01 X-0.4951 Y0.0707 
G01 X-0.4953 Y0.0715 
G01 X-0.4955 Y0.0723 
G01 X-0.4955 Y0.0731 
G01 X-0.4956 Y0.0739 
G01 X-0.4955 Y0.0748 
G01 X-0.4955 Y0.0756 
G01 X-0.4953 Y0.0764 
G01 X-0.4952 Y0.0771 
G01 X-0.4961 Y0.0761 
G00 Z0.1000 
G00 X-0.1279 Y0.7749 
G01 Z-0.0070 F10.00 
G01 X-0.1291 Y0.7761 F20.00 
G01 X-0.1303 Y0.7778 
G01 X-0.1301 Y0.7774 
G01 X-0.1298 Y0.7765 
G01 X-0.1297 Y0.7758 
G01 X-0.1295 Y0.7752 
G01 X-0.1295 Y0.7742 
G01 X-0.1293 Y0.7732 
G01 X-0.1294 Y0.7726 
G01 X-0.1294 Y0.7722 
G01 X-0.1279 Y0.7749 
G00 Z0.1000 
G00 X-0.4209 Y0.1821 
G01 Z-0.0070 F10.00 
G01 X-0.4194 Y0.1824 F20.00 
G01 X-0.4192 Y0.1844 
G01 X-0.4201 Y0.1832 
G01 X-0.4209 Y0.1821 
G00 Z0.1000 
G00 X-1.7354 Y0.2625 
G01 Z-0.0070 F10.00 
G01 X-1.7344 Y0.2649 F20.00 
G01 X-1.7348 Y0.2646 
G01 X-1.7354 Y0.2640 
G01 X-1.7361 Y0.2636 
G01 X-1.7368 Y0.2631 
G01 X-1.7375 Y0.2628 
G01 X-1.7380 Y0.2625 
G01 X-1.7354 Y0.2625 
G00 Z0.1000 
G00 X-0.8868 Y0.9809 
G01 Z-0.0070 F10.00 
G01 X-0.8885 Y0.9841 F20.00 
G01 X-0.8905 Y0.9903 
G01 X-0.8915 Y0.9967 
G01 X-0.8915 Y1.0033 
G01 X-0.8905 Y1.0096 
G01 X-0.8911 Y1.0089 
G01 X-0.8937 Y1.0069 
G01 X-0.8967 Y1.0056 
G01 X-0.9000 Y1.0052 
G01 X-0.9030 Y1.0056 
G01 X-0.9033 Y1.0056 
G01 X-0.9063 Y1.0069 
G01 X-0.9089 Y1.0089 
G01 X-0.9095 Y1.0097 
G01 X-0.9085 Y1.0033 
G01 X-0.9085 Y0.9967 
G01 X-0.9095 Y0.9903 
G01 X-0.9115 Y0.9841 
G01 X-0.9145 Y0.9782 
G01 X-0.9183 Y0.9730 
G01 X-0.9230 Y0.9683 
G01 X-0.9282 Y0.9645 
G01 X-0.9341 Y0.9615 
G01 X-0.9347 Y0.9613 
G01 X-0.9343 Y0.9613 
G01 X-0.9335 Y0.9613 
G01 X-0.9327 Y0.9611 
G01 X-0.9319 Y0.9610 
G01 X-0.9311 Y0.9606 
G01 X-0.9303 Y0.9604 
G01 X-0.9296 Y0.9600 
G01 X-0.9288 Y0.9597 
G01 X-0.9282 Y0.9592 
G01 X-0.9275 Y0.9588 
G01 X-0.9269 Y0.9582 
G01 X-0.9262 Y0.9577 
G01 X-0.9257 Y0.9571 
G01 X-0.9251 Y0.9565 
G01 X-0.9247 Y0.9557 
G01 X-0.9242 Y0.9551 
G01 X-0.9239 Y0.9543 
G01 X-0.9235 Y0.9536 
G01 X-0.9233 Y0.9528 
G01 X-0.9230 Y0.9520 
G01 X-0.9229 Y0.9512 
G01 X-0.9226 Y0.9504 
G01 X-0.9226 Y0.9496 
G01 X-0.9225 Y0.9488 
G01 X-0.9226 Y0.9480 
G01 X-0.9226 Y0.9471 
G01 X-0.9229 Y0.9463 
G01 X-0.9230 Y0.9455 
G01 X-0.9233 Y0.9448 
G01 X-0.9234 Y0.9442 
G01 X-0.8868 Y0.9809 
G00 Z0.1000 
G00 X-1.2632 Y0.7691 
G01 Z-0.0070 F10.00 
G01 X-1.2620 Y0.7669 F20.00 
G01 X-1.2620 Y0.7674 
G01 X-1.2620 Y0.7682 
G01 X-1.2618 Y0.7690 
G01 X-1.2617 Y0.7698 
G01 X-1.2614 Y0.7706 
G01 X-1.2612 Y0.7711 
G01 X-1.2632 Y0.7691 
G00 Z0.1000 
G00 X-1.4415 Y0.7467 
G01 Z-0.0070 F10.00 
G01 X-1.4415 Y0.7533 F20.00 
G01 X-1.4405 Y0.7597 
G01 X-1.4385 Y0.7659 
G01 X-1.4355 Y0.7717 
G01 X-1.4316 Y0.7770 
G01 X-1.4270 Y0.7816 
G01 X-1.4217 Y0.7855 
G01 X-1.4159 Y0.7885 
G01 X-1.4097 Y0.7905 
G01 X-1.4034 Y0.7915 
G01 X-1.4046 Y0.7922 
G01 X-1.4059 Y0.7929 
G01 X-1.4060 Y0.7930 
G01 X-1.4072 Y0.7941 
G01 X-1.4082 Y0.7952 
G01 X-1.4084 Y0.7953 
G01 X-1.4091 Y0.7966 
G01 X-1.4099 Y0.7980 
G01 X-1.4100 Y0.7981 
G01 X-1.4104 Y0.7996 
G01 X-1.4108 Y0.8011 
G01 X-1.4108 Y0.8013 
G01 X-1.4109 Y0.8028 
G01 X-1.4109 Y0.8044 
G01 X-1.4109 Y0.8045 
G01 X-1.4109 Y0.8046 
G01 X-1.4105 Y0.8061 
G01 X-1.4101 Y0.8076 
G01 X-1.4100 Y0.8078 
G01 X-1.4092 Y0.8092 
G01 X-1.4086 Y0.8102 
G01 X-1.4423 Y0.7901 
G01 X-1.4632 Y0.7691 
G01 X-1.4615 Y0.7659 
G01 X-1.4595 Y0.7597 
G01 X-1.4585 Y0.7533 
G01 X-1.4585 Y0.7467 
G01 X-1.4595 Y0.7403 
G01 X-1.4589 Y0.7411 
G01 X-1.4569 Y0.7427 
G01 X-1.4563 Y0.7431 
G01 X-1.4533 Y0.7444 
G01 X-1.4505 Y0.7448 
G01 X-1.4500 Y0.7448 
G01 X-1.4467 Y0.7444 
G01 X-1.4450 Y0.7437 
G01 X-1.4437 Y0.7431 
G01 X-1.4411 Y0.7411 
G01 X-1.4405 Y0.7404 
G01 X-1.4415 Y0.7467 
G00 Z0.1000 
G00 X-1.6415 Y0.7467 
G01 Z-0.0070 F10.00 
G01 X-1.6415 Y0.7533 F20.00 
G01 X-1.6405 Y0.7597 
G01 X-1.6385 Y0.7659 
G01 X-1.6355 Y0.7717 
G01 X-1.6316 Y0.7770 
G01 X-1.6270 Y0.7816 
G01 X-1.6217 Y0.7855 
G01 X-1.6159 Y0.7885 
G01 X-1.6097 Y0.7905 
G01 X-1.6034 Y0.7915 
G01 X-1.6046 Y0.7922 
G01 X-1.6059 Y0.7929 
G01 X-1.6060 Y0.7930 
G01 X-1.6072 Y0.7941 
G01 X-1.6082 Y0.7952 
G01 X-1.6084 Y0.7953 
G01 X-1.6091 Y0.7966 
G01 X-1.6099 Y0.7980 
G01 X-1.6100 Y0.7981 
G01 X-1.6104 Y0.7996 
G01 X-1.6108 Y0.8011 
G01 X-1.6108 Y0.8013 
G01 X-1.6109 Y0.8028 
G01 X-1.6109 Y0.8044 
G01 X-1.6109 Y0.8045 
G01 X-1.6109 Y0.8046 
G01 X-1.6105 Y0.8061 
G01 X-1.6101 Y0.8076 
G01 X-1.6100 Y0.8078 
G01 X-1.6092 Y0.8092 
G01 X-1.6086 Y0.8102 
G01 X-1.6422 Y0.7901 
G01 X-1.6632 Y0.7691 
G01 X-1.6615 Y0.7659 
G01 X-1.6595 Y0.7597 
G01 X-1.6585 Y0.7533 
G01 X-1.6585 Y0.7467 
G01 X-1.6595 Y0.7403 
G01 X-1.6589 Y0.7411 
G01 X-1.6569 Y0.7427 
G01 X-1.6563 Y0.7431 
G01 X-1.6533 Y0.7444 
G01 X-1.6505 Y0.7448 
G01 X-1.6500 Y0.7448 
G01 X-1.6467 Y0.7444 
G01 X-1.6450 Y0.7437 
G01 X-1.6437 Y0.7431 
G01 X-1.6411 Y0.7411 
G01 X-1.6405 Y0.7404 
G01 X-1.6415 Y0.7467 
G00 Z0.1000 
G00 X-1.8415 Y0.7467 
G01 Z-0.0070 F10.00 
G01 X-1.8415 Y0.7533 F20.00 
G01 X-1.8405 Y0.7597 
G01 X-1.8385 Y0.7659 
G01 X-1.8355 Y0.7717 
G01 X-1.8316 Y0.7770 
G01 X-1.8270 Y0.7816 
G01 X-1.8217 Y0.7855 
G01 X-1.8159 Y0.7885 
G01 X-1.8153 Y0.7887 
G01 X-1.8156 Y0.7887 
G01 X-1.8165 Y0.7887 
G01 X-1.8173 Y0.7889 
G01 X-1.8181 Y0.7890 
G01 X-1.8189 Y0.7893 
G01 X-1.8197 Y0.7896 
G01 X-1.8204 Y0.7900 
G01 X-1.8211 Y0.7903 
G01 X-1.8218 Y0.7908 
G01 X-1.8225 Y0.7912 
G01 X-1.8231 Y0.7918 
G01 X-1.8238 Y0.7923 
G01 X-1.8242 Y0.7929 
G01 X-1.8248 Y0.7935 
G01 X-1.8253 Y0.7943 
G01 X-1.8258 Y0.7949 
G01 X-1.8261 Y0.7957 
G01 X-1.8265 Y0.7964 
G01 X-1.8267 Y0.7972 
G01 X-1.8270 Y0.7979 
G01 X-1.8271 Y0.7988 
G01 X-1.8273 Y0.7996 
G01 X-1.8273 Y0.8004 
G01 X-1.8274 Y0.8012 
G01 X-1.8273 Y0.8020 
G01 X-1.8273 Y0.8029 
G01 X-1.8271 Y0.8037 
G01 X-1.8270 Y0.8045 
G01 X-1.8267 Y0.8052 
G01 X-1.8266 Y0.8058 
G01 X-1.8632 Y0.7691 
G01 X-1.8615 Y0.7659 
G01 X-1.8595 Y0.7597 
G01 X-1.8585 Y0.7533 
G01 X-1.8585 Y0.7467 
G01 X-1.8595 Y0.7403 
G01 X-1.8589 Y0.7411 
G01 X-1.8569 Y0.7427 
G01 X-1.8563 Y0.7431 
G01 X-1.8533 Y0.7444 
G01 X-1.8505 Y0.7448 
G01 X-1.8500 Y0.7448 
G01 X-1.8467 Y0.7444 
G01 X-1.8450 Y0.7437 
G01 X-1.8437 Y0.7431 
G01 X-1.8411 Y0.7411 
G01 X-1.8405 Y0.7404 
G01 X-1.8415 Y0.7467 
G00 Z0.1000 
G00 X-2.0415 Y0.7467 
G01 Z-0.0070 F10.00 
G01 X-2.0415 Y0.7533 F20.00 
G01 X-2.0405 Y0.7596 
G01 X-2.0411 Y0.7589 
G01 X-2.0437 Y0.7569 
G01 X-2.0449 Y0.7563 
G01 X-2.0467 Y0.7556 
G01 X-2.0500 Y0.7552 
G01 X-2.0504 Y0.7552 
G01 X-2.0533 Y0.7556 
G01 X-2.0563 Y0.7569 
G01 X-2.0569 Y0.7574 
G01 X-2.0589 Y0.7589 
G01 X-2.0595 Y0.7596 
G01 X-2.0585 Y0.7533 
G01 X-2.0585 Y0.7467 
G01 X-2.0595 Y0.7403 
G01 X-2.0589 Y0.7411 
G01 X-2.0569 Y0.7427 
G01 X-2.0563 Y0.7431 
G01 X-2.0533 Y0.7444 
G01 X-2.0505 Y0.7448 
G01 X-2.0500 Y0.7448 
G01 X-2.0467 Y0.7444 
G01 X-2.0450 Y0.7437 
G01 X-2.0437 Y0.7431 
G01 X-2.0411 Y0.7411 
G01 X-2.0405 Y0.7404 
G01 X-2.0415 Y0.7467 
G00 Z0.1000 
G00 X-2.3367 Y0.4956 
G01 Z-0.0070 F10.00 
G01 X-2.3366 Y0.4949 F20.00 
G01 X-2.3364 Y0.4955 
G01 X-2.3363 Y0.4961 
G01 X-2.3367 Y0.4956 
G00 Z0.1000 
G00 X-2.1585 Y0.1533 
G01 Z-0.0070 F10.00 
G01 X-2.1585 Y0.1467 F20.00 
G01 X-2.1595 Y0.1403 
G01 X-2.1615 Y0.1341 
G01 X-2.1645 Y0.1282 
G01 X-2.1683 Y0.1230 
G01 X-2.1730 Y0.1183 
G01 X-2.1782 Y0.1145 
G01 X-2.1841 Y0.1115 
G01 X-2.1903 Y0.1095 
G01 X-2.1967 Y0.1085 
G01 X-2.2033 Y0.1085 
G01 X-2.2097 Y0.1095 
G01 X-2.2159 Y0.1115 
G01 X-2.2217 Y0.1145 
G01 X-2.2256 Y0.1173 
G01 X-2.2253 Y0.1168 
G01 X-2.2247 Y0.1145 
G01 X-2.2244 Y0.1136 
G01 X-2.2244 Y0.1104 
G01 X-2.2253 Y0.1072 
G01 X-2.2269 Y0.1043 
G01 X-2.2292 Y0.1020 
G01 X-2.2319 Y0.1005 
G01 X-2.1672 Y0.1005 
G01 X-2.1368 Y0.1309 
G01 X-2.1385 Y0.1341 
G01 X-2.1405 Y0.1403 
G01 X-2.1415 Y0.1467 
G01 X-2.1415 Y0.1533 
G01 X-2.1405 Y0.1596 
G01 X-2.1411 Y0.1589 
G01 X-2.1431 Y0.1573 
G01 X-2.1437 Y0.1569 
G01 X-2.1467 Y0.1556 
G01 X-2.1495 Y0.1552 
G01 X-2.1500 Y0.1552 
G01 X-2.1533 Y0.1556 
G01 X-2.1550 Y0.1563 
G01 X-2.1563 Y0.1569 
G01 X-2.1589 Y0.1589 
G01 X-2.1595 Y0.1596 
G01 X-2.1585 Y0.1533 
G00 Z0.1000 
G00 X-1.9585 Y0.1533 
G01 Z-0.0070 F10.00 
G01 X-1.9585 Y0.1467 F20.00 
G01 X-1.9595 Y0.1403 
G01 X-1.9589 Y0.1411 
G01 X-1.9563 Y0.1431 
G01 X-1.9551 Y0.1436 
G01 X-1.9533 Y0.1444 
G01 X-1.9500 Y0.1448 
G01 X-1.9496 Y0.1448 
G01 X-1.9467 Y0.1444 
G01 X-1.9437 Y0.1431 
G01 X-1.9431 Y0.1426 
G01 X-1.9411 Y0.1411 
G01 X-1.9405 Y0.1403 
G01 X-1.9415 Y0.1467 
G01 X-1.9415 Y0.1533 
G01 X-1.9405 Y0.1596 
G01 X-1.9411 Y0.1589 
G01 X-1.9431 Y0.1573 
G01 X-1.9437 Y0.1569 
G01 X-1.9467 Y0.1556 
G01 X-1.9495 Y0.1552 
G01 X-1.9500 Y0.1552 
G01 X-1.9533 Y0.1556 
G01 X-1.9550 Y0.1563 
G01 X-1.9563 Y0.1569 
G01 X-1.9589 Y0.1589 
G01 X-1.9595 Y0.1596 
G01 X-1.9585 Y0.1533 
G00 Z0.1000 
G00 X-1.7585 Y0.1533 
G01 Z-0.0070 F10.00 
G01 X-1.7585 Y0.1467 F20.00 
G01 X-1.7595 Y0.1404 
G01 X-1.7589 Y0.1411 
G01 X-1.7563 Y0.1431 
G01 X-1.7542 Y0.1440 
G01 X-1.7533 Y0.1444 
G01 X-1.7500 Y0.1448 
G01 X-1.7497 Y0.1448 
G01 X-1.7467 Y0.1444 
G01 X-1.7459 Y0.1440 
G01 X-1.7437 Y0.1431 
G01 X-1.7411 Y0.1411 
G01 X-1.7405 Y0.1404 
G01 X-1.7415 Y0.1467 
G01 X-1.7415 Y0.1533 
G01 X-1.7405 Y0.1596 
G01 X-1.7411 Y0.1589 
G01 X-1.7431 Y0.1573 
G01 X-1.7437 Y0.1569 
G01 X-1.7467 Y0.1556 
G01 X-1.7495 Y0.1552 
G01 X-1.7500 Y0.1552 
G01 X-1.7533 Y0.1556 
G01 X-1.7550 Y0.1563 
G01 X-1.7563 Y0.1569 
G01 X-1.7589 Y0.1589 
G01 X-1.7595 Y0.1596 
G01 X-1.7585 Y0.1533 
G00 Z0.1000 
G00 X-1.7354 Y0.2375 
G01 Z-0.0070 F10.00 
G01 X-1.7380 Y0.2375 F20.00 
G01 X-1.7375 Y0.2372 
G01 X-1.7368 Y0.2369 
G01 X-1.7361 Y0.2364 
G01 X-1.7354 Y0.2360 
G01 X-1.7348 Y0.2354 
G01 X-1.7344 Y0.2351 
G01 X-1.7354 Y0.2375 
G00 Z0.1000 
G00 X-1.9915 Y0.2467 
G01 Z-0.0070 F10.00 
G01 X-1.9915 Y0.2533 F20.00 
G01 X-1.9905 Y0.2596 
G01 X-1.9911 Y0.2589 
G01 X-1.9937 Y0.2569 
G01 X-1.9967 Y0.2556 
G01 X-2.0000 Y0.2552 
G01 X-2.0030 Y0.2556 
G01 X-2.0033 Y0.2556 
G01 X-2.0063 Y0.2569 
G01 X-2.0089 Y0.2589 
G01 X-2.0095 Y0.2597 
G01 X-2.0085 Y0.2533 
G01 X-2.0085 Y0.2467 
G01 X-2.0095 Y0.2403 
G01 X-2.0089 Y0.2411 
G01 X-2.0063 Y0.2431 
G01 X-2.0033 Y0.2444 
G01 X-2.0000 Y0.2448 
G01 X-1.9970 Y0.2444 
G01 X-1.9967 Y0.2444 
G01 X-1.9937 Y0.2431 
G01 X-1.9911 Y0.2411 
G01 X-1.9905 Y0.2404 
G01 X-1.9915 Y0.2467 
G00 Z0.1000 
G00 X-2.0625 Y0.4146 
G01 Z-0.0070 F10.00 
G01 X-2.0649 Y0.4156 F20.00 
G01 X-2.0646 Y0.4152 
G01 X-2.0640 Y0.4146 
G01 X-2.0636 Y0.4139 
G01 X-2.0631 Y0.4132 
G01 X-2.0628 Y0.4124 
G01 X-2.0625 Y0.4120 
G01 X-2.0625 Y0.4146 
G00 Z0.1000 
G00 X-2.0625 Y0.2896 
G01 Z-0.0070 F10.00 
G01 X-2.0625 Y0.2923 F20.00 
G01 X-2.0628 Y0.2919 
G01 X-2.0631 Y0.2911 
G01 X-2.0636 Y0.2904 
G01 X-2.0640 Y0.2897 
G01 X-2.0646 Y0.2892 
G01 X-2.0649 Y0.2888 
G01 X-2.0625 Y0.2896 
G00 Z0.1000 
G00 X-1.9104 Y0.2375 
G01 Z-0.0070 F10.00 
G01 X-1.9112 Y0.2351 F20.00 
G01 X-1.9108 Y0.2354 
G01 X-1.9102 Y0.2360 
G01 X-1.9095 Y0.2364 
G01 X-1.9089 Y0.2369 
G01 X-1.9081 Y0.2372 
G01 X-1.9076 Y0.2375 
G01 X-1.9104 Y0.2375 
G00 Z0.1000 
G00 X-1.6996 Y0.2054 
G01 Z-0.0070 F10.00 
G01 X-1.6984 Y0.2085 F20.00 
G01 X-1.6964 Y0.2111 
G01 X-1.6939 Y0.2130 
G01 X-1.6963 Y0.2125 
G01 X-1.7037 Y0.2125 
G01 X-1.7061 Y0.2130 
G01 X-1.7056 Y0.2126 
G01 X-1.7036 Y0.2111 
G01 X-1.7016 Y0.2085 
G01 X-1.7008 Y0.2063 
G01 X-1.7004 Y0.2054 
G01 X-1.7000 Y0.2026 
G01 X-1.6996 Y0.2054 
G00 Z0.1000 
G00 X-1.7033 Y0.1915 
G01 Z-0.0070 F10.00 
G01 X-1.6967 Y0.1915 F20.00 
G01 X-1.6929 Y0.1909 
G01 X-1.6938 Y0.1912 
G01 X-1.6964 Y0.1933 
G01 X-1.6984 Y0.1959 
G01 X-1.6996 Y0.1989 
G01 X-1.7000 Y0.2018 
G01 X-1.7004 Y0.1989 
G01 X-1.7016 Y0.1959 
G01 X-1.7021 Y0.1952 
G01 X-1.7036 Y0.1932 
G01 X-1.7062 Y0.1912 
G01 X-1.7071 Y0.1909 
G01 X-1.7033 Y0.1915 
G00 Z0.1000 
G00 X-1.8585 Y0.1533 
G01 Z-0.0070 F10.00 
G01 X-1.8585 Y0.1467 F20.00 
G01 X-1.8595 Y0.1403 
G01 X-1.8615 Y0.1341 
G01 X-1.8632 Y0.1309 
G01 X-1.8266 Y0.0942 
G01 X-1.8267 Y0.0948 
G01 X-1.8270 Y0.0955 
G01 X-1.8271 Y0.0963 
G01 X-1.8273 Y0.0971 
G01 X-1.8273 Y0.0980 
G01 X-1.8274 Y0.0988 
G01 X-1.8273 Y0.0996 
G01 X-1.8273 Y0.1004 
G01 X-1.8271 Y0.1012 
G01 X-1.8270 Y0.1020 
G01 X-1.8267 Y0.1028 
G01 X-1.8265 Y0.1036 
G01 X-1.8261 Y0.1043 
G01 X-1.8258 Y0.1051 
G01 X-1.8253 Y0.1057 
G01 X-1.8248 Y0.1065 
G01 X-1.8242 Y0.1071 
G01 X-1.8238 Y0.1077 
G01 X-1.8231 Y0.1082 
G01 X-1.8225 Y0.1088 
G01 X-1.8218 Y0.1092 
G01 X-1.8211 Y0.1097 
G01 X-1.8204 Y0.1100 
G01 X-1.8197 Y0.1104 
G01 X-1.8189 Y0.1106 
G01 X-1.8181 Y0.1110 
G01 X-1.8173 Y0.1111 
G01 X-1.8165 Y0.1113 
G01 X-1.8156 Y0.1113 
G01 X-1.8153 Y0.1113 
G01 X-1.8159 Y0.1115 
G01 X-1.8217 Y0.1145 
G01 X-1.8270 Y0.1183 
G01 X-1.8316 Y0.1230 
G01 X-1.8355 Y0.1282 
G01 X-1.8385 Y0.1341 
G01 X-1.8405 Y0.1403 
G01 X-1.8415 Y0.1467 
G01 X-1.8415 Y0.1533 
G01 X-1.8405 Y0.1596 
G01 X-1.8411 Y0.1589 
G01 X-1.8431 Y0.1573 
G01 X-1.8437 Y0.1569 
G01 X-1.8467 Y0.1556 
G01 X-1.8495 Y0.1552 
G01 X-1.8500 Y0.1552 
G01 X-1.8533 Y0.1556 
G01 X-1.8550 Y0.1563 
G01 X-1.8563 Y0.1569 
G01 X-1.8589 Y0.1589 
G01 X-1.8595 Y0.1596 
G01 X-1.8585 Y0.1533 
G00 Z0.1000 
G00 X-2.0585 Y0.1533 
G01 Z-0.0070 F10.00 
G01 X-2.0585 Y0.1467 F20.00 
G01 X-2.0595 Y0.1403 
G01 X-2.0615 Y0.1341 
G01 X-2.0645 Y0.1282 
G01 X-2.0683 Y0.1230 
G01 X-2.0730 Y0.1183 
G01 X-2.0782 Y0.1145 
G01 X-2.0841 Y0.1115 
G01 X-2.0847 Y0.1113 
G01 X-2.0843 Y0.1113 
G01 X-2.0835 Y0.1113 
G01 X-2.0827 Y0.1111 
G01 X-2.0819 Y0.1110 
G01 X-2.0811 Y0.1106 
G01 X-2.0803 Y0.1104 
G01 X-2.0796 Y0.1100 
G01 X-2.0788 Y0.1097 
G01 X-2.0782 Y0.1092 
G01 X-2.0775 Y0.1088 
G01 X-2.0769 Y0.1082 
G01 X-2.0762 Y0.1077 
G01 X-2.0757 Y0.1071 
G01 X-2.0751 Y0.1065 
G01 X-2.0747 Y0.1057 
G01 X-2.0742 Y0.1051 
G01 X-2.0739 Y0.1043 
G01 X-2.0735 Y0.1036 
G01 X-2.0733 Y0.1028 
G01 X-2.0730 Y0.1021 
G01 X-2.0729 Y0.1012 
G01 X-2.0726 Y0.1004 
G01 X-2.0726 Y0.0996 
G01 X-2.0725 Y0.0988 
G01 X-2.0726 Y0.0980 
G01 X-2.0726 Y0.0971 
G01 X-2.0729 Y0.0963 
G01 X-2.0730 Y0.0955 
G01 X-2.0733 Y0.0948 
G01 X-2.0734 Y0.0943 
G01 X-2.0368 Y0.1309 
G01 X-2.0385 Y0.1341 
G01 X-2.0405 Y0.1403 
G01 X-2.0415 Y0.1467 
G01 X-2.0415 Y0.1533 
G01 X-2.0405 Y0.1596 
G01 X-2.0411 Y0.1589 
G01 X-2.0431 Y0.1573 
G01 X-2.0437 Y0.1569 
G01 X-2.0467 Y0.1556 
G01 X-2.0495 Y0.1552 
G01 X-2.0500 Y0.1552 
G01 X-2.0533 Y0.1556 
G01 X-2.0550 Y0.1563 
G01 X-2.0563 Y0.1569 
G01 X-2.0589 Y0.1589 
G01 X-2.0595 Y0.1596 
G01 X-2.0585 Y0.1533 
G00 Z0.1000 
G00 X-2.2415 Y0.1467 
G01 Z-0.0070 F10.00 
G01 X-2.2415 Y0.1533 F20.00 
G01 X-2.2405 Y0.1596 
G01 X-2.2411 Y0.1589 
G01 X-2.2431 Y0.1573 
G01 X-2.2437 Y0.1569 
G01 X-2.2467 Y0.1556 
G01 X-2.2495 Y0.1552 
G01 X-2.2500 Y0.1552 
G01 X-2.2533 Y0.1556 
G01 X-2.2550 Y0.1563 
G01 X-2.2563 Y0.1569 
G01 X-2.2589 Y0.1589 
G01 X-2.2595 Y0.1596 
G01 X-2.2585 Y0.1533 
G01 X-2.2585 Y0.1467 
G01 X-2.2595 Y0.1403 
G01 X-2.2589 Y0.1411 
G01 X-2.2563 Y0.1431 
G01 X-2.2551 Y0.1436 
G01 X-2.2533 Y0.1444 
G01 X-2.2500 Y0.1448 
G01 X-2.2496 Y0.1448 
G01 X-2.2467 Y0.1444 
G01 X-2.2437 Y0.1431 
G01 X-2.2431 Y0.1426 
G01 X-2.2411 Y0.1411 
G01 X-2.2405 Y0.1403 
G01 X-2.2415 Y0.1467 
G00 Z0.1000 
G00 X-2.2932 Y0.1909 
G01 Z-0.0070 F10.00 
G01 X-2.2908 Y0.1905 F20.00 
G01 X-2.2918 Y0.1913 
G01 X-2.2927 Y0.1925 
G01 X-2.2936 Y0.1936 
G01 X-2.2932 Y0.1909 
G00 Z0.1000 
G00 X-2.1191 Y0.7132 
G01 Z-0.0070 F10.00 
G01 X-2.1211 Y0.7112 F20.00 
G01 X-2.1206 Y0.7114 
G01 X-2.1198 Y0.7117 
G01 X-2.1190 Y0.7118 
G01 X-2.1182 Y0.7120 
G01 X-2.1174 Y0.7120 
G01 X-2.1169 Y0.7120 
G01 X-2.1191 Y0.7132 
G00 Z0.1000 
G00 X-1.9415 Y0.7467 
G01 Z-0.0070 F10.00 
G01 X-1.9415 Y0.7533 F20.00 
G01 X-1.9405 Y0.7597 
G01 X-1.9385 Y0.7659 
G01 X-1.9355 Y0.7717 
G01 X-1.9316 Y0.7770 
G01 X-1.9270 Y0.7816 
G01 X-1.9217 Y0.7855 
G01 X-1.9159 Y0.7885 
G01 X-1.9153 Y0.7887 
G01 X-1.9156 Y0.7887 
G01 X-1.9165 Y0.7887 
G01 X-1.9173 Y0.7889 
G01 X-1.9181 Y0.7890 
G01 X-1.9189 Y0.7893 
G01 X-1.9197 Y0.7896 
G01 X-1.9204 Y0.7900 
G01 X-1.9211 Y0.7903 
G01 X-1.9218 Y0.7908 
G01 X-1.9225 Y0.7912 
G01 X-1.9231 Y0.7918 
G01 X-1.9238 Y0.7923 
G01 X-1.9242 Y0.7929 
G01 X-1.9248 Y0.7935 
G01 X-1.9253 Y0.7943 
G01 X-1.9258 Y0.7949 
G01 X-1.9261 Y0.7957 
G01 X-1.9265 Y0.7964 
G01 X-1.9267 Y0.7972 
G01 X-1.9270 Y0.7979 
G01 X-1.9271 Y0.7988 
G01 X-1.9273 Y0.7996 
G01 X-1.9273 Y0.8004 
G01 X-1.9274 Y0.8012 
G01 X-1.9273 Y0.8020 
G01 X-1.9273 Y0.8029 
G01 X-1.9271 Y0.8037 
G01 X-1.9270 Y0.8045 
G01 X-1.9267 Y0.8052 
G01 X-1.9266 Y0.8058 
G01 X-1.9632 Y0.7691 
G01 X-1.9615 Y0.7659 
G01 X-1.9595 Y0.7597 
G01 X-1.9585 Y0.7533 
G01 X-1.9585 Y0.7467 
G01 X-1.9595 Y0.7403 
G01 X-1.9589 Y0.7411 
G01 X-1.9569 Y0.7427 
G01 X-1.9563 Y0.7431 
G01 X-1.9533 Y0.7444 
G01 X-1.9505 Y0.7448 
G01 X-1.9500 Y0.7448 
G01 X-1.9467 Y0.7444 
G01 X-1.9450 Y0.7437 
G01 X-1.9437 Y0.7431 
G01 X-1.9411 Y0.7411 
G01 X-1.9405 Y0.7404 
G01 X-1.9415 Y0.7467 
G00 Z0.1000 
G00 X-1.7415 Y0.7467 
G01 Z-0.0070 F10.00 
G01 X-1.7415 Y0.7533 F20.00 
G01 X-1.7405 Y0.7597 
G01 X-1.7385 Y0.7659 
G01 X-1.7355 Y0.7717 
G01 X-1.7316 Y0.7770 
G01 X-1.7270 Y0.7816 
G01 X-1.7217 Y0.7855 
G01 X-1.7159 Y0.7885 
G01 X-1.7153 Y0.7887 
G01 X-1.7156 Y0.7887 
G01 X-1.7165 Y0.7887 
G01 X-1.7173 Y0.7889 
G01 X-1.7181 Y0.7890 
G01 X-1.7189 Y0.7893 
G01 X-1.7197 Y0.7896 
G01 X-1.7204 Y0.7900 
G01 X-1.7211 Y0.7903 
G01 X-1.7218 Y0.7908 
G01 X-1.7225 Y0.7912 
G01 X-1.7231 Y0.7918 
G01 X-1.7238 Y0.7923 
G01 X-1.7242 Y0.7929 
G01 X-1.7248 Y0.7935 
G01 X-1.7253 Y0.7943 
G01 X-1.7258 Y0.7949 
G01 X-1.7261 Y0.7957 
G01 X-1.7265 Y0.7964 
G01 X-1.7267 Y0.7972 
G01 X-1.7270 Y0.7979 
G01 X-1.7271 Y0.7988 
G01 X-1.7273 Y0.7996 
G01 X-1.7273 Y0.8004 
G01 X-1.7274 Y0.8012 
G01 X-1.7273 Y0.8020 
G01 X-1.7273 Y0.8029 
G01 X-1.7271 Y0.8037 
G01 X-1.7270 Y0.8045 
G01 X-1.7267 Y0.8052 
G01 X-1.7266 Y0.8058 
G01 X-1.7632 Y0.7691 
G01 X-1.7615 Y0.7659 
G01 X-1.7595 Y0.7597 
G01 X-1.7585 Y0.7533 
G01 X-1.7585 Y0.7467 
G01 X-1.7595 Y0.7403 
G01 X-1.7589 Y0.7411 
G01 X-1.7569 Y0.7427 
G01 X-1.7563 Y0.7431 
G01 X-1.7533 Y0.7444 
G01 X-1.7505 Y0.7448 
G01 X-1.7500 Y0.7448 
G01 X-1.7467 Y0.7444 
G01 X-1.7450 Y0.7437 
G01 X-1.7437 Y0.7431 
G01 X-1.7411 Y0.7411 
G01 X-1.7405 Y0.7404 
G01 X-1.7415 Y0.7467 
G00 Z0.1000 
G00 X-1.5415 Y0.7467 
G01 Z-0.0070 F10.00 
G01 X-1.5415 Y0.7533 F20.00 
G01 X-1.5405 Y0.7597 
G01 X-1.5385 Y0.7659 
G01 X-1.5355 Y0.7717 
G01 X-1.5316 Y0.7770 
G01 X-1.5270 Y0.7816 
G01 X-1.5217 Y0.7855 
G01 X-1.5159 Y0.7885 
G01 X-1.5097 Y0.7905 
G01 X-1.5034 Y0.7915 
G01 X-1.5046 Y0.7922 
G01 X-1.5059 Y0.7929 
G01 X-1.5060 Y0.7930 
G01 X-1.5072 Y0.7941 
G01 X-1.5082 Y0.7952 
G01 X-1.5084 Y0.7953 
G01 X-1.5091 Y0.7966 
G01 X-1.5099 Y0.7980 
G01 X-1.5100 Y0.7981 
G01 X-1.5104 Y0.7996 
G01 X-1.5108 Y0.8011 
G01 X-1.5108 Y0.8013 
G01 X-1.5109 Y0.8028 
G01 X-1.5109 Y0.8044 
G01 X-1.5109 Y0.8045 
G01 X-1.5109 Y0.8046 
G01 X-1.5105 Y0.8061 
G01 X-1.5101 Y0.8076 
G01 X-1.5100 Y0.8078 
G01 X-1.5092 Y0.8092 
G01 X-1.5086 Y0.8102 
G01 X-1.5423 Y0.7901 
G01 X-1.5632 Y0.7691 
G01 X-1.5615 Y0.7659 
G01 X-1.5595 Y0.7597 
G01 X-1.5585 Y0.7533 
G01 X-1.5585 Y0.7467 
G01 X-1.5595 Y0.7403 
G01 X-1.5589 Y0.7411 
G01 X-1.5569 Y0.7427 
G01 X-1.5563 Y0.7431 
G01 X-1.5533 Y0.7444 
G01 X-1.5505 Y0.7448 
G01 X-1.5500 Y0.7448 
G01 X-1.5467 Y0.7444 
G01 X-1.5450 Y0.7437 
G01 X-1.5437 Y0.7431 
G01 X-1.5411 Y0.7411 
G01 X-1.5405 Y0.7404 
G01 X-1.5415 Y0.7467 
G00 Z0.1000 
G00 X-1.3415 Y0.7467 
G01 Z-0.0070 F10.00 
G01 X-1.3415 Y0.7533 F20.00 
G01 X-1.3405 Y0.7597 
G01 X-1.3385 Y0.7659 
G01 X-1.3355 Y0.7717 
G01 X-1.3316 Y0.7770 
G01 X-1.3270 Y0.7816 
G01 X-1.3217 Y0.7855 
G01 X-1.3159 Y0.7885 
G01 X-1.3097 Y0.7905 
G01 X-1.3034 Y0.7915 
G01 X-1.3046 Y0.7922 
G01 X-1.3059 Y0.7929 
G01 X-1.3060 Y0.7930 
G01 X-1.3072 Y0.7941 
G01 X-1.3082 Y0.7952 
G01 X-1.3084 Y0.7953 
G01 X-1.3091 Y0.7966 
G01 X-1.3099 Y0.7980 
G01 X-1.3100 Y0.7981 
G01 X-1.3104 Y0.7996 
G01 X-1.3108 Y0.8011 
G01 X-1.3108 Y0.8013 
G01 X-1.3109 Y0.8028 
G01 X-1.3109 Y0.8044 
G01 X-1.3109 Y0.8045 
G01 X-1.3109 Y0.8046 
G01 X-1.3105 Y0.8061 
G01 X-1.3101 Y0.8076 
G01 X-1.3100 Y0.8078 
G01 X-1.3092 Y0.8092 
G01 X-1.3086 Y0.8102 
G01 X-1.3423 Y0.7901 
G01 X-1.3632 Y0.7691 
G01 X-1.3615 Y0.7659 
G01 X-1.3595 Y0.7597 
G01 X-1.3585 Y0.7533 
G01 X-1.3585 Y0.7467 
G01 X-1.3595 Y0.7403 
G01 X-1.3589 Y0.7411 
G01 X-1.3569 Y0.7427 
G01 X-1.3563 Y0.7431 
G01 X-1.3533 Y0.7444 
G01 X-1.3505 Y0.7448 
G01 X-1.3500 Y0.7448 
G01 X-1.3467 Y0.7444 
G01 X-1.3450 Y0.7437 
G01 X-1.3437 Y0.7431 
G01 X-1.3411 Y0.7411 
G01 X-1.3405 Y0.7404 
G01 X-1.3415 Y0.7467 
G00 Z0.1000 
G00 X-0.9691 Y0.9632 
G01 Z-0.0070 F10.00 
G01 X-0.9711 Y0.9612 F20.00 
G01 X-0.9706 Y0.9614 
G01 X-0.9698 Y0.9617 
G01 X-0.9690 Y0.9618 
G01 X-0.9682 Y0.9620 
G01 X-0.9674 Y0.9620 
G01 X-0.9669 Y0.9620 
G01 X-0.9691 Y0.9632 
G00 Z0.1000 
G00 X-1.6709 Y0.2261 
G01 Z-0.0070 F10.00 
G01 X-1.6761 Y0.2209 F20.00 
G01 X-1.6794 Y0.2187 
G01 X-1.6786 Y0.2187 
G01 X-1.6777 Y0.2188 
G01 X-1.6769 Y0.2187 
G01 X-1.6761 Y0.2187 
G01 X-1.6753 Y0.2185 
G01 X-1.6745 Y0.2184 
G01 X-1.6737 Y0.2180 
G01 X-1.6729 Y0.2178 
G01 X-1.6722 Y0.2174 
G01 X-1.6714 Y0.2171 
G01 X-1.6708 Y0.2166 
G01 X-1.6701 Y0.2162 
G01 X-1.6695 Y0.2156 
G01 X-1.6688 Y0.2151 
G01 X-1.6683 Y0.2144 
G01 X-1.6678 Y0.2139 
G01 X-1.6673 Y0.2131 
G01 X-1.6668 Y0.2125 
G01 X-1.6665 Y0.2117 
G01 X-1.6661 Y0.2110 
G01 X-1.6659 Y0.2102 
G01 X-1.6656 Y0.2094 
G01 X-1.6655 Y0.2086 
G01 X-1.6653 Y0.2078 
G01 X-1.6653 Y0.2070 
G01 X-1.6651 Y0.2062 
G01 X-1.6653 Y0.2054 
G01 X-1.6653 Y0.2045 
G01 X-1.6655 Y0.2037 
G01 X-1.6656 Y0.2029 
G01 X-1.6659 Y0.2022 
G01 X-1.6660 Y0.2016 
G01 X-1.6516 Y0.2160 
G01 X-1.6522 Y0.2159 
G01 X-1.6529 Y0.2156 
G01 X-1.6537 Y0.2155 
G01 X-1.6545 Y0.2153 
G01 X-1.6554 Y0.2153 
G01 X-1.6562 Y0.2151 
G01 X-1.6570 Y0.2153 
G01 X-1.6578 Y0.2153 
G01 X-1.6586 Y0.2155 
G01 X-1.6594 Y0.2156 
G01 X-1.6602 Y0.2159 
G01 X-1.6610 Y0.2161 
G01 X-1.6617 Y0.2165 
G01 X-1.6625 Y0.2168 
G01 X-1.6631 Y0.2173 
G01 X-1.6639 Y0.2178 
G01 X-1.6644 Y0.2183 
G01 X-1.6651 Y0.2188 
G01 X-1.6656 Y0.2195 
G01 X-1.6662 Y0.2201 
G01 X-1.6666 Y0.2208 
G01 X-1.6671 Y0.2215 
G01 X-1.6674 Y0.2222 
G01 X-1.6678 Y0.2229 
G01 X-1.6680 Y0.2237 
G01 X-1.6684 Y0.2245 
G01 X-1.6685 Y0.2253 
G01 X-1.6687 Y0.2261 
G01 X-1.6687 Y0.2269 
G01 X-1.6688 Y0.2278 
G01 X-1.6687 Y0.2286 
G01 X-1.6687 Y0.2294 
G01 X-1.6709 Y0.2261 
G00 Z0.1000 
G00 X-1.9104 Y0.2625 
G01 Z-0.0070 F10.00 
G01 X-1.9076 Y0.2625 F20.00 
G01 X-1.9081 Y0.2628 
G01 X-1.9089 Y0.2631 
G01 X-1.9095 Y0.2636 
G01 X-1.9102 Y0.2640 
G01 X-1.9108 Y0.2646 
G01 X-1.9112 Y0.2649 
G01 X-1.9104 Y0.2625 
G00 Z0.1000 
G00 X-2.2782 Y0.1145 
G01 Z-0.0070 F10.00 
G01 X-2.2841 Y0.1115 F20.00 
G01 X-2.2903 Y0.1095 
G01 X-2.2967 Y0.1085 
G01 X-2.3033 Y0.1085 
G01 X-2.3097 Y0.1095 
G01 X-2.3159 Y0.1115 
G01 X-2.3217 Y0.1145 
G01 X-2.3256 Y0.1173 
G01 X-2.3253 Y0.1168 
G01 X-2.3247 Y0.1145 
G01 X-2.3244 Y0.1136 
G01 X-2.3244 Y0.1104 
G01 X-2.3253 Y0.1072 
G01 X-2.3269 Y0.1043 
G01 X-2.3292 Y0.1020 
G01 X-2.3319 Y0.1005 
G01 X-2.2681 Y0.1005 
G01 X-2.2707 Y0.1020 
G01 X-2.2731 Y0.1043 
G01 X-2.2747 Y0.1072 
G01 X-2.2755 Y0.1103 
G01 X-2.2755 Y0.1136 
G01 X-2.2753 Y0.1145 
G01 X-2.2747 Y0.1168 
G01 X-2.2744 Y0.1173 
G01 X-2.2782 Y0.1145 
G00 Z0.1000 
G00 X-2.0191 Y0.1132 
G01 Z-0.0070 F10.00 
G01 X-2.0211 Y0.1112 F20.00 
G01 X-2.0206 Y0.1114 
G01 X-2.0198 Y0.1117 
G01 X-2.0190 Y0.1118 
G01 X-2.0182 Y0.1120 
G01 X-2.0174 Y0.1120 
G01 X-2.0169 Y0.1121 
G01 X-2.0191 Y0.1132 
G00 Z0.1000 
G00 X-1.8809 Y0.1132 
G01 Z-0.0070 F10.00 
G01 X-1.8831 Y0.1121 F20.00 
G01 X-1.8826 Y0.1120 
G01 X-1.8818 Y0.1120 
G01 X-1.8810 Y0.1118 
G01 X-1.8802 Y0.1117 
G01 X-1.8794 Y0.1114 
G01 X-1.8789 Y0.1112 
G01 X-1.8809 Y0.1132 
G00 Z0.1000 
G00 X-1.7905 Y0.1095 
G01 Z-0.0070 F10.00 
G01 X-1.7932 Y0.1091 F20.00 
G01 X-1.7932 Y0.1091 
G01 X-1.7918 Y0.1087 
G01 X-1.7916 Y0.1086 
G01 X-1.7901 Y0.1078 
G01 X-1.7891 Y0.1072 
G01 X-1.7905 Y0.1095 
G00 Z0.1000 
G00 X-1.7683 Y0.1230 
G01 Z-0.0070 F10.00 
G01 X-1.7690 Y0.1223 F20.00 
G01 X-1.7672 Y0.1193 
G01 X-1.7672 Y0.1199 
G01 X-1.7673 Y0.1208 
G01 X-1.7672 Y0.1215 
G01 X-1.7673 Y0.1223 
G01 X-1.7670 Y0.1231 
G01 X-1.7669 Y0.1240 
G01 X-1.7666 Y0.1247 
G01 X-1.7664 Y0.1255 
G01 X-1.7661 Y0.1260 
G01 X-1.7683 Y0.1230 
G00 Z0.1000 
G00 X-1.7549 Y0.0985 
G01 Z-0.0070 F10.00 
G01 X-1.7534 Y0.0985 F20.00 
G01 X-1.7544 Y0.0991 
G01 X-1.7556 Y0.0998 
G01 X-1.7549 Y0.0985 
G00 Z0.1000 
G00 X-1.6782 Y0.1145 
G01 Z-0.0070 F10.00 
G01 X-1.6841 Y0.1115 F20.00 
G01 X-1.6903 Y0.1095 
G01 X-1.6967 Y0.1085 
G01 X-1.7033 Y0.1085 
G01 X-1.7097 Y0.1095 
G01 X-1.7159 Y0.1115 
G01 X-1.7217 Y0.1145 
G01 X-1.7241 Y0.1162 
G01 X-1.7233 Y0.1148 
G01 X-1.7225 Y0.1117 
G01 X-1.7224 Y0.1084 
G01 X-1.7233 Y0.1053 
G01 X-1.7233 Y0.1052 
G01 X-1.7249 Y0.1023 
G01 X-1.7273 Y0.1000 
G01 X-1.7299 Y0.0985 
G01 X-1.6701 Y0.0985 
G01 X-1.6727 Y0.1000 
G01 X-1.6751 Y0.1023 
G01 X-1.6767 Y0.1052 
G01 X-1.6775 Y0.1083 
G01 X-1.6775 Y0.1116 
G01 X-1.6767 Y0.1148 
G01 X-1.6759 Y0.1162 
G01 X-1.6782 Y0.1145 
G00 Z0.1000 
G00 X-1.5782 Y0.1145 
G01 Z-0.0070 F10.00 
G01 X-1.5841 Y0.1115 F20.00 
G01 X-1.5903 Y0.1095 
G01 X-1.5967 Y0.1085 
G01 X-1.6033 Y0.1085 
G01 X-1.6097 Y0.1095 
G01 X-1.6159 Y0.1115 
G01 X-1.6217 Y0.1145 
G01 X-1.6241 Y0.1162 
G01 X-1.6233 Y0.1148 
G01 X-1.6225 Y0.1117 
G01 X-1.6224 Y0.1084 
G01 X-1.6233 Y0.1053 
G01 X-1.6233 Y0.1052 
G01 X-1.6249 Y0.1023 
G01 X-1.6273 Y0.1000 
G01 X-1.6299 Y0.0985 
G01 X-1.5701 Y0.0985 
G01 X-1.5727 Y0.1000 
G01 X-1.5751 Y0.1023 
G01 X-1.5767 Y0.1052 
G01 X-1.5775 Y0.1083 
G01 X-1.5775 Y0.1116 
G01 X-1.5767 Y0.1148 
G01 X-1.5759 Y0.1162 
G01 X-1.5782 Y0.1145 
G00 Z0.1000 
G00 X-1.6809 Y0.7868 
G01 Z-0.0070 F10.00 
G01 X-1.6789 Y0.7888 F20.00 
G01 X-1.6794 Y0.7886 
G01 X-1.6802 Y0.7883 
G01 X-1.6810 Y0.7882 
G01 X-1.6818 Y0.7880 
G01 X-1.6826 Y0.7880 
G01 X-1.6831 Y0.7879 
G01 X-1.6809 Y0.7868 
G00 Z0.1000 
G00 X-1.4809 Y0.7868 
G01 Z-0.0070 F10.00 
G01 X-1.4789 Y0.7888 F20.00 
G01 X-1.4794 Y0.7886 
G01 X-1.4802 Y0.7883 
G01 X-1.4810 Y0.7882 
G01 X-1.4818 Y0.7880 
G01 X-1.4826 Y0.7880 
G01 X-1.4831 Y0.7879 
G01 X-1.4809 Y0.7868 
G00 Z0.1000 
G00 X-1.2809 Y0.7868 
G01 Z-0.0070 F10.00 
G01 X-1.2789 Y0.7888 F20.00 
G01 X-1.2794 Y0.7886 
G01 X-1.2802 Y0.7883 
G01 X-1.2810 Y0.7882 
G01 X-1.2818 Y0.7880 
G01 X-1.2826 Y0.7880 
G01 X-1.2831 Y0.7879 
G01 X-1.2809 Y0.7868 
G00 Z0.1000 
G00 X-1.0691 Y0.9632 
G01 Z-0.0070 F10.00 
G01 X-1.0711 Y0.9612 F20.00 
G01 X-1.0706 Y0.9614 
G01 X-1.0698 Y0.9617 
G01 X-1.0690 Y0.9618 
G01 X-1.0682 Y0.9620 
G01 X-1.0674 Y0.9620 
G01 X-1.0669 Y0.9621 
G01 X-1.0691 Y0.9632 
G00 Z0.1000 
G00 X-1.3809 Y0.7868 
G01 Z-0.0070 F10.00 
G01 X-1.3789 Y0.7888 F20.00 
G01 X-1.3794 Y0.7886 
G01 X-1.3802 Y0.7883 
G01 X-1.3810 Y0.7882 
G01 X-1.3818 Y0.7880 
G01 X-1.3826 Y0.7880 
G01 X-1.3831 Y0.7879 
G01 X-1.3809 Y0.7868 
G00 Z0.1000 
G00 X-1.2691 Y0.9632 
G01 Z-0.0070 F10.00 
G01 X-1.2711 Y0.9612 F20.00 
G01 X-1.2706 Y0.9614 
G01 X-1.2698 Y0.9617 
G01 X-1.2690 Y0.9618 
G01 X-1.2682 Y0.9620 
G01 X-1.2674 Y0.9620 
G01 X-1.2669 Y0.9620 
G01 X-1.2691 Y0.9632 
G00 Z0.1000 
G00 X-1.5809 Y0.7868 
G01 Z-0.0070 F10.00 
G01 X-1.5789 Y0.7888 F20.00 
G01 X-1.5794 Y0.7886 
G01 X-1.5802 Y0.7883 
G01 X-1.5810 Y0.7882 
G01 X-1.5818 Y0.7880 
G01 X-1.5826 Y0.7880 
G01 X-1.5831 Y0.7879 
G01 X-1.5809 Y0.7868 
G00 Z0.1000 
G00 X-1.5691 Y0.9632 
G01 Z-0.0070 F10.00 
G01 X-1.5711 Y0.9612 F20.00 
G01 X-1.5706 Y0.9614 
G01 X-1.5698 Y0.9617 
G01 X-1.5690 Y0.9618 
G01 X-1.5682 Y0.9620 
G01 X-1.5674 Y0.9620 
G01 X-1.5669 Y0.9621 
G01 X-1.5691 Y0.9632 
G00 Z0.1000 
G00 X-1.7691 Y0.9632 
G01 Z-0.0070 F10.00 
G01 X-1.7711 Y0.9612 F20.00 
G01 X-1.7706 Y0.9614 
G01 X-1.7698 Y0.9617 
G01 X-1.7690 Y0.9618 
G01 X-1.7682 Y0.9620 
G01 X-1.7674 Y0.9620 
G01 X-1.7669 Y0.9621 
G01 X-1.7691 Y0.9632 
G00 Z0.1000 
G00 X-1.8809 Y0.7868 
G01 Z-0.0070 F10.00 
G01 X-1.8789 Y0.7888 F20.00 
G01 X-1.8794 Y0.7886 
G01 X-1.8802 Y0.7883 
G01 X-1.8810 Y0.7882 
G01 X-1.8818 Y0.7880 
G01 X-1.8826 Y0.7880 
G01 X-1.8831 Y0.7879 
G01 X-1.8809 Y0.7868 
G00 Z0.1000 
G00 X-2.0161 Y0.9162 
G01 Z-0.0070 F10.00 
G01 X-2.0151 Y0.9138 F20.00 
G01 X-2.0151 Y0.9143 
G01 X-2.0151 Y0.9151 
G01 X-2.0148 Y0.9159 
G01 X-2.0147 Y0.9168 
G01 X-2.0144 Y0.9175 
G01 X-2.0143 Y0.9180 
G01 X-2.0161 Y0.9162 
G00 Z0.1000 
G00 X-2.0875 Y0.7896 
G01 Z-0.0070 F10.00 
G01 X-2.0851 Y0.7888 F20.00 
G01 X-2.0854 Y0.7892 
G01 X-2.0860 Y0.7897 
G01 X-2.0864 Y0.7905 
G01 X-2.0869 Y0.7911 
G01 X-2.0872 Y0.7919 
G01 X-2.0875 Y0.7924 
G01 X-2.0875 Y0.7896 
G00 Z0.1000 
G00 X-1.0125 Y0.2354 
G01 Z-0.0070 F10.00 
G01 X-1.0125 Y0.2380 F20.00 
G01 X-1.0128 Y0.2376 
G01 X-1.0131 Y0.2368 
G01 X-1.0136 Y0.2361 
G01 X-1.0140 Y0.2354 
G01 X-1.0146 Y0.2348 
G01 X-1.0149 Y0.2344 
G01 X-1.0125 Y0.2354 
G00 Z0.1000 
G00 X-0.9782 Y0.4355 
G01 Z-0.0070 F10.00 
G01 X-0.9778 Y0.4352 F20.00 
G01 X-0.9759 Y0.4368 
G01 X-0.9762 Y0.4367 
G01 X-0.9775 Y0.4365 
G01 X-0.9788 Y0.4362 
G01 X-0.9791 Y0.4363 
G01 X-0.9794 Y0.4362 
G01 X-0.9798 Y0.4363 
G01 X-0.9782 Y0.4355 
G00 Z0.1000 
G00 X-0.9967 Y0.4585 
G01 Z-0.0070 F10.00 
G01 X-1.0033 Y0.4585 F20.00 
G01 X-1.0097 Y0.4595 
G01 X-1.0159 Y0.4615 
G01 X-1.0191 Y0.4632 
G01 X-1.0558 Y0.4266 
G01 X-1.0552 Y0.4267 
G01 X-1.0545 Y0.4270 
G01 X-1.0537 Y0.4271 
G01 X-1.0529 Y0.4273 
G01 X-1.0520 Y0.4273 
G01 X-1.0512 Y0.4274 
G01 X-1.0504 Y0.4273 
G01 X-1.0496 Y0.4273 
G01 X-1.0488 Y0.4271 
G01 X-1.0479 Y0.4270 
G01 X-1.0472 Y0.4267 
G01 X-1.0464 Y0.4265 
G01 X-1.0457 Y0.4261 
G01 X-1.0449 Y0.4258 
G01 X-1.0443 Y0.4253 
G01 X-1.0435 Y0.4248 
G01 X-1.0429 Y0.4242 
G01 X-1.0423 Y0.4238 
G01 X-1.0418 Y0.4231 
G01 X-1.0412 Y0.4225 
G01 X-1.0408 Y0.4218 
G01 X-1.0403 Y0.4211 
G01 X-1.0400 Y0.4204 
G01 X-1.0396 Y0.4197 
G01 X-1.0393 Y0.4189 
G01 X-1.0390 Y0.4181 
G01 X-1.0389 Y0.4173 
G01 X-1.0387 Y0.4165 
G01 X-1.0387 Y0.4156 
G01 X-1.0387 Y0.4153 
G01 X-1.0385 Y0.4159 
G01 X-1.0355 Y0.4217 
G01 X-1.0316 Y0.4270 
G01 X-1.0270 Y0.4316 
G01 X-1.0217 Y0.4355 
G01 X-1.0159 Y0.4385 
G01 X-1.0097 Y0.4405 
G01 X-1.0033 Y0.4415 
G01 X-0.9967 Y0.4415 
G01 X-0.9904 Y0.4405 
G01 X-0.9911 Y0.4411 
G01 X-0.9931 Y0.4437 
G01 X-0.9934 Y0.4443 
G01 X-0.9944 Y0.4467 
G01 X-0.9948 Y0.4500 
G01 X-0.9944 Y0.4533 
G01 X-0.9933 Y0.4558 
G01 X-0.9931 Y0.4563 
G01 X-0.9925 Y0.4571 
G01 X-0.9911 Y0.4589 
G01 X-0.9903 Y0.4595 
G01 X-0.9967 Y0.4585 
G00 Z0.1000 
G00 X-0.9730 Y0.4683 
G01 Z-0.0070 F10.00 
G01 X-0.9767 Y0.4656 F20.00 
G01 X-0.9760 Y0.4657 
G01 X-0.9747 Y0.4660 
G01 X-0.9744 Y0.4659 
G01 X-0.9741 Y0.4660 
G01 X-0.9727 Y0.4658 
G01 X-0.9714 Y0.4657 
G01 X-0.9711 Y0.4656 
G01 X-0.9710 Y0.4656 
G01 X-0.9711 Y0.4660 
G01 X-0.9710 Y0.4671 
G01 X-0.9710 Y0.4682 
G01 X-0.9708 Y0.4687 
G01 X-0.9708 Y0.4692 
G01 X-0.9704 Y0.4703 
G01 X-0.9702 Y0.4711 
G01 X-0.9730 Y0.4683 
G00 Z0.1000 
G00 X-0.9549 Y0.4545 
G01 Z-0.0070 F10.00 
G01 X-0.9557 Y0.4544 F20.00 
G01 X-0.9568 Y0.4541 
G01 X-0.9574 Y0.4541 
G01 X-0.9579 Y0.4540 
G01 X-0.9590 Y0.4541 
G01 X-0.9601 Y0.4541 
G01 X-0.9606 Y0.4542 
G01 X-0.9612 Y0.4542 
G01 X-0.9616 Y0.4544 
G01 X-0.9615 Y0.4540 
G01 X-0.9615 Y0.4537 
G01 X-0.9615 Y0.4534 
G01 X-0.9616 Y0.4520 
G01 X-0.9618 Y0.4507 
G01 X-0.9619 Y0.4504 
G01 X-0.9619 Y0.4501 
G01 X-0.9624 Y0.4488 
G01 X-0.9628 Y0.4479 
G01 X-0.9549 Y0.4545 
G00 Z0.1000 
G00 X-0.3625 Y0.9558 
G01 Z-0.0070 F10.00 
G01 X-0.3625 Y0.9604 F20.00 
G01 X-0.3659 Y0.9615 
G01 X-0.3717 Y0.9645 
G01 X-0.3713 Y0.9641 
G01 X-0.3705 Y0.9633 
G01 X-0.3703 Y0.9628 
G01 X-0.3699 Y0.9624 
G01 X-0.3695 Y0.9614 
G01 X-0.3689 Y0.9604 
G01 X-0.3688 Y0.9599 
G01 X-0.3685 Y0.9594 
G01 X-0.3683 Y0.9583 
G01 X-0.3680 Y0.9572 
G01 X-0.3680 Y0.9567 
G01 X-0.3679 Y0.9562 
G01 X-0.3680 Y0.9551 
G01 X-0.3680 Y0.9539 
G01 X-0.3682 Y0.9534 
G01 X-0.3682 Y0.9529 
G01 X-0.3686 Y0.9519 
G01 X-0.3689 Y0.9508 
G01 X-0.3692 Y0.9503 
G01 X-0.3692 Y0.9501 
G01 X-0.3625 Y0.9558 
G00 Z0.1000 
G00 X-1.9016 Y0.8660 
G01 Z-0.0070 F10.00 
G01 X-1.9022 Y0.8659 F20.00 
G01 X-1.9029 Y0.8656 
G01 X-1.9037 Y0.8655 
G01 X-1.9045 Y0.8653 
G01 X-1.9054 Y0.8653 
G01 X-1.9062 Y0.8651 
G01 X-1.9070 Y0.8653 
G01 X-1.9078 Y0.8653 
G01 X-1.9086 Y0.8655 
G01 X-1.9094 Y0.8656 
G01 X-1.9102 Y0.8659 
G01 X-1.9110 Y0.8661 
G01 X-1.9117 Y0.8665 
G01 X-1.9125 Y0.8668 
G01 X-1.9131 Y0.8673 
G01 X-1.9139 Y0.8678 
G01 X-1.9144 Y0.8683 
G01 X-1.9151 Y0.8688 
G01 X-1.9156 Y0.8695 
G01 X-1.9162 Y0.8701 
G01 X-1.9166 Y0.8708 
G01 X-1.9171 Y0.8715 
G01 X-1.9174 Y0.8722 
G01 X-1.9178 Y0.8729 
G01 X-1.9180 Y0.8737 
G01 X-1.9184 Y0.8745 
G01 X-1.9185 Y0.8753 
G01 X-1.9187 Y0.8761 
G01 X-1.9187 Y0.8769 
G01 X-1.9188 Y0.8778 
G01 X-1.9187 Y0.8786 
G01 X-1.9187 Y0.8794 
G01 X-1.9209 Y0.8761 
G01 X-1.9261 Y0.8709 
G01 X-1.9294 Y0.8687 
G01 X-1.9286 Y0.8687 
G01 X-1.9278 Y0.8688 
G01 X-1.9269 Y0.8687 
G01 X-1.9261 Y0.8687 
G01 X-1.9253 Y0.8685 
G01 X-1.9245 Y0.8684 
G01 X-1.9237 Y0.8680 
G01 X-1.9229 Y0.8678 
G01 X-1.9222 Y0.8674 
G01 X-1.9215 Y0.8671 
G01 X-1.9208 Y0.8666 
G01 X-1.9201 Y0.8662 
G01 X-1.9195 Y0.8656 
G01 X-1.9188 Y0.8651 
G01 X-1.9183 Y0.8644 
G01 X-1.9178 Y0.8639 
G01 X-1.9173 Y0.8631 
G01 X-1.9168 Y0.8625 
G01 X-1.9165 Y0.8617 
G01 X-1.9161 Y0.8610 
G01 X-1.9159 Y0.8602 
G01 X-1.9156 Y0.8594 
G01 X-1.9155 Y0.8586 
G01 X-1.9153 Y0.8578 
G01 X-1.9153 Y0.8570 
G01 X-1.9151 Y0.8562 
G01 X-1.9153 Y0.8554 
G01 X-1.9153 Y0.8545 
G01 X-1.9155 Y0.8537 
G01 X-1.9156 Y0.8529 
G01 X-1.9159 Y0.8522 
G01 X-1.9160 Y0.8516 
G01 X-1.9016 Y0.8660 
G00 Z0.1000 
G00 X-1.9809 Y0.7868 
G01 Z-0.0070 F10.00 
G01 X-1.9789 Y0.7888 F20.00 
G01 X-1.9794 Y0.7886 
G01 X-1.9802 Y0.7883 
G01 X-1.9810 Y0.7882 
G01 X-1.9818 Y0.7880 
G01 X-1.9826 Y0.7880 
G01 X-1.9831 Y0.7879 
G01 X-1.9809 Y0.7868 
G00 Z0.1000 
G00 X-1.9791 Y0.9239 
G01 Z-0.0070 F10.00 
G01 X-1.9739 Y0.9291 F20.00 
G01 X-1.9706 Y0.9313 
G01 X-1.9714 Y0.9313 
G01 X-1.9722 Y0.9312 
G01 X-1.9730 Y0.9313 
G01 X-1.9739 Y0.9313 
G01 X-1.9747 Y0.9315 
G01 X-1.9755 Y0.9316 
G01 X-1.9763 Y0.9320 
G01 X-1.9771 Y0.9322 
G01 X-1.9778 Y0.9326 
G01 X-1.9785 Y0.9329 
G01 X-1.9792 Y0.9334 
G01 X-1.9799 Y0.9338 
G01 X-1.9805 Y0.9344 
G01 X-1.9811 Y0.9349 
G01 X-1.9816 Y0.9355 
G01 X-1.9822 Y0.9361 
G01 X-1.9826 Y0.9369 
G01 X-1.9831 Y0.9375 
G01 X-1.9835 Y0.9383 
G01 X-1.9839 Y0.9390 
G01 X-1.9841 Y0.9398 
G01 X-1.9844 Y0.9406 
G01 X-1.9845 Y0.9414 
G01 X-1.9847 Y0.9422 
G01 X-1.9847 Y0.9430 
G01 X-1.9848 Y0.9438 
G01 X-1.9847 Y0.9446 
G01 X-1.9847 Y0.9455 
G01 X-1.9845 Y0.9463 
G01 X-1.9844 Y0.9471 
G01 X-1.9841 Y0.9478 
G01 X-1.9840 Y0.9484 
G01 X-1.9984 Y0.9340 
G01 X-1.9978 Y0.9341 
G01 X-1.9971 Y0.9344 
G01 X-1.9963 Y0.9345 
G01 X-1.9955 Y0.9347 
G01 X-1.9946 Y0.9347 
G01 X-1.9938 Y0.9348 
G01 X-1.9930 Y0.9347 
G01 X-1.9922 Y0.9347 
G01 X-1.9914 Y0.9345 
G01 X-1.9906 Y0.9344 
G01 X-1.9898 Y0.9341 
G01 X-1.9890 Y0.9339 
G01 X-1.9883 Y0.9335 
G01 X-1.9875 Y0.9331 
G01 X-1.9869 Y0.9326 
G01 X-1.9861 Y0.9322 
G01 X-1.9856 Y0.9317 
G01 X-1.9849 Y0.9311 
G01 X-1.9844 Y0.9305 
G01 X-1.9838 Y0.9299 
G01 X-1.9834 Y0.9292 
G01 X-1.9829 Y0.9285 
G01 X-1.9826 Y0.9278 
G01 X-1.9822 Y0.9271 
G01 X-1.9820 Y0.9263 
G01 X-1.9816 Y0.9255 
G01 X-1.9815 Y0.9247 
G01 X-1.9813 Y0.9239 
G01 X-1.9813 Y0.9230 
G01 X-1.9812 Y0.9222 
G01 X-1.9813 Y0.9214 
G01 X-1.9813 Y0.9206 
G01 X-1.9791 Y0.9239 
G00 Z0.1000 
G00 X-1.9498 Y0.9497 
G01 Z-0.0070 F10.00 
G01 X-1.9496 Y0.9511 F20.00 
G01 X-1.9496 Y0.9511 
G01 X-1.9488 Y0.9531 
G01 X-1.9484 Y0.9541 
G01 X-1.9472 Y0.9557 
G01 X-1.9464 Y0.9568 
G01 X-1.9453 Y0.9575 
G01 X-1.9437 Y0.9588 
G01 X-1.9429 Y0.9591 
G01 X-1.9467 Y0.9585 
G01 X-1.9533 Y0.9585 
G01 X-1.9571 Y0.9591 
G01 X-1.9562 Y0.9588 
G01 X-1.9536 Y0.9568 
G01 X-1.9516 Y0.9541 
G01 X-1.9504 Y0.9511 
G01 X-1.9500 Y0.9483 
G01 X-1.9498 Y0.9497 
G00 Z0.1000 
G00 X-1.9537 Y0.9375 
G01 Z-0.0070 F10.00 
G01 X-1.9463 Y0.9375 F20.00 
G01 X-1.9439 Y0.9370 
G01 X-1.9453 Y0.9381 
G01 X-1.9464 Y0.9389 
G01 X-1.9471 Y0.9399 
G01 X-1.9484 Y0.9415 
G01 X-1.9494 Y0.9440 
G01 X-1.9496 Y0.9446 
G01 X-1.9499 Y0.9468 
G01 X-1.9500 Y0.9474 
G01 X-1.9504 Y0.9446 
G01 X-1.9516 Y0.9415 
G01 X-1.9536 Y0.9389 
G01 X-1.9561 Y0.9370 
G01 X-1.9537 Y0.9375 
G00 Z0.1000 
G00 X-1.9691 Y0.9632 
G01 Z-0.0070 F10.00 
G01 X-1.9711 Y0.9612 F20.00 
G01 X-1.9706 Y0.9613 
G01 X-1.9698 Y0.9617 
G01 X-1.9690 Y0.9618 
G01 X-1.9682 Y0.9620 
G01 X-1.9674 Y0.9620 
G01 X-1.9669 Y0.9621 
G01 X-1.9691 Y0.9632 
G00 Z0.1000 
G00 X-1.7809 Y0.7868 
G01 Z-0.0070 F10.00 
G01 X-1.7789 Y0.7888 F20.00 
G01 X-1.7794 Y0.7886 
G01 X-1.7802 Y0.7883 
G01 X-1.7810 Y0.7882 
G01 X-1.7818 Y0.7880 
G01 X-1.7826 Y0.7880 
G01 X-1.7831 Y0.7879 
G01 X-1.7809 Y0.7868 
G00 Z0.1000 
G00 X-1.6691 Y0.9632 
G01 Z-0.0070 F10.00 
G01 X-1.6711 Y0.9612 F20.00 
G01 X-1.6706 Y0.9614 
G01 X-1.6698 Y0.9617 
G01 X-1.6690 Y0.9618 
G01 X-1.6682 Y0.9620 
G01 X-1.6674 Y0.9620 
G01 X-1.6669 Y0.9620 
G01 X-1.6691 Y0.9632 
G00 Z0.1000 
G00 X-2.2191 Y0.7868 
G01 Z-0.0070 F10.00 
G01 X-2.2169 Y0.7879 F20.00 
G01 X-2.2174 Y0.7880 
G01 X-2.2182 Y0.7880 
G01 X-2.2190 Y0.7882 
G01 X-2.2198 Y0.7883 
G01 X-2.2206 Y0.7886 
G01 X-2.2211 Y0.7888 
G01 X-2.2191 Y0.7868 
G00 Z0.1000 
G00 X-2.1125 Y0.7896 
G01 Z-0.0070 F10.00 
G01 X-2.1125 Y0.7923 F20.00 
G01 X-2.1128 Y0.7919 
G01 X-2.1131 Y0.7911 
G01 X-2.1136 Y0.7905 
G01 X-2.1140 Y0.7897 
G01 X-2.1146 Y0.7892 
G01 X-2.1149 Y0.7888 
G01 X-2.1125 Y0.7896 
G00 Z0.1000 
G00 X-2.5453 Y1.0627 
G01 Z-0.0070 F10.00 
G01 X-2.5463 Y1.0625 F20.00 
G01 X-2.5473 Y1.0625 
G01 X-2.5468 Y1.0623 
G01 X-2.5458 Y1.0616 
G01 X-2.5447 Y1.0610 
G01 X-2.5444 Y1.0607 
G01 X-2.5453 Y1.0627 
G00 Z0.1000 
G00 X-2.5289 Y1.0298 
G01 Z-0.0070 F10.00 
G01 X-2.5303 Y1.0327 F20.00 
G01 X-2.5304 Y1.0317 
G01 X-2.5304 Y1.0304 
G01 X-2.5305 Y1.0300 
G01 X-2.5305 Y1.0297 
G01 X-2.5309 Y1.0285 
G01 X-2.5311 Y1.0275 
G01 X-2.5289 Y1.0298 
G00 Z0.1000 
G00 X-2.4604 Y0.9875 
G01 Z-0.0070 F10.00 
G01 X-2.4612 Y0.9851 F20.00 
G01 X-2.4608 Y0.9854 
G01 X-2.4602 Y0.9860 
G01 X-2.4595 Y0.9864 
G01 X-2.4589 Y0.9869 
G01 X-2.4581 Y0.9872 
G01 X-2.4576 Y0.9875 
G01 X-2.4604 Y0.9875 
G00 Z0.1000 
G00 X-2.5164 Y0.7244 
G01 Z-0.0070 F10.00 
G01 X-2.5139 Y0.7252 F20.00 
G01 X-2.5140 Y0.7252 
G01 X-2.5144 Y0.7252 
G01 X-2.5156 Y0.7255 
G01 X-2.5169 Y0.7258 
G01 X-2.5172 Y0.7260 
G01 X-2.5176 Y0.7261 
G01 X-2.5177 Y0.7261 
G01 X-2.5164 Y0.7244 
G00 Z0.1000 
G00 X-2.5104 Y0.6125 
G01 Z-0.0070 F10.00 
G01 X-2.5076 Y0.6125 F20.00 
G01 X-2.5081 Y0.6128 
G01 X-2.5089 Y0.6131 
G01 X-2.5095 Y0.6136 
G01 X-2.5102 Y0.6140 
G01 X-2.5108 Y0.6146 
G01 X-2.5112 Y0.6149 
G01 X-2.5104 Y0.6125 
G00 Z0.1000 
G00 X-2.5085 Y0.7007 
G01 Z-0.0070 F10.00 
G01 X-2.5085 Y0.6974 F20.00 
G01 X-2.5080 Y0.6983 
G01 X-2.5074 Y0.6994 
G01 X-2.5072 Y0.6997 
G01 X-2.5070 Y0.7000 
G01 X-2.5061 Y0.7009 
G01 X-2.5054 Y0.7017 
G01 X-2.5085 Y0.7007 
G00 Z0.1000 
G00 X-2.4336 Y0.7256 
G01 Z-0.0070 F10.00 
G01 X-2.4361 Y0.7248 F20.00 
G01 X-2.4360 Y0.7248 
G01 X-2.4356 Y0.7248 
G01 X-2.4344 Y0.7245 
G01 X-2.4331 Y0.7242 
G01 X-2.4328 Y0.7240 
G01 X-2.4324 Y0.7239 
G01 X-2.4323 Y0.7239 
G01 X-2.4336 Y0.7256 
G00 Z0.1000 
G00 X-2.3585 Y0.7533 
G01 Z-0.0070 F10.00 
G01 X-2.3585 Y0.7467 F20.00 
G01 X-2.3595 Y0.7403 
G01 X-2.3615 Y0.7341 
G01 X-2.3645 Y0.7282 
G01 X-2.3683 Y0.7230 
G01 X-2.3730 Y0.7183 
G01 X-2.3782 Y0.7145 
G01 X-2.3841 Y0.7115 
G01 X-2.3847 Y0.7113 
G01 X-2.3843 Y0.7113 
G01 X-2.3835 Y0.7113 
G01 X-2.3827 Y0.7111 
G01 X-2.3819 Y0.7110 
G01 X-2.3811 Y0.7106 
G01 X-2.3803 Y0.7104 
G01 X-2.3796 Y0.7100 
G01 X-2.3788 Y0.7097 
G01 X-2.3782 Y0.7092 
G01 X-2.3775 Y0.7088 
G01 X-2.3769 Y0.7082 
G01 X-2.3762 Y0.7077 
G01 X-2.3757 Y0.7071 
G01 X-2.3751 Y0.7065 
G01 X-2.3747 Y0.7057 
G01 X-2.3742 Y0.7051 
G01 X-2.3739 Y0.7043 
G01 X-2.3735 Y0.7036 
G01 X-2.3733 Y0.7028 
G01 X-2.3730 Y0.7020 
G01 X-2.3729 Y0.7012 
G01 X-2.3726 Y0.7004 
G01 X-2.3726 Y0.6996 
G01 X-2.3725 Y0.6988 
G01 X-2.3726 Y0.6980 
G01 X-2.3726 Y0.6971 
G01 X-2.3729 Y0.6963 
G01 X-2.3730 Y0.6955 
G01 X-2.3733 Y0.6948 
G01 X-2.3734 Y0.6942 
G01 X-2.3368 Y0.7309 
G01 X-2.3385 Y0.7341 
G01 X-2.3405 Y0.7403 
G01 X-2.3415 Y0.7467 
G01 X-2.3415 Y0.7533 
G01 X-2.3405 Y0.7596 
G01 X-2.3411 Y0.7589 
G01 X-2.3437 Y0.7569 
G01 X-2.3467 Y0.7556 
G01 X-2.3500 Y0.7552 
G01 X-2.3530 Y0.7556 
G01 X-2.3533 Y0.7556 
G01 X-2.3563 Y0.7569 
G01 X-2.3589 Y0.7589 
G01 X-2.3595 Y0.7597 
G01 X-2.3585 Y0.7533 
G00 Z0.1000 
G00 X-2.5467 Y0.6585 
G01 Z-0.0070 F10.00 
G01 X-2.5533 Y0.6585 F20.00 
G01 X-2.5596 Y0.6595 
G01 X-2.5589 Y0.6589 
G01 X-2.5569 Y0.6563 
G01 X-2.5563 Y0.6551 
G01 X-2.5556 Y0.6533 
G01 X-2.5552 Y0.6500 
G01 X-2.5552 Y0.6496 
G01 X-2.5556 Y0.6467 
G01 X-2.5569 Y0.6437 
G01 X-2.5574 Y0.6431 
G01 X-2.5589 Y0.6411 
G01 X-2.5596 Y0.6405 
G01 X-2.5533 Y0.6415 
G01 X-2.5467 Y0.6415 
G01 X-2.5404 Y0.6405 
G01 X-2.5411 Y0.6411 
G01 X-2.5427 Y0.6431 
G01 X-2.5431 Y0.6437 
G01 X-2.5444 Y0.6467 
G01 X-2.5448 Y0.6495 
G01 X-2.5448 Y0.6500 
G01 X-2.5444 Y0.6533 
G01 X-2.5437 Y0.6550 
G01 X-2.5431 Y0.6563 
G01 X-2.5411 Y0.6589 
G01 X-2.5403 Y0.6595 
G01 X-2.5467 Y0.6585 
G00 Z0.1000 
G00 X-1.9854 Y1.1875 
G01 Z-0.0070 F10.00 
G01 X-1.9880 Y1.1875 F20.00 
G01 X-1.9875 Y1.1872 
G01 X-1.9868 Y1.1869 
G01 X-1.9861 Y1.1864 
G01 X-1.9854 Y1.1860 
G01 X-1.9848 Y1.1854 
G01 X-1.9844 Y1.1851 
G01 X-1.9854 Y1.1875 
G00 Z0.1000 
G00 X-2.5984 Y1.1340 
G01 Z-0.0070 F10.00 
G01 X-2.5978 Y1.1341 F20.00 
G01 X-2.5971 Y1.1344 
G01 X-2.5963 Y1.1345 
G01 X-2.5955 Y1.1347 
G01 X-2.5946 Y1.1347 
G01 X-2.5938 Y1.1348 
G01 X-2.5930 Y1.1347 
G01 X-2.5922 Y1.1347 
G01 X-2.5914 Y1.1345 
G01 X-2.5906 Y1.1344 
G01 X-2.5898 Y1.1341 
G01 X-2.5890 Y1.1339 
G01 X-2.5883 Y1.1335 
G01 X-2.5875 Y1.1331 
G01 X-2.5869 Y1.1327 
G01 X-2.5861 Y1.1322 
G01 X-2.5855 Y1.1316 
G01 X-2.5849 Y1.1311 
G01 X-2.5844 Y1.1305 
G01 X-2.5838 Y1.1299 
G01 X-2.5834 Y1.1292 
G01 X-2.5829 Y1.1285 
G01 X-2.5826 Y1.1278 
G01 X-2.5822 Y1.1271 
G01 X-2.5820 Y1.1262 
G01 X-2.5816 Y1.1255 
G01 X-2.5815 Y1.1247 
G01 X-2.5813 Y1.1239 
G01 X-2.5813 Y1.1230 
G01 X-2.5812 Y1.1222 
G01 X-2.5813 Y1.1214 
G01 X-2.5813 Y1.1206 
G01 X-2.5791 Y1.1239 
G01 X-2.5739 Y1.1291 
G01 X-2.5706 Y1.1313 
G01 X-2.5714 Y1.1313 
G01 X-2.5722 Y1.1312 
G01 X-2.5730 Y1.1313 
G01 X-2.5739 Y1.1313 
G01 X-2.5747 Y1.1315 
G01 X-2.5755 Y1.1316 
G01 X-2.5762 Y1.1320 
G01 X-2.5771 Y1.1322 
G01 X-2.5778 Y1.1326 
G01 X-2.5785 Y1.1329 
G01 X-2.5792 Y1.1334 
G01 X-2.5799 Y1.1338 
G01 X-2.5805 Y1.1344 
G01 X-2.5811 Y1.1349 
G01 X-2.5816 Y1.1355 
G01 X-2.5822 Y1.1361 
G01 X-2.5827 Y1.1369 
G01 X-2.5831 Y1.1375 
G01 X-2.5835 Y1.1383 
G01 X-2.5839 Y1.1390 
G01 X-2.5841 Y1.1398 
G01 X-2.5844 Y1.1406 
G01 X-2.5845 Y1.1414 
G01 X-2.5847 Y1.1422 
G01 X-2.5847 Y1.1430 
G01 X-2.5848 Y1.1438 
G01 X-2.5847 Y1.1446 
G01 X-2.5847 Y1.1455 
G01 X-2.5845 Y1.1463 
G01 X-2.5844 Y1.1471 
G01 X-2.5841 Y1.1478 
G01 X-2.5840 Y1.1484 
G01 X-2.5984 Y1.1340 
G00 Z0.1000 
G00 X-1.3125 Y1.8878 
G01 Z-0.0070 F10.00 
G01 X-1.3149 Y1.8888 F20.00 
G01 X-1.3146 Y1.8884 
G01 X-1.3140 Y1.8878 
G01 X-1.3136 Y1.8871 
G01 X-1.3131 Y1.8865 
G01 X-1.3128 Y1.8857 
G01 X-1.3125 Y1.8852 
G01 X-1.3125 Y1.8878 
G00 Z0.1000 
G00 X-1.2592 Y2.2915 
G01 Z-0.0070 F10.00 
G01 X-1.2752 Y2.3075 F20.00 
G01 X-1.2744 Y2.3046 
G01 X-1.2744 Y2.3013 
G01 X-1.2753 Y2.2982 
G01 X-1.2769 Y2.2953 
G01 X-1.2793 Y2.2930 
G01 X-1.2819 Y2.2915 
G01 X-1.2592 Y2.2915 
G00 Z0.1000 
G00 X-1.3741 Y2.2132 
G01 Z-0.0070 F10.00 
G01 X-1.3761 Y2.2112 F20.00 
G01 X-1.3756 Y2.2114 
G01 X-1.3748 Y2.2117 
G01 X-1.3740 Y2.2118 
G01 X-1.3732 Y2.2120 
G01 X-1.3724 Y2.2120 
G01 X-1.3719 Y2.2120 
G01 X-1.3741 Y2.2132 
G00 Z0.1000 
G00 X-1.3875 Y2.0122 
G01 Z-0.0070 F10.00 
G01 X-1.3851 Y2.0112 F20.00 
G01 X-1.3854 Y2.0116 
G01 X-1.3860 Y2.0122 
G01 X-1.3864 Y2.0129 
G01 X-1.3869 Y2.0135 
G01 X-1.3872 Y2.0143 
G01 X-1.3875 Y2.0148 
G01 X-1.3875 Y2.0122 
G00 Z0.1000 
G00 X-1.5896 Y2.1391 
G01 Z-0.0070 F10.00 
G01 X-1.5924 Y2.1391 F20.00 
G01 X-1.5919 Y2.1388 
G01 X-1.5911 Y2.1385 
G01 X-1.5905 Y2.1380 
G01 X-1.5897 Y2.1376 
G01 X-1.5892 Y2.1370 
G01 X-1.5888 Y2.1367 
G01 X-1.5896 Y2.1391 
G00 Z0.1000 
G00 X-1.9702 Y2.1222 
G01 Z-0.0070 F10.00 
G01 X-1.9692 Y2.1197 F20.00 
G01 X-1.9691 Y2.1202 
G01 X-1.9691 Y2.1211 
G01 X-1.9689 Y2.1219 
G01 X-1.9688 Y2.1227 
G01 X-1.9685 Y2.1235 
G01 X-1.9683 Y2.1240 
G01 X-1.9702 Y2.1222 
G00 Z0.1000 
G00 X-1.9878 Y2.1398 
G01 Z-0.0070 F10.00 
G01 X-1.9860 Y2.1417 F20.00 
G01 X-1.9865 Y2.1415 
G01 X-1.9873 Y2.1412 
G01 X-1.9881 Y2.1411 
G01 X-1.9889 Y2.1409 
G01 X-1.9898 Y2.1409 
G01 X-1.9903 Y2.1408 
G01 X-1.9878 Y2.1398 
G00 Z0.1000 
G00 X-1.5309 Y2.1884 
G01 Z-0.0070 F10.00 
G01 X-1.5289 Y2.1904 F20.00 
G01 X-1.5294 Y2.1902 
G01 X-1.5302 Y2.1899 
G01 X-1.5310 Y2.1898 
G01 X-1.5318 Y2.1896 
G01 X-1.5326 Y2.1896 
G01 X-1.5331 Y2.1895 
G01 X-1.5309 Y2.1884 
G00 Z0.1000 
G00 X-1.3125 Y2.3625 
G01 Z-0.0070 F10.00 
G01 X-1.3125 Y2.3689 F20.00 
G01 X-1.3140 Y2.3663 
G01 X-1.3163 Y2.3640 
G01 X-1.3189 Y2.3625 
G01 X-1.3125 Y2.3625 
G00 Z0.1000 
G00 X-3.1132 Y2.6809 
G01 Z-0.0070 F10.00 
G01 X-3.1112 Y2.6789 F20.00 
G01 X-3.1114 Y2.6794 
G01 X-3.1117 Y2.6802 
G01 X-3.1118 Y2.6810 
G01 X-3.1120 Y2.6818 
G01 X-3.1120 Y2.6826 
G01 X-3.1121 Y2.6831 
G01 X-3.1132 Y2.6809 
G00 Z0.1000 
G00 X-2.0297 Y2.4025 
G01 Z-0.0070 F10.00 
G01 X-2.0287 Y2.4049 F20.00 
G01 X-2.0291 Y2.4046 
G01 X-2.0297 Y2.4040 
G01 X-2.0304 Y2.4036 
G01 X-2.0311 Y2.4031 
G01 X-2.0318 Y2.4028 
G01 X-2.0323 Y2.4025 
G01 X-2.0297 Y2.4025 
G00 Z0.1000 
G00 X-1.4868 Y2.4809 
G01 Z-0.0070 F10.00 
G01 X-1.4879 Y2.4831 F20.00 
G01 X-1.4880 Y2.4826 
G01 X-1.4880 Y2.4818 
G01 X-1.4882 Y2.4810 
G01 X-1.4883 Y2.4802 
G01 X-1.4886 Y2.4794 
G01 X-1.4888 Y2.4789 
G01 X-1.4868 Y2.4809 
G00 Z0.1000 
G00 X-1.5375 Y2.3948 
G01 Z-0.0070 F10.00 
G01 X-1.5375 Y2.3880 F20.00 
G01 X-1.5341 Y2.3869 
G01 X-1.5308 Y2.3852 
G01 X-1.5313 Y2.3859 
G01 X-1.5319 Y2.3865 
G01 X-1.5323 Y2.3872 
G01 X-1.5328 Y2.3878 
G01 X-1.5331 Y2.3886 
G01 X-1.5336 Y2.3893 
G01 X-1.5338 Y2.3901 
G01 X-1.5341 Y2.3909 
G01 X-1.5342 Y2.3917 
G01 X-1.5344 Y2.3925 
G01 X-1.5344 Y2.3933 
G01 X-1.5345 Y2.3941 
G01 X-1.5344 Y2.3950 
G01 X-1.5344 Y2.3958 
G01 X-1.5342 Y2.3966 
G01 X-1.5341 Y2.3974 
G01 X-1.5338 Y2.3982 
G01 X-1.5336 Y2.3987 
G01 X-1.5375 Y2.3948 
G00 Z0.1000 
G00 X-1.9678 Y2.3875 
G01 Z-0.0070 F10.00 
G01 X-1.9678 Y2.3868 F20.00 
G01 X-1.9684 Y2.3838 
G01 X-1.9679 Y2.3843 
G01 X-1.9674 Y2.3849 
G01 X-1.9667 Y2.3854 
G01 X-1.9662 Y2.3860 
G01 X-1.9654 Y2.3864 
G01 X-1.9648 Y2.3869 
G01 X-1.9640 Y2.3872 
G01 X-1.9635 Y2.3875 
G01 X-1.9678 Y2.3875 
G00 Z0.1000 
G00 X-2.0297 Y2.3775 
G01 Z-0.0070 F10.00 
G01 X-2.0323 Y2.3775 F20.00 
G01 X-2.0318 Y2.3772 
G01 X-2.0311 Y2.3769 
G01 X-2.0304 Y2.3764 
G01 X-2.0297 Y2.3760 
G01 X-2.0291 Y2.3754 
G01 X-2.0287 Y2.3751 
G01 X-2.0297 Y2.3775 
G00 Z0.1000 
G00 X-2.4375 Y2.3775 
G01 Z-0.0070 F10.00 
G01 X-2.4375 Y2.3711 F20.00 
G01 X-2.4360 Y2.3737 
G01 X-2.4337 Y2.3760 
G01 X-2.4311 Y2.3775 
G01 X-2.4375 Y2.3775 
G00 Z0.1000 
G00 X-2.4375 Y1.4854 
G01 Z-0.0070 F10.00 
G01 X-2.4351 Y1.4844 F20.00 
G01 X-2.4354 Y1.4848 
G01 X-2.4360 Y1.4854 
G01 X-2.4364 Y1.4861 
G01 X-2.4369 Y1.4868 
G01 X-2.4372 Y1.4875 
G01 X-2.4375 Y1.4880 
G01 X-2.4375 Y1.4854 
G00 Z0.1000 
G00 X-1.5816 Y2.3755 
G01 Z-0.0070 F10.00 
G01 X-1.5770 Y2.3801 F20.00 
G01 X-1.5717 Y2.3839 
G01 X-1.5659 Y2.3869 
G01 X-1.5640 Y2.3875 
G01 X-1.5909 Y2.3875 
G01 X-1.5904 Y2.3872 
G01 X-1.5896 Y2.3869 
G01 X-1.5890 Y2.3864 
G01 X-1.5883 Y2.3860 
G01 X-1.5877 Y2.3854 
G01 X-1.5870 Y2.3849 
G01 X-1.5865 Y2.3842 
G01 X-1.5859 Y2.3837 
G01 X-1.5855 Y2.3830 
G01 X-1.5850 Y2.3823 
G01 X-1.5847 Y2.3815 
G01 X-1.5843 Y2.3808 
G01 X-1.5841 Y2.3800 
G01 X-1.5838 Y2.3793 
G01 X-1.5837 Y2.3784 
G01 X-1.5834 Y2.3776 
G01 X-1.5834 Y2.3768 
G01 X-1.5833 Y2.3760 
G01 X-1.5834 Y2.3752 
G01 X-1.5834 Y2.3744 
G01 X-1.5837 Y2.3736 
G01 X-1.5838 Y2.3727 
G01 X-1.5839 Y2.3723 
G01 X-1.5816 Y2.3755 
G00 Z0.1000 
G00 X-1.4691 Y2.4632 
G01 Z-0.0070 F10.00 
G01 X-1.4711 Y2.4612 F20.00 
G01 X-1.4706 Y2.4614 
G01 X-1.4698 Y2.4617 
G01 X-1.4690 Y2.4618 
G01 X-1.4682 Y2.4620 
G01 X-1.4674 Y2.4620 
G01 X-1.4669 Y2.4620 
G01 X-1.4691 Y2.4632 
G00 Z0.1000 
G00 X-1.5896 Y2.1641 
G01 Z-0.0070 F10.00 
G01 X-1.5888 Y2.1664 F20.00 
G01 X-1.5892 Y2.1662 
G01 X-1.5897 Y2.1656 
G01 X-1.5905 Y2.1651 
G01 X-1.5911 Y2.1646 
G01 X-1.5919 Y2.1643 
G01 X-1.5923 Y2.1641 
G01 X-1.5896 Y2.1641 
G00 Z0.1000 
G00 X-1.5132 Y2.1707 
G01 Z-0.0070 F10.00 
G01 X-1.5120 Y2.1685 F20.00 
G01 X-1.5120 Y2.1689 
G01 X-1.5120 Y2.1698 
G01 X-1.5118 Y2.1706 
G01 X-1.5117 Y2.1714 
G01 X-1.5114 Y2.1722 
G01 X-1.5112 Y2.1727 
G01 X-1.5132 Y2.1707 
G00 Z0.1000 
G00 X-1.3955 Y2.2597 
G01 Z-0.0070 F10.00 
G01 X-1.3935 Y2.2659 F20.00 
G01 X-1.3905 Y2.2717 
G01 X-1.3866 Y2.2770 
G01 X-1.3820 Y2.2816 
G01 X-1.3767 Y2.2855 
G01 X-1.3709 Y2.2885 
G01 X-1.3647 Y2.2905 
G01 X-1.3645 Y2.2905 
G01 X-1.3663 Y2.2905 
G01 X-1.3695 Y2.2913 
G01 X-1.3723 Y2.2930 
G01 X-1.3746 Y2.2953 
G01 X-1.3763 Y2.2982 
G01 X-1.3771 Y2.3013 
G01 X-1.3771 Y2.3046 
G01 X-1.3764 Y2.3075 
G01 X-1.4125 Y2.2714 
G01 X-1.4096 Y2.2721 
G01 X-1.4063 Y2.2721 
G01 X-1.4032 Y2.2713 
G01 X-1.4003 Y2.2696 
G01 X-1.3980 Y2.2673 
G01 X-1.3963 Y2.2645 
G01 X-1.3955 Y2.2613 
G01 X-1.3955 Y2.2595 
G01 X-1.3955 Y2.2597 
G00 Z0.1000 
G00 X-1.3918 Y2.2309 
G01 Z-0.0070 F10.00 
G01 X-1.3929 Y2.2331 F20.00 
G01 X-1.3930 Y2.2326 
G01 X-1.3930 Y2.2318 
G01 X-1.3932 Y2.2310 
G01 X-1.3933 Y2.2302 
G01 X-1.3936 Y2.2294 
G01 X-1.3938 Y2.2289 
G01 X-1.3918 Y2.2309 
G00 Z0.1000 
G00 X-1.4125 Y2.0122 
G01 Z-0.0070 F10.00 
G01 X-1.4125 Y2.0148 F20.00 
G01 X-1.4128 Y2.0143 
G01 X-1.4131 Y2.0135 
G01 X-1.4136 Y2.0129 
G01 X-1.4140 Y2.0122 
G01 X-1.4146 Y2.0116 
G01 X-1.4149 Y2.0112 
G01 X-1.4125 Y2.0122 
G00 Z0.1000 
G00 X-1.3125 Y2.0122 
G01 Z-0.0070 F10.00 
G01 X-1.3125 Y2.0148 F20.00 
G01 X-1.3128 Y2.0143 
G01 X-1.3131 Y2.0135 
G01 X-1.3136 Y2.0129 
G01 X-1.3140 Y2.0122 
G01 X-1.3146 Y2.0116 
G01 X-1.3149 Y2.0112 
G01 X-1.3125 Y2.0122 
G00 Z0.1000 
G00 X-2.4604 Y1.0125 
G01 Z-0.0070 F10.00 
G01 X-2.4576 Y1.0125 F20.00 
G01 X-2.4581 Y1.0128 
G01 X-2.4589 Y1.0131 
G01 X-2.4595 Y1.0136 
G01 X-2.4602 Y1.0140 
G01 X-2.4608 Y1.0146 
G01 X-2.4612 Y1.0149 
G01 X-2.4604 Y1.0125 
G00 Z0.1000 
G00 X-2.5065 Y1.0410 
G01 Z-0.0070 F10.00 
G01 X-2.5044 Y1.0413 F20.00 
G01 X-2.5045 Y1.0413 
G01 X-2.5048 Y1.0415 
G01 X-2.5052 Y1.0417 
G01 X-2.5062 Y1.0424 
G01 X-2.5073 Y1.0430 
G01 X-2.5076 Y1.0433 
G01 X-2.5065 Y1.0410 
G00 Z0.1000 
G00 X-2.5209 Y1.0761 
G01 Z-0.0070 F10.00 
G01 X-2.5230 Y1.0740 F20.00 
G01 X-2.5216 Y1.0711 
G01 X-2.5215 Y1.0721 
G01 X-2.5215 Y1.0734 
G01 X-2.5214 Y1.0737 
G01 X-2.5214 Y1.0741 
G01 X-2.5210 Y1.0753 
G01 X-2.5207 Y1.0764 
G01 X-2.5209 Y1.0761 
G00 Z0.1000 
G00 X-1.9854 Y1.2125 
G01 Z-0.0070 F10.00 
G01 X-1.9844 Y1.2149 F20.00 
G01 X-1.9848 Y1.2146 
G01 X-1.9854 Y1.2140 
G01 X-1.9861 Y1.2136 
G01 X-1.9868 Y1.2131 
G01 X-1.9875 Y1.2128 
G01 X-1.9880 Y1.2125 
G01 X-1.9854 Y1.2125 
G00 Z0.1000 
G00 X-2.5104 Y0.5125 
G01 Z-0.0070 F10.00 
G01 X-2.5076 Y0.5125 F20.00 
G01 X-2.5081 Y0.5128 
G01 X-2.5089 Y0.5131 
G01 X-2.5095 Y0.5136 
G01 X-2.5102 Y0.5140 
G01 X-2.5108 Y0.5146 
G01 X-2.5112 Y0.5149 
G01 X-2.5104 Y0.5125 
G00 Z0.1000 
G00 X-2.1368 Y0.7309 
G01 Z-0.0070 F10.00 
G01 X-2.1385 Y0.7341 F20.00 
G01 X-2.1405 Y0.7403 
G01 X-2.1415 Y0.7467 
G01 X-2.1415 Y0.7533 
G01 X-2.1405 Y0.7596 
G01 X-2.1411 Y0.7589 
G01 X-2.1437 Y0.7569 
G01 X-2.1467 Y0.7556 
G01 X-2.1500 Y0.7552 
G01 X-2.1530 Y0.7556 
G01 X-2.1533 Y0.7556 
G01 X-2.1563 Y0.7569 
G01 X-2.1589 Y0.7589 
G01 X-2.1595 Y0.7597 
G01 X-2.1585 Y0.7533 
G01 X-2.1585 Y0.7467 
G01 X-2.1595 Y0.7403 
G01 X-2.1615 Y0.7341 
G01 X-2.1645 Y0.7282 
G01 X-2.1683 Y0.7230 
G01 X-2.1730 Y0.7183 
G01 X-2.1782 Y0.7145 
G01 X-2.1841 Y0.7115 
G01 X-2.1847 Y0.7113 
G01 X-2.1843 Y0.7113 
G01 X-2.1835 Y0.7113 
G01 X-2.1827 Y0.7111 
G01 X-2.1819 Y0.7110 
G01 X-2.1811 Y0.7106 
G01 X-2.1803 Y0.7104 
G01 X-2.1796 Y0.7100 
G01 X-2.1788 Y0.7097 
G01 X-2.1782 Y0.7092 
G01 X-2.1775 Y0.7088 
G01 X-2.1769 Y0.7082 
G01 X-2.1762 Y0.7077 
G01 X-2.1757 Y0.7071 
G01 X-2.1751 Y0.7065 
G01 X-2.1747 Y0.7057 
G01 X-2.1742 Y0.7051 
G01 X-2.1739 Y0.7043 
G01 X-2.1735 Y0.7036 
G01 X-2.1733 Y0.7028 
G01 X-2.1730 Y0.7020 
G01 X-2.1729 Y0.7012 
G01 X-2.1726 Y0.7004 
G01 X-2.1726 Y0.6996 
G01 X-2.1725 Y0.6988 
G01 X-2.1726 Y0.6980 
G01 X-2.1726 Y0.6971 
G01 X-2.1729 Y0.6963 
G01 X-2.1730 Y0.6955 
G01 X-2.1733 Y0.6948 
G01 X-2.1734 Y0.6942 
G01 X-2.1368 Y0.7309 
G00 Z0.1000 
G00 X-2.2841 Y0.7885 
G01 Z-0.0070 F10.00 
G01 X-2.2782 Y0.7855 F20.00 
G01 X-2.2730 Y0.7816 
G01 X-2.2683 Y0.7770 
G01 X-2.2645 Y0.7717 
G01 X-2.2615 Y0.7659 
G01 X-2.2595 Y0.7597 
G01 X-2.2585 Y0.7533 
G01 X-2.2585 Y0.7467 
G01 X-2.2595 Y0.7403 
G01 X-2.2589 Y0.7411 
G01 X-2.2563 Y0.7431 
G01 X-2.2533 Y0.7444 
G01 X-2.2500 Y0.7448 
G01 X-2.2470 Y0.7444 
G01 X-2.2467 Y0.7444 
G01 X-2.2437 Y0.7431 
G01 X-2.2411 Y0.7411 
G01 X-2.2405 Y0.7404 
G01 X-2.2415 Y0.7467 
G01 X-2.2415 Y0.7533 
G01 X-2.2405 Y0.7597 
G01 X-2.2385 Y0.7659 
G01 X-2.2368 Y0.7691 
G01 X-2.2734 Y0.8058 
G01 X-2.2733 Y0.8052 
G01 X-2.2730 Y0.8045 
G01 X-2.2729 Y0.8036 
G01 X-2.2727 Y0.8029 
G01 X-2.2727 Y0.8020 
G01 X-2.2725 Y0.8012 
G01 X-2.2727 Y0.8004 
G01 X-2.2727 Y0.7996 
G01 X-2.2729 Y0.7988 
G01 X-2.2730 Y0.7979 
G01 X-2.2733 Y0.7972 
G01 X-2.2735 Y0.7964 
G01 X-2.2739 Y0.7957 
G01 X-2.2742 Y0.7949 
G01 X-2.2747 Y0.7942 
G01 X-2.2751 Y0.7935 
G01 X-2.2757 Y0.7930 
G01 X-2.2762 Y0.7923 
G01 X-2.2769 Y0.7918 
G01 X-2.2775 Y0.7912 
G01 X-2.2782 Y0.7908 
G01 X-2.2789 Y0.7903 
G01 X-2.2796 Y0.7900 
G01 X-2.2803 Y0.7896 
G01 X-2.2811 Y0.7894 
G01 X-2.2819 Y0.7890 
G01 X-2.2827 Y0.7889 
G01 X-2.2835 Y0.7887 
G01 X-2.2843 Y0.7887 
G01 X-2.2847 Y0.7887 
G01 X-2.2841 Y0.7885 
G00 Z0.1000 
G00 X-2.3191 Y0.7132 
G01 Z-0.0070 F10.00 
G01 X-2.3211 Y0.7112 F20.00 
G01 X-2.3206 Y0.7114 
G01 X-2.3198 Y0.7117 
G01 X-2.3190 Y0.7118 
G01 X-2.3182 Y0.7120 
G01 X-2.3174 Y0.7120 
G01 X-2.3169 Y0.7121 
G01 X-2.3191 Y0.7132 
G00 Z0.1000 
G00 X-2.5467 Y0.5585 
G01 Z-0.0070 F10.00 
G01 X-2.5533 Y0.5585 F20.00 
G01 X-2.5597 Y0.5595 
G01 X-2.5589 Y0.5589 
G01 X-2.5569 Y0.5563 
G01 X-2.5556 Y0.5533 
G01 X-2.5552 Y0.5500 
G01 X-2.5556 Y0.5470 
G01 X-2.5556 Y0.5467 
G01 X-2.5569 Y0.5437 
G01 X-2.5589 Y0.5411 
G01 X-2.5596 Y0.5405 
G01 X-2.5533 Y0.5415 
G01 X-2.5467 Y0.5415 
G01 X-2.5404 Y0.5405 
G01 X-2.5411 Y0.5411 
G01 X-2.5431 Y0.5437 
G01 X-2.5444 Y0.5467 
G01 X-2.5448 Y0.5500 
G01 X-2.5444 Y0.5530 
G01 X-2.5444 Y0.5533 
G01 X-2.5431 Y0.5563 
G01 X-2.5411 Y0.5589 
G01 X-2.5403 Y0.5595 
G01 X-2.5467 Y0.5585 
G00 Z0.1000 
G00 X-2.5104 Y0.5875 
G01 Z-0.0070 F10.00 
G01 X-2.5112 Y0.5851 F20.00 
G01 X-2.5108 Y0.5854 
G01 X-2.5102 Y0.5860 
G01 X-2.5095 Y0.5864 
G01 X-2.5089 Y0.5869 
G01 X-2.5081 Y0.5872 
G01 X-2.5076 Y0.5875 
G01 X-2.5104 Y0.5875 
G00 Z0.1000 
G00 X-2.4415 Y0.7493 
G01 Z-0.0070 F10.00 
G01 X-2.4415 Y0.7525 F20.00 
G01 X-2.4420 Y0.7517 
G01 X-2.4426 Y0.7506 
G01 X-2.4428 Y0.7503 
G01 X-2.4430 Y0.7499 
G01 X-2.4439 Y0.7490 
G01 X-2.4445 Y0.7483 
G01 X-2.4415 Y0.7493 
G00 Z0.1000 
G00 X-1.6809 Y0.1868 
G01 Z-0.0070 F10.00 
G01 X-1.6789 Y0.1888 F20.00 
G01 X-1.6794 Y0.1886 
G01 X-1.6802 Y0.1883 
G01 X-1.6810 Y0.1882 
G01 X-1.6818 Y0.1880 
G01 X-1.6826 Y0.1880 
G01 X-1.6831 Y0.1879 
G01 X-1.6809 Y0.1868 
G00 Z0.1000 
G00 X-2.3585 Y0.1533 
G01 Z-0.0070 F10.00 
G01 X-2.3585 Y0.1467 F20.00 
G01 X-2.3595 Y0.1403 
G01 X-2.3589 Y0.1411 
G01 X-2.3563 Y0.1431 
G01 X-2.3551 Y0.1436 
G01 X-2.3533 Y0.1444 
G01 X-2.3500 Y0.1448 
G01 X-2.3496 Y0.1448 
G01 X-2.3467 Y0.1444 
G01 X-2.3437 Y0.1431 
G01 X-2.3431 Y0.1426 
G01 X-2.3411 Y0.1411 
G01 X-2.3405 Y0.1403 
G01 X-2.3415 Y0.1467 
G01 X-2.3415 Y0.1533 
G01 X-2.3405 Y0.1596 
G01 X-2.3411 Y0.1589 
G01 X-2.3431 Y0.1573 
G01 X-2.3437 Y0.1569 
G01 X-2.3467 Y0.1556 
G01 X-2.3495 Y0.1552 
G01 X-2.3500 Y0.1552 
G01 X-2.3533 Y0.1556 
G01 X-2.3550 Y0.1563 
G01 X-2.3563 Y0.1569 
G01 X-2.3589 Y0.1589 
G01 X-2.3595 Y0.1596 
G01 X-2.3585 Y0.1533 
G00 Z0.1000 
G00 X-2.3180 Y0.1874 
G01 Z-0.0070 F10.00 
G01 X-2.3185 Y0.1910 F20.00 
G01 X-2.3187 Y0.1904 
G01 X-2.3189 Y0.1895 
G01 X-2.3193 Y0.1889 
G01 X-2.3196 Y0.1882 
G01 X-2.3201 Y0.1875 
G01 X-2.3206 Y0.1867 
G01 X-2.3211 Y0.1862 
G01 X-2.3215 Y0.1856 
G01 X-2.3180 Y0.1874 
G00 Z0.1000 
G00 X-2.5104 Y0.4875 
G01 Z-0.0070 F10.00 
G01 X-2.5112 Y0.4851 F20.00 
G01 X-2.5108 Y0.4854 
G01 X-2.5102 Y0.4860 
G01 X-2.5095 Y0.4864 
G01 X-2.5089 Y0.4869 
G01 X-2.5081 Y0.4872 
G01 X-2.5076 Y0.4875 
G01 X-2.5104 Y0.4875 
G00 Z0.1000 
G00 X-2.5467 Y0.2585 
G01 Z-0.0070 F10.00 
G01 X-2.5533 Y0.2585 F20.00 
G01 X-2.5597 Y0.2595 
G01 X-2.5589 Y0.2589 
G01 X-2.5569 Y0.2563 
G01 X-2.5556 Y0.2533 
G01 X-2.5552 Y0.2500 
G01 X-2.5556 Y0.2470 
G01 X-2.5556 Y0.2467 
G01 X-2.5569 Y0.2437 
G01 X-2.5589 Y0.2411 
G01 X-2.5596 Y0.2405 
G01 X-2.5533 Y0.2415 
G01 X-2.5467 Y0.2415 
G01 X-2.5404 Y0.2405 
G01 X-2.5411 Y0.2411 
G01 X-2.5431 Y0.2437 
G01 X-2.5444 Y0.2467 
G01 X-2.5448 Y0.2500 
G01 X-2.5444 Y0.2530 
G01 X-2.5444 Y0.2533 
G01 X-2.5431 Y0.2563 
G01 X-2.5411 Y0.2589 
G01 X-2.5403 Y0.2595 
G01 X-2.5467 Y0.2585 
G00 Z0.1000 
G00 X-2.5659 Y0.1615 
G01 Z-0.0070 F10.00 
G01 X-2.5717 Y0.1645 F20.00 
G01 X-2.5770 Y0.1683 
G01 X-2.5816 Y0.1730 
G01 X-2.5855 Y0.1782 
G01 X-2.5885 Y0.1841 
G01 X-2.5887 Y0.1847 
G01 X-2.5887 Y0.1843 
G01 X-2.5887 Y0.1835 
G01 X-2.5889 Y0.1827 
G01 X-2.5890 Y0.1819 
G01 X-2.5893 Y0.1811 
G01 X-2.5896 Y0.1803 
G01 X-2.5900 Y0.1796 
G01 X-2.5903 Y0.1788 
G01 X-2.5908 Y0.1782 
G01 X-2.5912 Y0.1775 
G01 X-2.5918 Y0.1769 
G01 X-2.5923 Y0.1762 
G01 X-2.5929 Y0.1757 
G01 X-2.5935 Y0.1751 
G01 X-2.5943 Y0.1747 
G01 X-2.5949 Y0.1742 
G01 X-2.5957 Y0.1739 
G01 X-2.5964 Y0.1735 
G01 X-2.5972 Y0.1733 
G01 X-2.5979 Y0.1730 
G01 X-2.5988 Y0.1729 
G01 X-2.5996 Y0.1726 
G01 X-2.6004 Y0.1726 
G01 X-2.6012 Y0.1725 
G01 X-2.6020 Y0.1726 
G01 X-2.6029 Y0.1726 
G01 X-2.6037 Y0.1729 
G01 X-2.6045 Y0.1730 
G01 X-2.6052 Y0.1733 
G01 X-2.6058 Y0.1734 
G01 X-2.5766 Y0.1442 
G01 X-2.5767 Y0.1448 
G01 X-2.5770 Y0.1455 
G01 X-2.5771 Y0.1463 
G01 X-2.5773 Y0.1471 
G01 X-2.5773 Y0.1480 
G01 X-2.5774 Y0.1488 
G01 X-2.5773 Y0.1496 
G01 X-2.5773 Y0.1504 
G01 X-2.5771 Y0.1512 
G01 X-2.5770 Y0.1520 
G01 X-2.5767 Y0.1528 
G01 X-2.5765 Y0.1536 
G01 X-2.5761 Y0.1543 
G01 X-2.5758 Y0.1551 
G01 X-2.5753 Y0.1557 
G01 X-2.5748 Y0.1565 
G01 X-2.5742 Y0.1571 
G01 X-2.5738 Y0.1577 
G01 X-2.5731 Y0.1582 
G01 X-2.5725 Y0.1588 
G01 X-2.5718 Y0.1592 
G01 X-2.5711 Y0.1597 
G01 X-2.5704 Y0.1600 
G01 X-2.5697 Y0.1604 
G01 X-2.5689 Y0.1606 
G01 X-2.5681 Y0.1610 
G01 X-2.5673 Y0.1611 
G01 X-2.5665 Y0.1613 
G01 X-2.5656 Y0.1613 
G01 X-2.5653 Y0.1613 
G01 X-2.5659 Y0.1615 
G00 Z0.1000 
G00 X-2.5885 Y0.3159 
G01 Z-0.0070 F10.00 
G01 X-2.5855 Y0.3217 F20.00 
G01 X-2.5816 Y0.3270 
G01 X-2.5770 Y0.3316 
G01 X-2.5717 Y0.3355 
G01 X-2.5659 Y0.3385 
G01 X-2.5597 Y0.3405 
G01 X-2.5533 Y0.3415 
G01 X-2.5467 Y0.3415 
G01 X-2.5404 Y0.3405 
G01 X-2.5411 Y0.3411 
G01 X-2.5431 Y0.3437 
G01 X-2.5444 Y0.3467 
G01 X-2.5448 Y0.3500 
G01 X-2.5444 Y0.3530 
G01 X-2.5444 Y0.3533 
G01 X-2.5431 Y0.3563 
G01 X-2.5411 Y0.3589 
G01 X-2.5403 Y0.3595 
G01 X-2.5467 Y0.3585 
G01 X-2.5533 Y0.3585 
G01 X-2.5597 Y0.3595 
G01 X-2.5659 Y0.3615 
G01 X-2.5691 Y0.3632 
G01 X-2.6058 Y0.3266 
G01 X-2.6052 Y0.3267 
G01 X-2.6045 Y0.3270 
G01 X-2.6036 Y0.3271 
G01 X-2.6029 Y0.3273 
G01 X-2.6020 Y0.3273 
G01 X-2.6012 Y0.3274 
G01 X-2.6004 Y0.3273 
G01 X-2.5996 Y0.3273 
G01 X-2.5988 Y0.3271 
G01 X-2.5979 Y0.3270 
G01 X-2.5972 Y0.3267 
G01 X-2.5964 Y0.3265 
G01 X-2.5957 Y0.3261 
G01 X-2.5949 Y0.3258 
G01 X-2.5942 Y0.3253 
G01 X-2.5935 Y0.3248 
G01 X-2.5930 Y0.3243 
G01 X-2.5923 Y0.3238 
G01 X-2.5918 Y0.3231 
G01 X-2.5912 Y0.3225 
G01 X-2.5908 Y0.3218 
G01 X-2.5903 Y0.3211 
G01 X-2.5900 Y0.3204 
G01 X-2.5896 Y0.3197 
G01 X-2.5893 Y0.3189 
G01 X-2.5890 Y0.3181 
G01 X-2.5889 Y0.3173 
G01 X-2.5887 Y0.3165 
G01 X-2.5887 Y0.3156 
G01 X-2.5887 Y0.3153 
G01 X-2.5885 Y0.3159 
G00 Z0.1000 
G00 X-2.5467 Y0.4585 
G01 Z-0.0070 F10.00 
G01 X-2.5533 Y0.4585 F20.00 
G01 X-2.5597 Y0.4595 
G01 X-2.5589 Y0.4589 
G01 X-2.5569 Y0.4563 
G01 X-2.5556 Y0.4533 
G01 X-2.5552 Y0.4500 
G01 X-2.5556 Y0.4470 
G01 X-2.5556 Y0.4467 
G01 X-2.5569 Y0.4437 
G01 X-2.5589 Y0.4411 
G01 X-2.5596 Y0.4405 
G01 X-2.5533 Y0.4415 
G01 X-2.5467 Y0.4415 
G01 X-2.5404 Y0.4405 
G01 X-2.5411 Y0.4411 
G01 X-2.5431 Y0.4437 
G01 X-2.5444 Y0.4467 
G01 X-2.5448 Y0.4500 
G01 X-2.5444 Y0.4530 
G01 X-2.5444 Y0.4533 
G01 X-2.5431 Y0.4563 
G01 X-2.5411 Y0.4589 
G01 X-2.5403 Y0.4595 
G01 X-2.5467 Y0.4585 
G00 Z0.1000 
G00 X-2.3608 Y0.4875 
G01 Z-0.0070 F10.00 
G01 X-2.3657 Y0.4875 F20.00 
G01 X-2.3653 Y0.4873 
G01 X-2.3646 Y0.4870 
G01 X-2.3639 Y0.4864 
G01 X-2.3631 Y0.4860 
G01 X-2.3626 Y0.4855 
G01 X-2.3620 Y0.4850 
G01 X-2.3614 Y0.4843 
G01 X-2.3608 Y0.4837 
G01 X-2.3604 Y0.4830 
G01 X-2.3601 Y0.4826 
G01 X-2.3608 Y0.4875 
G00 Z0.1000 
G00 X-2.3681 Y0.1005 
G01 Z-0.0070 F10.00 
G01 X-2.3707 Y0.1020 F20.00 
G01 X-2.3731 Y0.1043 
G01 X-2.3747 Y0.1072 
G01 X-2.3755 Y0.1103 
G01 X-2.3755 Y0.1136 
G01 X-2.3753 Y0.1145 
G01 X-2.3747 Y0.1168 
G01 X-2.3744 Y0.1173 
G01 X-2.3782 Y0.1145 
G01 X-2.3841 Y0.1115 
G01 X-2.3903 Y0.1095 
G01 X-2.3967 Y0.1085 
G01 X-2.4033 Y0.1085 
G01 X-2.4097 Y0.1095 
G01 X-2.4159 Y0.1115 
G01 X-2.4217 Y0.1145 
G01 X-2.4256 Y0.1173 
G01 X-2.4253 Y0.1168 
G01 X-2.4246 Y0.1143 
G01 X-2.4244 Y0.1136 
G01 X-2.4244 Y0.1103 
G01 X-2.4253 Y0.1072 
G01 X-2.4269 Y0.1043 
G01 X-2.4293 Y0.1020 
G01 X-2.4319 Y0.1005 
G01 X-2.3681 Y0.1005 
G00 Z0.1000 
G00 X-2.5625 Y2.1146 
G01 Z-0.0070 F10.00 
G01 X-2.5649 Y2.1156 F20.00 
G01 X-2.5646 Y2.1152 
G01 X-2.5640 Y2.1146 
G01 X-2.5636 Y2.1139 
G01 X-2.5631 Y2.1132 
G01 X-2.5628 Y2.1124 
G01 X-2.5625 Y2.1120 
G01 X-2.5625 Y2.1146 
G00 Z0.1000 
G00 X-2.5896 Y0.5125 
G01 Z-0.0070 F10.00 
G01 X-2.5888 Y0.5149 F20.00 
G01 X-2.5892 Y0.5146 
G01 X-2.5897 Y0.5140 
G01 X-2.5905 Y0.5136 
G01 X-2.5911 Y0.5131 
G01 X-2.5919 Y0.5128 
G01 X-2.5923 Y0.5125 
G01 X-2.5896 Y0.5125 
G00 Z0.1000 
G00 X-2.9104 Y0.5125 
G01 Z-0.0070 F10.00 
G01 X-2.9076 Y0.5125 F20.00 
G01 X-2.9081 Y0.5128 
G01 X-2.9089 Y0.5131 
G01 X-2.9095 Y0.5136 
G01 X-2.9102 Y0.5140 
G01 X-2.9108 Y0.5146 
G01 X-2.9112 Y0.5149 
G01 X-2.9104 Y0.5125 
G00 Z0.1000 
G00 X-2.9132 Y0.6191 
G01 Z-0.0070 F10.00 
G01 X-2.9120 Y0.6169 F20.00 
G01 X-2.9120 Y0.6174 
G01 X-2.9120 Y0.6182 
G01 X-2.9118 Y0.6190 
G01 X-2.9117 Y0.6198 
G01 X-2.9114 Y0.6206 
G01 X-2.9112 Y0.6211 
G01 X-2.9132 Y0.6191 
G00 Z0.1000 
G00 X-2.5375 Y2.1146 
G01 Z-0.0070 F10.00 
G01 X-2.5375 Y2.1120 F20.00 
G01 X-2.5372 Y2.1124 
G01 X-2.5369 Y2.1132 
G01 X-2.5364 Y2.1139 
G01 X-2.5360 Y2.1146 
G01 X-2.5354 Y2.1152 
G01 X-2.5351 Y2.1156 
G01 X-2.5375 Y2.1146 
G00 Z0.1000 
G00 X-2.9104 Y0.4125 
G01 Z-0.0070 F10.00 
G01 X-2.9076 Y0.4125 F20.00 
G01 X-2.9081 Y0.4128 
G01 X-2.9089 Y0.4131 
G01 X-2.9095 Y0.4136 
G01 X-2.9102 Y0.4140 
G01 X-2.9108 Y0.4146 
G01 X-2.9112 Y0.4149 
G01 X-2.9104 Y0.4125 
G00 Z0.1000 
G00 X-2.7354 Y0.3875 
G01 Z-0.0070 F10.00 
G01 X-2.7380 Y0.3875 F20.00 
G01 X-2.7375 Y0.3872 
G01 X-2.7368 Y0.3869 
G01 X-2.7361 Y0.3864 
G01 X-2.7354 Y0.3860 
G01 X-2.7348 Y0.3854 
G01 X-2.7344 Y0.3851 
G01 X-2.7354 Y0.3875 
G00 Z0.1000 
G00 X-2.9104 Y0.3875 
G01 Z-0.0070 F10.00 
G01 X-2.9112 Y0.3851 F20.00 
G01 X-2.9108 Y0.3854 
G01 X-2.9102 Y0.3860 
G01 X-2.9095 Y0.3864 
G01 X-2.9089 Y0.3869 
G01 X-2.9081 Y0.3872 
G01 X-2.9076 Y0.3875 
G01 X-2.9104 Y0.3875 
G00 Z0.1000 
G00 X-2.7354 Y0.4125 
G01 Z-0.0070 F10.00 
G01 X-2.7344 Y0.4149 F20.00 
G01 X-2.7348 Y0.4146 
G01 X-2.7354 Y0.4140 
G01 X-2.7361 Y0.4136 
G01 X-2.7368 Y0.4131 
G01 X-2.7375 Y0.4128 
G01 X-2.7380 Y0.4125 
G01 X-2.7354 Y0.4125 
G00 Z0.1000 
G00 X-2.9533 Y0.2415 
G01 Z-0.0070 F10.00 
G01 X-2.9467 Y0.2415 F20.00 
G01 X-2.9403 Y0.2405 
G01 X-2.9411 Y0.2411 
G01 X-2.9427 Y0.2431 
G01 X-2.9431 Y0.2437 
G01 X-2.9444 Y0.2467 
G01 X-2.9448 Y0.2495 
G01 X-2.9448 Y0.2500 
G01 X-2.9444 Y0.2533 
G01 X-2.9437 Y0.2550 
G01 X-2.9431 Y0.2563 
G01 X-2.9411 Y0.2589 
G01 X-2.9403 Y0.2595 
G01 X-2.9467 Y0.2585 
G01 X-2.9533 Y0.2585 
G01 X-2.9596 Y0.2595 
G01 X-2.9589 Y0.2589 
G01 X-2.9569 Y0.2563 
G01 X-2.9563 Y0.2551 
G01 X-2.9556 Y0.2533 
G01 X-2.9552 Y0.2500 
G01 X-2.9552 Y0.2496 
G01 X-2.9556 Y0.2467 
G01 X-2.9569 Y0.2437 
G01 X-2.9574 Y0.2431 
G01 X-2.9589 Y0.2411 
G01 X-2.9596 Y0.2405 
G01 X-2.9533 Y0.2415 
G00 Z0.1000 
G00 X-2.9533 Y0.3415 
G01 Z-0.0070 F10.00 
G01 X-2.9467 Y0.3415 F20.00 
G01 X-2.9403 Y0.3405 
G01 X-2.9411 Y0.3411 
G01 X-2.9427 Y0.3431 
G01 X-2.9431 Y0.3437 
G01 X-2.9444 Y0.3467 
G01 X-2.9448 Y0.3495 
G01 X-2.9448 Y0.3500 
G01 X-2.9444 Y0.3533 
G01 X-2.9437 Y0.3550 
G01 X-2.9431 Y0.3563 
G01 X-2.9411 Y0.3589 
G01 X-2.9403 Y0.3595 
G01 X-2.9467 Y0.3585 
G01 X-2.9533 Y0.3585 
G01 X-2.9596 Y0.3595 
G01 X-2.9589 Y0.3589 
G01 X-2.9569 Y0.3563 
G01 X-2.9563 Y0.3551 
G01 X-2.9556 Y0.3533 
G01 X-2.9552 Y0.3500 
G01 X-2.9552 Y0.3496 
G01 X-2.9556 Y0.3467 
G01 X-2.9569 Y0.3437 
G01 X-2.9574 Y0.3431 
G01 X-2.9589 Y0.3411 
G01 X-2.9596 Y0.3405 
G01 X-2.9533 Y0.3415 
G00 Z0.1000 
G00 X-2.9533 Y0.5415 
G01 Z-0.0070 F10.00 
G01 X-2.9467 Y0.5415 F20.00 
G01 X-2.9403 Y0.5405 
G01 X-2.9411 Y0.5411 
G01 X-2.9427 Y0.5431 
G01 X-2.9431 Y0.5437 
G01 X-2.9444 Y0.5467 
G01 X-2.9448 Y0.5495 
G01 X-2.9448 Y0.5500 
G01 X-2.9444 Y0.5533 
G01 X-2.9437 Y0.5550 
G01 X-2.9431 Y0.5563 
G01 X-2.9411 Y0.5589 
G01 X-2.9403 Y0.5595 
G01 X-2.9467 Y0.5585 
G01 X-2.9533 Y0.5585 
G01 X-2.9596 Y0.5595 
G01 X-2.9589 Y0.5589 
G01 X-2.9569 Y0.5563 
G01 X-2.9563 Y0.5551 
G01 X-2.9556 Y0.5533 
G01 X-2.9552 Y0.5500 
G01 X-2.9552 Y0.5496 
G01 X-2.9556 Y0.5467 
G01 X-2.9569 Y0.5437 
G01 X-2.9574 Y0.5431 
G01 X-2.9589 Y0.5411 
G01 X-2.9596 Y0.5405 
G01 X-2.9533 Y0.5415 
G00 Z0.1000 
G00 X-3.0375 Y0.5604 
G01 Z-0.0070 F10.00 
G01 X-3.0375 Y0.5576 F20.00 
G01 X-3.0372 Y0.5581 
G01 X-3.0369 Y0.5589 
G01 X-3.0364 Y0.5595 
G01 X-3.0360 Y0.5602 
G01 X-3.0354 Y0.5608 
G01 X-3.0351 Y0.5612 
G01 X-3.0375 Y0.5604 
G00 Z0.1000 
G00 X-3.0919 Y0.5148 
G01 Z-0.0070 F10.00 
G01 X-3.0899 Y0.5168 F20.00 
G01 X-3.0904 Y0.5166 
G01 X-3.0912 Y0.5163 
G01 X-3.0920 Y0.5162 
G01 X-3.0928 Y0.5160 
G01 X-3.0936 Y0.5160 
G01 X-3.0941 Y0.5159 
G01 X-3.0919 Y0.5148 
G00 Z0.1000 
G00 X-3.0625 Y0.5604 
G01 Z-0.0070 F10.00 
G01 X-3.0649 Y0.5612 F20.00 
G01 X-3.0646 Y0.5608 
G01 X-3.0640 Y0.5602 
G01 X-3.0636 Y0.5595 
G01 X-3.0631 Y0.5589 
G01 X-3.0628 Y0.5581 
G01 X-3.0625 Y0.5576 
G01 X-3.0625 Y0.5604 
G00 Z0.1000 
G00 X-3.3234 Y0.6558 
G01 Z-0.0070 F10.00 
G01 X-3.3233 Y0.6552 F20.00 
G01 X-3.3230 Y0.6545 
G01 X-3.3229 Y0.6537 
G01 X-3.3226 Y0.6529 
G01 X-3.3226 Y0.6520 
G01 X-3.3225 Y0.6512 
G01 X-3.3226 Y0.6504 
G01 X-3.3226 Y0.6496 
G01 X-3.3229 Y0.6488 
G01 X-3.3230 Y0.6479 
G01 X-3.3233 Y0.6472 
G01 X-3.3235 Y0.6464 
G01 X-3.3239 Y0.6457 
G01 X-3.3242 Y0.6449 
G01 X-3.3247 Y0.6443 
G01 X-3.3251 Y0.6435 
G01 X-3.3257 Y0.6429 
G01 X-3.3262 Y0.6423 
G01 X-3.3269 Y0.6418 
G01 X-3.3275 Y0.6412 
G01 X-3.3282 Y0.6408 
G01 X-3.3288 Y0.6403 
G01 X-3.3296 Y0.6400 
G01 X-3.3303 Y0.6396 
G01 X-3.3311 Y0.6393 
G01 X-3.3319 Y0.6390 
G01 X-3.3327 Y0.6389 
G01 X-3.3335 Y0.6387 
G01 X-3.3343 Y0.6387 
G01 X-3.3347 Y0.6387 
G01 X-3.3341 Y0.6385 
G01 X-3.3282 Y0.6355 
G01 X-3.3230 Y0.6316 
G01 X-3.3183 Y0.6270 
G01 X-3.3145 Y0.6217 
G01 X-3.3115 Y0.6159 
G01 X-3.3113 Y0.6153 
G01 X-3.3113 Y0.6156 
G01 X-3.3113 Y0.6165 
G01 X-3.3111 Y0.6173 
G01 X-3.3110 Y0.6181 
G01 X-3.3106 Y0.6189 
G01 X-3.3104 Y0.6197 
G01 X-3.3100 Y0.6204 
G01 X-3.3097 Y0.6211 
G01 X-3.3092 Y0.6218 
G01 X-3.3088 Y0.6225 
G01 X-3.3082 Y0.6231 
G01 X-3.3077 Y0.6238 
G01 X-3.3071 Y0.6242 
G01 X-3.3065 Y0.6248 
G01 X-3.3057 Y0.6253 
G01 X-3.3051 Y0.6258 
G01 X-3.3043 Y0.6261 
G01 X-3.3036 Y0.6265 
G01 X-3.3028 Y0.6267 
G01 X-3.3020 Y0.6270 
G01 X-3.3012 Y0.6271 
G01 X-3.3004 Y0.6273 
G01 X-3.2996 Y0.6273 
G01 X-3.2988 Y0.6274 
G01 X-3.2980 Y0.6273 
G01 X-3.2971 Y0.6273 
G01 X-3.2963 Y0.6271 
G01 X-3.2955 Y0.6270 
G01 X-3.2948 Y0.6267 
G01 X-3.2942 Y0.6266 
G01 X-3.3234 Y0.6558 
G00 Z0.1000 
G00 X-3.3258 Y0.4971 
G01 Z-0.0070 F10.00 
G01 X-3.3278 Y0.4991 F20.00 
G01 X-3.3276 Y0.4986 
G01 X-3.3273 Y0.4978 
G01 X-3.3272 Y0.4970 
G01 X-3.3270 Y0.4962 
G01 X-3.3270 Y0.4954 
G01 X-3.3269 Y0.4949 
G01 X-3.3258 Y0.4971 
G00 Z0.1000 
G00 X-3.4203 Y0.5195 
G01 Z-0.0070 F10.00 
G01 X-3.4205 Y0.5183 F20.00 
G01 X-3.4209 Y0.5172 
G01 X-3.4205 Y0.5177 
G01 X-3.4203 Y0.5178 
G01 X-3.4202 Y0.5180 
G01 X-3.4190 Y0.5188 
G01 X-3.4179 Y0.5197 
G01 X-3.4203 Y0.5195 
G00 Z0.1000 
G00 X-3.3547 Y0.5260 
G01 Z-0.0070 F10.00 
G01 X-3.3550 Y0.5259 F20.00 
G01 X-3.3547 Y0.5258 
G01 X-3.3544 Y0.5257 
G01 X-3.3547 Y0.5260 
G00 Z0.1000 
G00 X-3.3081 Y0.5148 
G01 Z-0.0070 F10.00 
G01 X-3.3059 Y0.5159 F20.00 
G01 X-3.3064 Y0.5160 
G01 X-3.3072 Y0.5160 
G01 X-3.3080 Y0.5162 
G01 X-3.3088 Y0.5163 
G01 X-3.3096 Y0.5166 
G01 X-3.3101 Y0.5168 
G01 X-3.3081 Y0.5148 
G00 Z0.1000 
G00 X-3.3375 Y0.5604 
G01 Z-0.0070 F10.00 
G01 X-3.3375 Y0.5576 F20.00 
G01 X-3.3372 Y0.5581 
G01 X-3.3369 Y0.5589 
G01 X-3.3364 Y0.5595 
G01 X-3.3360 Y0.5602 
G01 X-3.3354 Y0.5608 
G01 X-3.3351 Y0.5612 
G01 X-3.3375 Y0.5604 
G00 Z0.1000 
G00 X-3.0896 Y0.5875 
G01 Z-0.0070 F10.00 
G01 X-3.0923 Y0.5875 F20.00 
G01 X-3.0919 Y0.5872 
G01 X-3.0911 Y0.5869 
G01 X-3.0905 Y0.5864 
G01 X-3.0897 Y0.5860 
G01 X-3.0892 Y0.5854 
G01 X-3.0888 Y0.5851 
G01 X-3.0896 Y0.5875 
G00 Z0.1000 
G00 X-3.0742 Y0.4971 
G01 Z-0.0070 F10.00 
G01 X-3.0731 Y0.4949 F20.00 
G01 X-3.0730 Y0.4954 
G01 X-3.0730 Y0.4962 
G01 X-3.0728 Y0.4970 
G01 X-3.0727 Y0.4978 
G01 X-3.0724 Y0.4986 
G01 X-3.0722 Y0.4991 
G01 X-3.0742 Y0.4971 
G00 Z0.1000 
G00 X-2.9915 Y0.5967 
G01 Z-0.0070 F10.00 
G01 X-2.9915 Y0.6033 F20.00 
G01 X-2.9905 Y0.6096 
G01 X-2.9911 Y0.6089 
G01 X-2.9937 Y0.6069 
G01 X-2.9949 Y0.6063 
G01 X-2.9967 Y0.6056 
G01 X-3.0000 Y0.6052 
G01 X-3.0004 Y0.6052 
G01 X-3.0033 Y0.6056 
G01 X-3.0063 Y0.6069 
G01 X-3.0069 Y0.6074 
G01 X-3.0089 Y0.6089 
G01 X-3.0095 Y0.6096 
G01 X-3.0085 Y0.6033 
G01 X-3.0085 Y0.5967 
G01 X-3.0095 Y0.5903 
G01 X-3.0089 Y0.5911 
G01 X-3.0069 Y0.5927 
G01 X-3.0063 Y0.5931 
G01 X-3.0033 Y0.5944 
G01 X-3.0005 Y0.5948 
G01 X-3.0000 Y0.5948 
G01 X-2.9967 Y0.5944 
G01 X-2.9950 Y0.5937 
G01 X-2.9937 Y0.5931 
G01 X-2.9911 Y0.5911 
G01 X-2.9905 Y0.5904 
G01 X-2.9915 Y0.5967 
G00 Z0.1000 
G00 X-2.9533 Y0.4415 
G01 Z-0.0070 F10.00 
G01 X-2.9467 Y0.4415 F20.00 
G01 X-2.9404 Y0.4405 
G01 X-2.9411 Y0.4411 
G01 X-2.9427 Y0.4431 
G01 X-2.9431 Y0.4437 
G01 X-2.9444 Y0.4467 
G01 X-2.9448 Y0.4495 
G01 X-2.9448 Y0.4500 
G01 X-2.9444 Y0.4533 
G01 X-2.9437 Y0.4550 
G01 X-2.9431 Y0.4563 
G01 X-2.9411 Y0.4589 
G01 X-2.9403 Y0.4595 
G01 X-2.9467 Y0.4585 
G01 X-2.9533 Y0.4585 
G01 X-2.9596 Y0.4595 
G01 X-2.9589 Y0.4589 
G01 X-2.9569 Y0.4563 
G01 X-2.9563 Y0.4551 
G01 X-2.9556 Y0.4533 
G01 X-2.9552 Y0.4500 
G01 X-2.9552 Y0.4496 
G01 X-2.9556 Y0.4467 
G01 X-2.9569 Y0.4437 
G01 X-2.9574 Y0.4431 
G01 X-2.9589 Y0.4411 
G01 X-2.9596 Y0.4405 
G01 X-2.9533 Y0.4415 
G00 Z0.1000 
G00 X-3.4228 Y0.5443 
G01 Z-0.0070 F10.00 
G01 X-3.4194 Y0.5447 F20.00 
G01 X-3.4205 Y0.5452 
G01 X-3.4218 Y0.5457 
G01 X-3.4220 Y0.5458 
G01 X-3.4221 Y0.5459 
G01 X-3.4233 Y0.5469 
G01 X-3.4244 Y0.5477 
G01 X-3.4245 Y0.5479 
G01 X-3.4228 Y0.5443 
G00 Z0.1000 
G00 X-3.5104 Y0.7125 
G01 Z-0.0070 F10.00 
G01 X-3.5077 Y0.7125 F20.00 
G01 X-3.5081 Y0.7128 
G01 X-3.5089 Y0.7131 
G01 X-3.5095 Y0.7136 
G01 X-3.5102 Y0.7140 
G01 X-3.5108 Y0.7146 
G01 X-3.5112 Y0.7149 
G01 X-3.5104 Y0.7125 
G00 Z0.1000 
G00 X-3.5104 Y0.6875 
G01 Z-0.0070 F10.00 
G01 X-3.5112 Y0.6851 F20.00 
G01 X-3.5108 Y0.6854 
G01 X-3.5102 Y0.6860 
G01 X-3.5095 Y0.6864 
G01 X-3.5089 Y0.6869 
G01 X-3.5081 Y0.6872 
G01 X-3.5076 Y0.6875 
G01 X-3.5104 Y0.6875 
G00 Z0.1000 
G00 X-3.3625 Y0.5503 
G01 Z-0.0070 F10.00 
G01 X-3.3625 Y0.5604 F20.00 
G01 X-3.3659 Y0.5615 
G01 X-3.3717 Y0.5645 
G01 X-3.3738 Y0.5660 
G01 X-3.3735 Y0.5656 
G01 X-3.3733 Y0.5650 
G01 X-3.3730 Y0.5645 
G01 X-3.3727 Y0.5635 
G01 X-3.3724 Y0.5626 
G01 X-3.3723 Y0.5619 
G01 X-3.3721 Y0.5613 
G01 X-3.3721 Y0.5603 
G01 X-3.3720 Y0.5593 
G01 X-3.3721 Y0.5587 
G01 X-3.3721 Y0.5580 
G01 X-3.3724 Y0.5570 
G01 X-3.3726 Y0.5560 
G01 X-3.3728 Y0.5555 
G01 X-3.3730 Y0.5549 
G01 X-3.3735 Y0.5540 
G01 X-3.3739 Y0.5530 
G01 X-3.3743 Y0.5525 
G01 X-3.3746 Y0.5520 
G01 X-3.3753 Y0.5513 
G01 X-3.3760 Y0.5505 
G01 X-3.3765 Y0.5501 
G01 X-3.3770 Y0.5497 
G01 X-3.3778 Y0.5492 
G01 X-3.3784 Y0.5487 
G01 X-3.3625 Y0.5503 
G00 Z0.1000 
G00 X-3.3875 Y0.1985 
G01 Z-0.0070 F10.00 
G01 X-3.3875 Y0.1896 F20.00 
G01 X-3.3841 Y0.1885 
G01 X-3.3782 Y0.1855 
G01 X-3.3737 Y0.1822 
G01 X-3.3743 Y0.1845 
G01 X-3.3745 Y0.1853 
G01 X-3.3745 Y0.1886 
G01 X-3.3737 Y0.1918 
G01 X-3.3721 Y0.1947 
G01 X-3.3698 Y0.1970 
G01 X-3.3671 Y0.1985 
G01 X-3.3875 Y0.1985 
G00 Z0.1000 
G00 X-3.4125 Y0.1896 
G01 Z-0.0070 F10.00 
G01 X-3.4125 Y0.1923 F20.00 
G01 X-3.4128 Y0.1919 
G01 X-3.4131 Y0.1911 
G01 X-3.4136 Y0.1905 
G01 X-3.4140 Y0.1897 
G01 X-3.4146 Y0.1892 
G01 X-3.4149 Y0.1888 
G01 X-3.4125 Y0.1896 
G00 Z0.1000 
G00 X-3.4419 Y0.2352 
G01 Z-0.0070 F10.00 
G01 X-3.4441 Y0.2341 F20.00 
G01 X-3.4436 Y0.2340 
G01 X-3.4428 Y0.2340 
G01 X-3.4420 Y0.2338 
G01 X-3.4412 Y0.2337 
G01 X-3.4404 Y0.2334 
G01 X-3.4399 Y0.2332 
G01 X-3.4419 Y0.2352 
G00 Z0.1000 
G00 X-3.4242 Y0.2529 
G01 Z-0.0070 F10.00 
G01 X-3.4222 Y0.2509 F20.00 
G01 X-3.4224 Y0.2514 
G01 X-3.4227 Y0.2522 
G01 X-3.4228 Y0.2530 
G01 X-3.4230 Y0.2538 
G01 X-3.4230 Y0.2546 
G01 X-3.4230 Y0.2551 
G01 X-3.4242 Y0.2529 
G00 Z0.1000 
G00 X-3.3305 Y0.2235 
G01 Z-0.0070 F10.00 
G01 X-3.3305 Y0.2253 F20.00 
G01 X-3.3299 Y0.2291 
G01 X-3.3301 Y0.2287 
G01 X-3.3306 Y0.2280 
G01 X-3.3310 Y0.2273 
G01 X-3.3316 Y0.2267 
G01 X-3.3321 Y0.2261 
G01 X-3.3327 Y0.2256 
G01 X-3.3333 Y0.2250 
G01 X-3.3340 Y0.2246 
G01 X-3.3347 Y0.2241 
G01 X-3.3354 Y0.2238 
G01 X-3.3359 Y0.2235 
G01 X-3.3305 Y0.2235 
G00 Z0.1000 
G00 X-3.3232 Y0.1985 
G01 Z-0.0070 F10.00 
G01 X-3.3239 Y0.1985 F20.00 
G01 X-3.3227 Y0.1978 
G01 X-3.3232 Y0.1985 
G00 Z0.1000 
G00 X-0.6769 Y0.8036 
G01 Z-0.0070 F10.00 
G01 X-0.6767 Y0.8040 F20.00 
G01 X-0.6767 Y0.8042 
G01 X-0.6761 Y0.8055 
G01 X-0.6755 Y0.8069 
G01 X-0.7235 Y0.7720 
G01 X-0.6979 Y0.7826 
G01 X-0.6769 Y0.8036 
G00 Z0.1000 
G00 X-1.2912 Y0.1906 
G01 Z-0.0070 F10.00 
G01 X-1.2899 Y0.1929 F20.00 
G01 X-1.2914 Y0.1920 
G01 X-1.2925 Y0.1914 
G01 X-1.2937 Y0.1910 
G01 X-1.2912 Y0.1906 
G00 Z0.1000 
G00 X-1.0417 Y0.5906 
G01 Z-0.0070 F10.00 
G01 X-1.1404 Y0.4919 F20.00 
G01 X-1.1625 Y0.4609 
G01 X-1.1619 Y0.4612 
G01 X-1.1610 Y0.4617 
G01 X-1.1604 Y0.4619 
G01 X-1.1598 Y0.4622 
G01 X-1.1588 Y0.4623 
G01 X-1.1578 Y0.4626 
G01 X-1.1572 Y0.4626 
G01 X-1.1566 Y0.4627 
G01 X-1.1556 Y0.4626 
G01 X-1.1545 Y0.4626 
G01 X-1.1539 Y0.4625 
G01 X-1.1533 Y0.4624 
G01 X-1.1523 Y0.4620 
G01 X-1.1514 Y0.4618 
G01 X-1.1508 Y0.4615 
G01 X-1.1502 Y0.4612 
G01 X-1.1494 Y0.4606 
G01 X-1.1485 Y0.4601 
G01 X-1.1481 Y0.4597 
G01 X-1.1475 Y0.4593 
G01 X-1.1469 Y0.4585 
G01 X-1.1462 Y0.4578 
G01 X-1.1459 Y0.4573 
G01 X-1.1454 Y0.4568 
G01 X-1.1450 Y0.4559 
G01 X-1.1445 Y0.4550 
G01 X-1.1444 Y0.4544 
G01 X-1.1441 Y0.4538 
G01 X-1.1439 Y0.4528 
G01 X-1.1436 Y0.4518 
G01 X-1.1436 Y0.4512 
G01 X-1.1435 Y0.4505 
G01 X-1.1436 Y0.4495 
G01 X-1.1436 Y0.4488 
G01 X-1.1117 Y0.5048 
G01 X-1.1107 Y0.5065 
G01 X-1.1100 Y0.5076 
G01 X-1.1086 Y0.5090 
G01 X-1.1077 Y0.5100 
G01 X-1.0593 Y0.5584 
G01 X-1.0587 Y0.5591 
G01 X-1.0581 Y0.5595 
G01 X-1.0577 Y0.5600 
G01 X-1.0568 Y0.5605 
G01 X-0.8479 Y0.7124 
G01 X-0.8491 Y0.7123 
G01 X-0.8505 Y0.7121 
G01 X-0.8507 Y0.7121 
G01 X-0.8509 Y0.7121 
G01 X-0.8523 Y0.7123 
G01 X-0.8538 Y0.7125 
G01 X-0.8540 Y0.7126 
G01 X-0.8542 Y0.7126 
G01 X-0.8555 Y0.7132 
G01 X-0.8568 Y0.7137 
G01 X-0.8570 Y0.7139 
G01 X-0.8572 Y0.7139 
G01 X-0.8582 Y0.7148 
G01 X-0.8594 Y0.7157 
G01 X-0.8596 Y0.7159 
G01 X-0.8597 Y0.7160 
G01 X-0.8606 Y0.7172 
G01 X-0.8615 Y0.7183 
G01 X-0.8615 Y0.7185 
G01 X-0.8617 Y0.7187 
G01 X-0.8622 Y0.7200 
G01 X-0.8627 Y0.7213 
G01 X-0.8628 Y0.7215 
G01 X-0.8628 Y0.7217 
G01 X-0.8630 Y0.7232 
G01 X-0.8632 Y0.7246 
G01 X-0.8632 Y0.7248 
G01 X-0.8632 Y0.7250 
G01 X-0.8630 Y0.7264 
G01 X-0.8628 Y0.7279 
G01 X-0.8627 Y0.7281 
G01 X-0.8627 Y0.7283 
G01 X-0.8621 Y0.7296 
G01 X-0.8617 Y0.7307 
G01 X-1.0417 Y0.5906 
G00 Z0.1000 
G00 X-1.3668 Y0.1749 
G01 Z-0.0070 F10.00 
G01 X-1.3652 Y0.1727 F20.00 
G01 X-1.3652 Y0.1728 
G01 X-1.3655 Y0.1743 
G01 X-1.3654 Y0.1745 
G01 X-1.3655 Y0.1747 
G01 X-1.3653 Y0.1760 
G01 X-1.3652 Y0.1773 
G01 X-1.3668 Y0.1749 
G00 Z0.1000 
G00 X-1.3585 Y0.1533 
G01 Z-0.0070 F10.00 
G01 X-1.3585 Y0.1467 F20.00 
G01 X-1.3595 Y0.1403 
G01 X-1.3589 Y0.1411 
G01 X-1.3563 Y0.1431 
G01 X-1.3551 Y0.1436 
G01 X-1.3533 Y0.1444 
G01 X-1.3500 Y0.1448 
G01 X-1.3496 Y0.1448 
G01 X-1.3467 Y0.1444 
G01 X-1.3437 Y0.1431 
G01 X-1.3431 Y0.1426 
G01 X-1.3411 Y0.1411 
G01 X-1.3405 Y0.1403 
G01 X-1.3415 Y0.1467 
G01 X-1.3415 Y0.1533 
G01 X-1.3405 Y0.1596 
G01 X-1.3409 Y0.1591 
G01 X-1.3411 Y0.1589 
G01 X-1.3437 Y0.1569 
G01 X-1.3457 Y0.1560 
G01 X-1.3467 Y0.1556 
G01 X-1.3483 Y0.1554 
G01 X-1.3500 Y0.1552 
G01 X-1.3533 Y0.1556 
G01 X-1.3543 Y0.1560 
G01 X-1.3563 Y0.1569 
G01 X-1.3587 Y0.1587 
G01 X-1.3589 Y0.1589 
G01 X-1.3595 Y0.1596 
G01 X-1.3585 Y0.1533 
G00 Z0.1000 
G00 X-0.6698 Y0.8714 
G01 Z-0.0070 F10.00 
G01 X-0.6698 Y0.8714 F20.00 
G01 X-0.6701 Y0.8731 
G01 X-0.6703 Y0.8747 
G01 X-0.6701 Y0.8762 
G01 X-0.6699 Y0.8779 
G01 X-0.6692 Y0.8795 
G01 X-0.6687 Y0.8807 
G01 X-0.7928 Y0.7842 
G01 X-0.7916 Y0.7843 
G01 X-0.7899 Y0.7846 
G01 X-0.7882 Y0.7844 
G01 X-0.7866 Y0.7842 
G01 X-0.7850 Y0.7835 
G01 X-0.7837 Y0.7830 
G01 X-0.7835 Y0.7829 
G01 X-0.7822 Y0.7824 
G01 X-0.7808 Y0.7818 
G01 X-0.7807 Y0.7817 
G01 X-0.7805 Y0.7816 
G01 X-0.7794 Y0.7807 
G01 X-0.7782 Y0.7798 
G01 X-0.7781 Y0.7796 
G01 X-0.7780 Y0.7795 
G01 X-0.7771 Y0.7784 
G01 X-0.7762 Y0.7772 
G01 X-0.7761 Y0.7770 
G01 X-0.7760 Y0.7769 
G01 X-0.7755 Y0.7755 
G01 X-0.7749 Y0.7741 
G01 X-0.7749 Y0.7740 
G01 X-0.7748 Y0.7738 
G01 X-0.7747 Y0.7723 
G01 X-0.7745 Y0.7709 
G01 X-0.7745 Y0.7707 
G01 X-0.7745 Y0.7705 
G01 X-0.7747 Y0.7691 
G01 X-0.7749 Y0.7676 
G01 X-0.7750 Y0.7674 
G01 X-0.7750 Y0.7673 
G01 X-0.7756 Y0.7660 
G01 X-0.7762 Y0.7646 
G01 X-0.6519 Y0.8550 
G01 X-0.6531 Y0.8548 
G01 X-0.6546 Y0.8546 
G01 X-0.6547 Y0.8547 
G01 X-0.6549 Y0.8547 
G01 X-0.6564 Y0.8549 
G01 X-0.6578 Y0.8551 
G01 X-0.6580 Y0.8551 
G01 X-0.6581 Y0.8552 
G01 X-0.6594 Y0.8557 
G01 X-0.6609 Y0.8563 
G01 X-0.6610 Y0.8564 
G01 X-0.6611 Y0.8565 
G01 X-0.6622 Y0.8574 
G01 X-0.6635 Y0.8583 
G01 X-0.6636 Y0.8585 
G01 X-0.6637 Y0.8586 
G01 X-0.6646 Y0.8598 
G01 X-0.6655 Y0.8610 
G01 X-0.6655 Y0.8611 
G01 X-0.6656 Y0.8612 
G01 X-0.6662 Y0.8627 
G01 X-0.6692 Y0.8699 
G01 X-0.6698 Y0.8714 
G00 Z0.1000 
G00 X-0.7691 Y0.9632 
G01 Z-0.0070 F10.00 
G01 X-0.7711 Y0.9612 F20.00 
G01 X-0.7706 Y0.9614 
G01 X-0.7698 Y0.9617 
G01 X-0.7690 Y0.9618 
G01 X-0.7682 Y0.9620 
G01 X-0.7674 Y0.9620 
G01 X-0.7669 Y0.9620 
G01 X-0.7691 Y0.9632 
G00 Z0.1000 
G00 X-0.8691 Y0.9632 
G01 Z-0.0070 F10.00 
G01 X-0.8711 Y0.9612 F20.00 
G01 X-0.8706 Y0.9614 
G01 X-0.8698 Y0.9617 
G01 X-0.8690 Y0.9618 
G01 X-0.8682 Y0.9620 
G01 X-0.8674 Y0.9620 
G01 X-0.8669 Y0.9621 
G01 X-0.8691 Y0.9632 
G00 Z0.1000 
G00 X-1.5809 Y0.1868 
G01 Z-0.0070 F10.00 
G01 X-1.5789 Y0.1888 F20.00 
G01 X-1.5794 Y0.1886 
G01 X-1.5802 Y0.1883 
G01 X-1.5810 Y0.1882 
G01 X-1.5818 Y0.1880 
G01 X-1.5826 Y0.1880 
G01 X-1.5831 Y0.1879 
G01 X-1.5809 Y0.1868 
G00 Z0.1000 
G00 X-1.0385 Y0.5159 
G01 Z-0.0070 F10.00 
G01 X-1.0355 Y0.5217 F20.00 
G01 X-1.0316 Y0.5270 
G01 X-1.0270 Y0.5316 
G01 X-1.0217 Y0.5355 
G01 X-1.0159 Y0.5385 
G01 X-1.0097 Y0.5405 
G01 X-1.0078 Y0.5408 
G01 X-1.0087 Y0.5409 
G01 X-1.0093 Y0.5412 
G01 X-1.0099 Y0.5413 
G01 X-1.0108 Y0.5419 
G01 X-1.0117 Y0.5422 
G01 X-1.0122 Y0.5427 
G01 X-1.0128 Y0.5430 
G01 X-1.0135 Y0.5437 
G01 X-1.0142 Y0.5443 
G01 X-1.0146 Y0.5448 
G01 X-1.0151 Y0.5453 
G01 X-1.0156 Y0.5462 
G01 X-1.0162 Y0.5470 
G01 X-1.0164 Y0.5476 
G01 X-1.0167 Y0.5482 
G01 X-1.0170 Y0.5491 
G01 X-1.0173 Y0.5500 
G01 X-1.0174 Y0.5507 
G01 X-1.0176 Y0.5513 
G01 X-1.0176 Y0.5523 
G01 X-1.0177 Y0.5533 
G01 X-1.0176 Y0.5540 
G01 X-1.0176 Y0.5546 
G01 X-1.0173 Y0.5556 
G01 X-1.0172 Y0.5566 
G01 X-1.0169 Y0.5572 
G01 X-1.0167 Y0.5578 
G01 X-1.0162 Y0.5587 
G01 X-1.0159 Y0.5593 
G01 X-1.0419 Y0.5405 
G01 X-1.0558 Y0.5266 
G01 X-1.0552 Y0.5267 
G01 X-1.0545 Y0.5270 
G01 X-1.0537 Y0.5271 
G01 X-1.0529 Y0.5273 
G01 X-1.0520 Y0.5273 
G01 X-1.0512 Y0.5274 
G01 X-1.0504 Y0.5273 
G01 X-1.0496 Y0.5273 
G01 X-1.0488 Y0.5271 
G01 X-1.0479 Y0.5270 
G01 X-1.0472 Y0.5267 
G01 X-1.0464 Y0.5265 
G01 X-1.0457 Y0.5261 
G01 X-1.0449 Y0.5258 
G01 X-1.0443 Y0.5253 
G01 X-1.0435 Y0.5248 
G01 X-1.0429 Y0.5242 
G01 X-1.0423 Y0.5238 
G01 X-1.0418 Y0.5231 
G01 X-1.0412 Y0.5225 
G01 X-1.0408 Y0.5218 
G01 X-1.0403 Y0.5211 
G01 X-1.0400 Y0.5204 
G01 X-1.0396 Y0.5197 
G01 X-1.0393 Y0.5189 
G01 X-1.0390 Y0.5181 
G01 X-1.0389 Y0.5173 
G01 X-1.0387 Y0.5165 
G01 X-1.0387 Y0.5156 
G01 X-1.0387 Y0.5153 
G01 X-1.0385 Y0.5159 
G00 Z0.1000 
G00 X-1.2695 Y0.1782 
G01 Z-0.0070 F10.00 
G01 X-1.2683 Y0.1770 F20.00 
G01 X-1.2660 Y0.1739 
G01 X-1.2662 Y0.1741 
G01 X-1.2667 Y0.1750 
G01 X-1.2667 Y0.1751 
G01 X-1.2671 Y0.1764 
G01 X-1.2672 Y0.1768 
G01 X-1.2673 Y0.1770 
G01 X-1.2676 Y0.1782 
G01 X-1.2676 Y0.1783 
G01 X-1.2676 Y0.1784 
G01 X-1.2676 Y0.1799 
G01 X-1.2677 Y0.1800 
G01 X-1.2677 Y0.1814 
G01 X-1.2695 Y0.1782 
G00 Z0.1000 
G00 X-0.9903 Y0.3595 
G01 Z-0.0070 F10.00 
G01 X-0.9967 Y0.3585 F20.00 
G01 X-1.0033 Y0.3585 
G01 X-1.0097 Y0.3595 
G01 X-1.0158 Y0.3615 
G01 X-1.0156 Y0.3613 
G01 X-1.0150 Y0.3607 
G01 X-1.0146 Y0.3600 
G01 X-1.0141 Y0.3593 
G01 X-1.0138 Y0.3585 
G01 X-1.0134 Y0.3578 
G01 X-1.0131 Y0.3570 
G01 X-1.0128 Y0.3563 
G01 X-1.0127 Y0.3554 
G01 X-1.0125 Y0.3546 
G01 X-1.0125 Y0.3538 
G01 X-1.0124 Y0.3530 
G01 X-1.0125 Y0.3522 
G01 X-1.0125 Y0.3513 
G01 X-1.0127 Y0.3506 
G01 X-1.0128 Y0.3497 
G01 X-1.0131 Y0.3490 
G01 X-1.0134 Y0.3482 
G01 X-1.0138 Y0.3474 
G01 X-1.0141 Y0.3467 
G01 X-1.0146 Y0.3461 
G01 X-1.0150 Y0.3453 
G01 X-1.0156 Y0.3447 
G01 X-1.0161 Y0.3441 
G01 X-1.0167 Y0.3436 
G01 X-1.0173 Y0.3430 
G01 X-1.0181 Y0.3426 
G01 X-1.0187 Y0.3421 
G01 X-1.0195 Y0.3418 
G01 X-1.0199 Y0.3415 
G01 X-0.9801 Y0.3415 
G01 X-0.9805 Y0.3418 
G01 X-0.9813 Y0.3421 
G01 X-0.9819 Y0.3426 
G01 X-0.9827 Y0.3430 
G01 X-0.9833 Y0.3436 
G01 X-0.9839 Y0.3441 
G01 X-0.9844 Y0.3447 
G01 X-0.9850 Y0.3453 
G01 X-0.9854 Y0.3461 
G01 X-0.9859 Y0.3467 
G01 X-0.9862 Y0.3474 
G01 X-0.9866 Y0.3482 
G01 X-0.9868 Y0.3490 
G01 X-0.9872 Y0.3497 
G01 X-0.9873 Y0.3506 
G01 X-0.9875 Y0.3513 
G01 X-0.9875 Y0.3522 
G01 X-0.9876 Y0.3530 
G01 X-0.9875 Y0.3538 
G01 X-0.9875 Y0.3546 
G01 X-0.9873 Y0.3554 
G01 X-0.9872 Y0.3563 
G01 X-0.9868 Y0.3570 
G01 X-0.9866 Y0.3578 
G01 X-0.9862 Y0.3585 
G01 X-0.9859 Y0.3593 
G01 X-0.9854 Y0.3600 
G01 X-0.9850 Y0.3607 
G01 X-0.9844 Y0.3613 
G01 X-0.9842 Y0.3615 
G01 X-0.9903 Y0.3595 
G00 Z0.1000 
G00 X-0.9875 Y0.2354 
G01 Z-0.0070 F10.00 
G01 X-0.9851 Y0.2344 F20.00 
G01 X-0.9854 Y0.2348 
G01 X-0.9860 Y0.2354 
G01 X-0.9864 Y0.2361 
G01 X-0.9869 Y0.2368 
G01 X-0.9872 Y0.2375 
G01 X-0.9875 Y0.2380 
G01 X-0.9875 Y0.2354 
G00 Z0.1000 
G00 X-0.5742 Y0.1830 
G01 Z-0.0070 F10.00 
G01 X-0.5738 Y0.1853 F20.00 
G01 X-0.5745 Y0.1845 
G01 X-0.5754 Y0.1834 
G01 X-0.5756 Y0.1832 
G01 X-0.5757 Y0.1830 
G01 X-0.5764 Y0.1826 
G01 X-0.5742 Y0.1830 
G00 Z0.1000 
G00 X-0.2154 Y0.8977 
G01 Z-0.0070 F10.00 
G01 X-0.2179 Y0.9002 F20.00 
G01 X-0.2176 Y0.8990 
G01 X-0.2171 Y0.8977 
G01 X-0.2171 Y0.8975 
G01 X-0.2171 Y0.8973 
G01 X-0.2171 Y0.8958 
G01 X-0.2171 Y0.8947 
G01 X-0.2154 Y0.8977 
G00 Z0.1000 
G00 X-0.3375 Y0.9604 
G01 Z-0.0070 F10.00 
G01 X-0.3375 Y0.9568 F20.00 
G01 X-0.3374 Y0.9572 
G01 X-0.3369 Y0.9585 
G01 X-0.3367 Y0.9587 
G01 X-0.3366 Y0.9590 
G01 X-0.3358 Y0.9601 
G01 X-0.3350 Y0.9612 
G01 X-0.3349 Y0.9613 
G01 X-0.3375 Y0.9604 
G00 Z0.1000 
G00 X-0.9616 Y0.4161 
G01 Z-0.0070 F10.00 
G01 X-0.9615 Y0.4159 F20.00 
G01 X-0.9605 Y0.4127 
G01 X-0.9603 Y0.4140 
G01 X-0.9602 Y0.4153 
G01 X-0.9601 Y0.4156 
G01 X-0.9601 Y0.4159 
G01 X-0.9595 Y0.4172 
G01 X-0.9592 Y0.4182 
G01 X-0.9616 Y0.4161 
G00 Z0.1000 
G00 X-0.2625 Y0.9604 
G01 Z-0.0070 F10.00 
G01 X-0.2649 Y0.9612 F20.00 
G01 X-0.2646 Y0.9608 
G01 X-0.2640 Y0.9602 
G01 X-0.2636 Y0.9595 
G01 X-0.2631 Y0.9589 
G01 X-0.2628 Y0.9581 
G01 X-0.2625 Y0.9577 
G01 X-0.2625 Y0.9604 
G00 Z0.1000 
G00 X-0.5913 Y0.1755 
G01 Z-0.0070 F10.00 
G01 X-0.5890 Y0.1771 F20.00 
G01 X-0.5892 Y0.1771 
G01 X-0.5905 Y0.1768 
G01 X-0.5909 Y0.1768 
G01 X-0.5913 Y0.1768 
G01 X-0.5925 Y0.1769 
G01 X-0.5935 Y0.1770 
G01 X-0.5913 Y0.1755 
G00 Z0.1000 
G00 X-0.9709 Y0.1761 
G01 Z-0.0070 F10.00 
G01 X-0.9761 Y0.1709 F20.00 
G01 X-0.9822 Y0.1668 
G01 X-0.9891 Y0.1639 
G01 X-0.9963 Y0.1625 
G01 X-1.0037 Y0.1625 
G01 X-1.0109 Y0.1639 
G01 X-1.0178 Y0.1668 
G01 X-1.0239 Y0.1709 
G01 X-1.0291 Y0.1761 
G01 X-1.0332 Y0.1822 
G01 X-1.0361 Y0.1891 
G01 X-1.0375 Y0.1963 
G01 X-1.0375 Y0.1966 
G01 X-1.0377 Y0.1961 
G01 X-1.0383 Y0.1951 
G01 X-1.0390 Y0.1940 
G01 X-1.0393 Y0.1937 
G01 X-1.0395 Y0.1934 
G01 X-1.0404 Y0.1926 
G01 X-1.0413 Y0.1916 
G01 X-1.0417 Y0.1915 
G01 X-1.0419 Y0.1912 
G01 X-1.0431 Y0.1906 
G01 X-1.0442 Y0.1900 
G01 X-1.0445 Y0.1899 
G01 X-1.0449 Y0.1897 
G01 X-1.0461 Y0.1895 
G01 X-1.0473 Y0.1891 
G01 X-1.0477 Y0.1891 
G01 X-1.0481 Y0.1891 
G01 X-1.0493 Y0.1891 
G01 X-1.0506 Y0.1891 
G01 X-1.0510 Y0.1893 
G01 X-1.0514 Y0.1893 
G01 X-1.0526 Y0.1897 
G01 X-1.0538 Y0.1900 
G01 X-1.0542 Y0.1902 
G01 X-1.0545 Y0.1903 
G01 X-1.0556 Y0.1910 
G01 X-1.0567 Y0.1916 
G01 X-1.0569 Y0.1919 
G01 X-1.0423 Y0.1625 
G01 X-0.9628 Y0.1625 
G01 X-0.9633 Y0.1628 
G01 X-0.9640 Y0.1631 
G01 X-0.9647 Y0.1636 
G01 X-0.9654 Y0.1640 
G01 X-0.9660 Y0.1646 
G01 X-0.9666 Y0.1651 
G01 X-0.9671 Y0.1657 
G01 X-0.9677 Y0.1663 
G01 X-0.9682 Y0.1670 
G01 X-0.9687 Y0.1677 
G01 X-0.9690 Y0.1684 
G01 X-0.9694 Y0.1692 
G01 X-0.9696 Y0.1700 
G01 X-0.9699 Y0.1707 
G01 X-0.9700 Y0.1715 
G01 X-0.9702 Y0.1723 
G01 X-0.9702 Y0.1732 
G01 X-0.9703 Y0.1740 
G01 X-0.9702 Y0.1748 
G01 X-0.9702 Y0.1756 
G01 X-0.9700 Y0.1764 
G01 X-0.9699 Y0.1773 
G01 X-0.9696 Y0.1780 
G01 X-0.9709 Y0.1761 
G00 Z0.1000 
G00 X-0.9875 Y0.2585 
G01 Z-0.0070 F10.00 
G01 X-0.9875 Y0.2521 F20.00 
G01 X-0.9860 Y0.2547 
G01 X-0.9837 Y0.2570 
G01 X-0.9811 Y0.2585 
G01 X-0.9875 Y0.2585 
G00 Z0.1000 
G00 X-1.2782 Y0.1145 
G01 Z-0.0070 F10.00 
G01 X-1.2841 Y0.1115 F20.00 
G01 X-1.2903 Y0.1095 
G01 X-1.2967 Y0.1085 
G01 X-1.3033 Y0.1085 
G01 X-1.3097 Y0.1095 
G01 X-1.3159 Y0.1115 
G01 X-1.3217 Y0.1145 
G01 X-1.3241 Y0.1162 
G01 X-1.3233 Y0.1148 
G01 X-1.3225 Y0.1117 
G01 X-1.3224 Y0.1084 
G01 X-1.3233 Y0.1053 
G01 X-1.3233 Y0.1052 
G01 X-1.3249 Y0.1023 
G01 X-1.3273 Y0.1000 
G01 X-1.3299 Y0.0985 
G01 X-1.2701 Y0.0985 
G01 X-1.2727 Y0.1000 
G01 X-1.2751 Y0.1023 
G01 X-1.2767 Y0.1052 
G01 X-1.2775 Y0.1083 
G01 X-1.2775 Y0.1116 
G01 X-1.2767 Y0.1148 
G01 X-1.2759 Y0.1162 
G01 X-1.2782 Y0.1145 
G00 Z0.1000 
G00 X-1.0368 Y0.4809 
G01 Z-0.0070 F10.00 
G01 X-1.0379 Y0.4831 F20.00 
G01 X-1.0380 Y0.4826 
G01 X-1.0380 Y0.4818 
G01 X-1.0382 Y0.4810 
G01 X-1.0383 Y0.4802 
G01 X-1.0386 Y0.4794 
G01 X-1.0388 Y0.4789 
G01 X-1.0368 Y0.4809 
G00 Z0.1000 
G00 X-1.6632 Y0.1691 
G01 Z-0.0070 F10.00 
G01 X-1.6615 Y0.1659 F20.00 
G01 X-1.6595 Y0.1597 
G01 X-1.6585 Y0.1533 
G01 X-1.6585 Y0.1467 
G01 X-1.6595 Y0.1403 
G01 X-1.6589 Y0.1411 
G01 X-1.6563 Y0.1431 
G01 X-1.6551 Y0.1436 
G01 X-1.6533 Y0.1444 
G01 X-1.6500 Y0.1448 
G01 X-1.6496 Y0.1448 
G01 X-1.6467 Y0.1444 
G01 X-1.6437 Y0.1431 
G01 X-1.6431 Y0.1426 
G01 X-1.6411 Y0.1411 
G01 X-1.6405 Y0.1403 
G01 X-1.6415 Y0.1467 
G01 X-1.6415 Y0.1533 
G01 X-1.6405 Y0.1597 
G01 X-1.6385 Y0.1659 
G01 X-1.6355 Y0.1717 
G01 X-1.6316 Y0.1770 
G01 X-1.6270 Y0.1816 
G01 X-1.6217 Y0.1855 
G01 X-1.6159 Y0.1885 
G01 X-1.6153 Y0.1887 
G01 X-1.6156 Y0.1887 
G01 X-1.6165 Y0.1887 
G01 X-1.6173 Y0.1889 
G01 X-1.6181 Y0.1890 
G01 X-1.6189 Y0.1893 
G01 X-1.6197 Y0.1896 
G01 X-1.6204 Y0.1900 
G01 X-1.6211 Y0.1903 
G01 X-1.6218 Y0.1908 
